; generated by Slic3r 1.3.0-dev on 2018-05-28 at 19:08:15

; external perimeters extrusion width = 0.66mm (7.15mm^3/s)
; perimeters extrusion width = 0.84mm (11.63mm^3/s)
; infill extrusion width = 0.75mm (10.28mm^3/s)
; solid infill extrusion width = 0.84mm (11.63mm^3/s)
; top infill extrusion width = 0.84mm (11.63mm^3/s)

M107
M104 S205 ; set temperature
G28 ; home all axes
G32; probe home individual Z axis
G29 S1; load bed mesh

; Filament gcode

M109 S205 ; set temperature and wait for it to be reached
G21 ; set units to millimeters
G90 ; use absolute coordinates
M82 ; use absolute distances for extrusion
G92 E0
M584 U3 Z2 V4; Actuate motors independently
G92 U10.000 V10.000 Z10.000
G1 U0.320 V0.320 Z0.320 F6000.000
G1 E-2.00000 F2400.00000
G92 E0
G1 X382.462 Y185.413 F6000.000
G1 E2.00000 F2400.00000
G1 F1680
G1 X382.992 Y184.393 E2.04558
G1 X383.284 Y183.877 E2.06908
G1 X384.024 Y182.663 E2.12545
G1 X384.417 Y182.076 E2.15348
G1 X385.223 Y180.970 E2.20772
G1 X385.698 Y180.376 E2.23790
G1 X386.925 Y178.996 E2.31110
G1 X387.542 Y178.391 E2.34540
G1 X388.400 Y177.618 E2.39118
G1 X389.036 Y177.097 E2.42379
G1 X389.929 Y176.434 E2.46787
G1 X390.661 Y175.946 E2.50276
G1 X391.592 Y175.393 E2.54570
G1 X392.325 Y175.004 E2.57861
G1 X393.101 Y174.642 E2.61258
G1 X393.870 Y174.329 E2.64547
G1 X394.784 Y174.007 E2.68393
G1 X395.696 Y173.741 E2.72159
G1 X396.631 Y173.523 E2.75965
G1 X397.243 Y173.404 E2.78437
G1 X398.114 Y173.289 E2.81923
G1 X399.034 Y173.211 E2.85584
G1 X400.007 Y173.183 E2.89441
G1 X400.933 Y173.209 E2.93117
G1 X401.900 Y173.291 E2.96962
G1 X402.843 Y173.425 E3.00740
G1 X403.816 Y173.622 E3.04676
G1 X404.853 Y173.896 E3.08929
G1 X405.754 Y174.191 E3.12689
G1 X406.689 Y174.555 E3.16667
G1 X407.464 Y174.905 E3.20038
G1 X408.379 Y175.378 E3.24122
G1 X408.892 Y175.667 E3.26460
G1 X409.367 Y175.960 E3.28673
G1 X409.969 Y176.367 E3.31556
G1 X410.773 Y176.950 E3.35493
G1 X411.365 Y177.420 E3.38489
G1 X412.239 Y178.186 E3.43098
G1 X412.741 Y178.665 E3.45849
G1 X413.565 Y179.524 E3.50568
G1 X414.358 Y180.438 E3.55369
G1 X415.482 Y181.928 E3.62766
G1 X415.836 Y182.448 E3.65261
G1 X416.380 Y183.314 E3.69319
G1 X416.864 Y184.133 E3.73091
G1 X417.531 Y185.393 E3.78743
G1 X417.786 Y185.927 E3.81090
G1 X418.470 Y187.489 E3.87853
G1 X418.683 Y188.033 E3.90166
G1 X419.218 Y189.577 E3.96647
G1 X419.374 Y190.079 E3.98732
G1 X419.811 Y191.673 E4.05285
G1 X419.929 Y192.160 E4.07271
G1 X420.269 Y193.799 E4.13911
G1 X420.598 Y195.961 E4.22581
G1 X420.797 Y198.158 E4.31330
G1 X420.846 Y199.209 E4.35500
G1 X420.860 Y201.096 E4.42985
G1 X420.848 Y201.609 E4.45019
G1 X420.713 Y203.872 E4.54009
G1 X417.051 Y239.711 E5.96862
G1 X416.919 Y240.597 E6.00412
G1 X416.691 Y241.575 E6.04395
G1 X416.608 Y241.854 E6.05548
G1 X416.256 Y242.825 E6.09644
G1 X416.143 Y243.085 E6.10769
G1 X415.645 Y244.063 E6.15119
G1 X415.506 Y244.298 E6.16204
G1 X414.832 Y245.275 E6.20910
G1 X414.669 Y245.479 E6.21945
G1 X413.777 Y246.440 E6.27144
G1 X413.596 Y246.607 E6.28122
G1 X412.443 Y247.505 E6.33916
G1 X412.248 Y247.632 E6.34838
G1 X410.854 Y248.366 E6.41085
G1 X410.012 Y248.686 E6.44656
G1 X409.471 Y248.843 E6.46890
G1 X407.715 Y249.291 E6.54078
G1 X406.865 Y249.462 E6.57516
G1 X404.391 Y249.834 E6.67436
G1 X403.559 Y249.927 E6.70757
G1 X403.040 Y249.961 E6.72817
G1 X400.175 Y250.056 E6.84186
G1 X399.001 Y250.022 E6.88841
G1 X396.028 Y249.805 E7.00663
G1 X395.499 Y249.736 E7.02778
G1 X393.101 Y249.345 E7.12411
G1 X392.553 Y249.238 E7.14625
G1 X390.706 Y248.813 E7.22143
G1 X390.333 Y248.718 E7.23667
G1 X389.616 Y248.486 E7.26657
G1 X388.547 Y248.031 E7.31262
G1 X387.751 Y247.579 E7.34895
G1 X387.035 Y247.091 E7.38329
G1 X386.560 Y246.705 E7.40753
G1 X385.843 Y246.036 E7.44645
G1 X385.462 Y245.614 E7.46898
G1 X384.886 Y244.890 E7.50566
G1 X384.519 Y244.341 E7.53187
G1 X384.210 Y243.828 E7.55560
G1 X383.876 Y243.172 E7.58479
G1 X383.645 Y242.654 E7.60727
G1 X383.481 Y242.222 E7.62560
G1 X383.227 Y241.438 E7.65829
G1 X383.061 Y240.757 E7.68607
G1 X382.959 Y240.225 E7.70755
G1 X382.897 Y239.774 E7.72561
G1 X379.276 Y203.281 E9.17979
G1 X379.169 Y200.894 E9.27451
G1 X379.165 Y200.347 E9.29623
G1 X379.213 Y198.479 E9.37032
G1 X379.245 Y197.918 E9.39259
G1 X379.414 Y196.060 E9.46656
G1 X379.604 Y194.648 E9.52307
G1 X380.012 Y192.494 E9.60999
G1 X380.142 Y191.929 E9.63298
G1 X380.582 Y190.271 E9.70101
G1 X380.758 Y189.693 E9.72496
G1 X381.301 Y188.106 E9.79148
G1 X381.727 Y187.050 E9.83664
G1 X382.423 Y185.494 E9.90422
G1 X382.742 Y185.558 F6000.000
G1 F1680
G1 X383.272 Y184.538 E9.94980
G1 X383.553 Y184.041 E9.97245
G1 X384.293 Y182.828 E10.02881
G1 X384.672 Y182.262 E10.05582
G1 X385.478 Y181.156 E10.11006
G1 X385.935 Y180.583 E10.13914
G1 X386.809 Y179.584 E10.19177
G1 X387.149 Y179.217 E10.21160
G1 X387.753 Y178.625 E10.24516
G1 X388.611 Y177.852 E10.29094
G1 X389.224 Y177.350 E10.32236
G1 X390.117 Y176.687 E10.36644
G1 X390.822 Y176.218 E10.40006
G1 X391.753 Y175.664 E10.44299
G1 X392.459 Y175.289 E10.47470
G1 X393.234 Y174.928 E10.50860
G1 X393.974 Y174.626 E10.54030
G1 X394.889 Y174.304 E10.57875
G1 X395.767 Y174.048 E10.61504
G1 X396.702 Y173.830 E10.65310
G1 X397.292 Y173.716 E10.67691
G1 X398.141 Y173.603 E10.71088
G1 X399.061 Y173.525 E10.74749
G1 X399.998 Y173.499 E10.78465
G1 X400.924 Y173.525 E10.82141
G1 X401.855 Y173.603 E10.85845
G1 X402.798 Y173.737 E10.89621
G1 X403.735 Y173.927 E10.93413
G1 X404.771 Y174.201 E10.97662
G1 X405.640 Y174.485 E11.01285
G1 X406.573 Y174.848 E11.05257
G1 X407.320 Y175.185 E11.08505
G1 X408.233 Y175.657 E11.12582
G1 X408.728 Y175.936 E11.14834
G1 X409.201 Y176.229 E11.17039
G1 X409.786 Y176.624 E11.19839
G1 X410.588 Y177.205 E11.23768
G1 X411.158 Y177.658 E11.26654
G1 X412.031 Y178.423 E11.31255
G1 X412.514 Y178.885 E11.33906
G1 X413.337 Y179.741 E11.38616
G1 X414.117 Y180.641 E11.43337
G1 X415.228 Y182.114 E11.50654
G1 X415.569 Y182.616 E11.53058
G1 X416.113 Y183.482 E11.57115
G1 X416.586 Y184.281 E11.60796
G1 X417.251 Y185.539 E11.66440
G1 X417.498 Y186.053 E11.68701
G1 X418.180 Y187.614 E11.75457
G1 X418.385 Y188.138 E11.77685
G1 X418.920 Y189.680 E11.84159
G1 X419.071 Y190.164 E11.86168
G1 X419.507 Y191.756 E11.92714
G1 X419.961 Y193.863 E12.01260
G1 X420.286 Y196.006 E12.09854
G1 X420.483 Y198.184 E12.18527
G1 X420.530 Y199.212 E12.22607
G1 X420.545 Y201.098 E12.30087
G1 X420.533 Y201.592 E12.32047
G1 X420.399 Y203.840 E12.40977
G1 X416.738 Y239.679 E13.83829
G1 X416.609 Y240.543 E13.87292
G1 X416.388 Y241.485 E13.91130
G1 X416.306 Y241.764 E13.92282
G1 X415.966 Y242.700 E13.96229
G1 X415.854 Y242.960 E13.97354
G1 X415.374 Y243.902 E14.01545
G1 X415.234 Y244.137 E14.02630
G1 X414.585 Y245.078 E14.07164
G1 X414.423 Y245.283 E14.08199
G1 X413.563 Y246.208 E14.13208
G1 X413.382 Y246.376 E14.14187
G1 X412.271 Y247.240 E14.19769
G1 X412.076 Y247.367 E14.20691
G1 X410.733 Y248.075 E14.26709
G1 X409.915 Y248.386 E14.30182
G1 X409.393 Y248.537 E14.32334
G1 X407.637 Y248.985 E14.39523
G1 X406.818 Y249.151 E14.42835
G1 X404.344 Y249.523 E14.52754
G1 X403.529 Y249.613 E14.56009
G1 X403.029 Y249.646 E14.57993
G1 X400.168 Y249.741 E14.69346
G1 X399.022 Y249.707 E14.73889
G1 X396.059 Y249.491 E14.85671
G1 X395.550 Y249.424 E14.87708
G1 X393.152 Y249.034 E14.97341
G1 X392.624 Y248.930 E14.99475
G1 X390.776 Y248.505 E15.06992
G1 X390.417 Y248.414 E15.08463
G1 X389.726 Y248.190 E15.11343
G1 X388.689 Y247.750 E15.15809
G1 X387.915 Y247.309 E15.19342
G1 X387.225 Y246.840 E15.22651
G1 X386.768 Y246.468 E15.24988
G1 X386.070 Y245.817 E15.28771
G1 X385.703 Y245.410 E15.30943
G1 X385.143 Y244.706 E15.34512
G1 X384.783 Y244.169 E15.37076
G1 X384.485 Y243.675 E15.39364
G1 X384.160 Y243.034 E15.42214
G1 X383.937 Y242.535 E15.44380
G1 X383.779 Y242.118 E15.46148
G1 X383.531 Y241.354 E15.49336
G1 X383.369 Y240.688 E15.52053
G1 X383.270 Y240.175 E15.54123
G1 X383.210 Y239.739 E15.55867
G1 X379.590 Y203.250 E17.01271
G1 X379.484 Y200.882 E17.10668
G1 X379.481 Y200.355 E17.12760
G1 X379.528 Y198.487 E17.20169
G1 X379.559 Y197.947 E17.22314
G1 X379.728 Y196.089 E17.29711
G1 X379.916 Y194.692 E17.35298
G1 X380.321 Y192.554 E17.43927
G1 X380.447 Y192.010 E17.46142
G1 X380.887 Y190.352 E17.52945
G1 X381.056 Y189.795 E17.55253
G1 X381.599 Y188.208 E17.61904
G1 X382.017 Y187.174 E17.66327
G1 X382.703 Y185.639 E17.72992
G1 E15.72992 F2400.00000
G92 E0
G1 X409.095 Y209.939 F6000.000
G1 E2.00000 F2400.00000
G1 F2100
G1 X408.493 Y211.371 E2.06161
G1 X407.818 Y212.698 E2.12065
G1 X407.064 Y213.927 E2.17780
G1 X406.748 Y214.377 E2.19960
G1 X406.012 Y215.302 E2.24646
G1 X405.257 Y216.096 E2.28995
G1 X404.463 Y216.784 E2.33159
G1 X403.879 Y217.205 E2.36012
G1 X403.136 Y217.636 E2.39420
G1 X402.199 Y218.040 E2.43465
G1 X401.476 Y218.250 E2.46453
G1 X400.746 Y218.377 E2.49391
G1 X399.908 Y218.418 E2.52716
G1 X399.181 Y218.365 E2.55606
G1 X398.567 Y218.248 E2.58087
G1 X397.722 Y218.000 E2.61576
G1 X396.832 Y217.603 E2.65442
G1 X396.045 Y217.125 E2.69091
G1 X395.326 Y216.580 E2.72671
G1 X394.619 Y215.935 E2.76467
G1 X394.325 Y215.631 E2.78141
G1 X393.586 Y214.765 E2.82657
G1 X392.908 Y213.823 E2.87259
G1 X392.274 Y212.790 E2.92064
G1 X391.858 Y212.014 E2.95557
G1 X391.242 Y210.680 E3.01384
G1 X390.707 Y209.283 E3.07316
G1 X390.251 Y207.820 E3.13392
G1 X389.872 Y206.282 E3.19671
G1 X389.782 Y205.849 E3.21427
G1 X389.493 Y204.089 E3.28497
G1 X389.315 Y202.328 E3.35515
G1 X389.247 Y200.556 E3.42549
G1 X389.292 Y198.781 E3.49588
G1 X389.453 Y197.008 E3.56650
G1 X389.581 Y196.107 E3.60255
G1 X389.900 Y194.471 E3.66866
G1 X390.315 Y192.910 E3.73273
G1 X390.823 Y191.425 E3.79494
G1 X391.433 Y190.019 E3.85573
G1 X391.916 Y189.088 E3.89730
G1 X392.600 Y187.969 E3.94933
G1 X393.333 Y186.963 E3.99866
G1 X394.135 Y186.045 E4.04701
G1 X394.327 Y185.851 E4.05781
G1 X395.101 Y185.153 E4.09915
G1 X395.879 Y184.576 E4.13754
G1 X396.683 Y184.098 E4.17465
G1 X397.287 Y183.816 E4.20107
G1 X398.059 Y183.544 E4.23355
G1 X398.865 Y183.357 E4.26635
G1 X399.806 Y183.266 E4.30385
G1 X400.566 Y183.287 E4.33399
G1 X401.328 Y183.395 E4.36449
G1 X402.176 Y183.619 E4.39927
G1 X402.927 Y183.911 E4.43124
G1 X403.673 Y184.297 E4.46452
G1 X404.127 Y184.587 E4.48592
G1 X404.798 Y185.074 E4.51879
G1 X405.532 Y185.717 E4.55749
G1 X406.241 Y186.456 E4.59807
G1 X406.606 Y186.888 E4.62050
G1 X407.326 Y187.859 E4.66844
G1 X407.978 Y188.900 E4.71718
G1 X408.570 Y190.018 E4.76733
G1 X409.189 Y191.434 E4.82860
G1 X409.673 Y192.831 E4.88720
G1 X410.072 Y194.288 E4.94712
G1 X410.385 Y195.795 E5.00816
G1 X410.610 Y197.349 E5.07040
G1 X410.762 Y199.334 E5.14934
G1 X410.776 Y201.111 E5.21983
G1 X410.679 Y202.869 E5.28964
G1 X410.471 Y204.620 E5.35957
G1 X410.151 Y206.357 E5.42960
G1 X409.722 Y208.057 E5.49913
G1 X409.123 Y209.854 E5.57421
G1 X409.385 Y210.061 F6000.000
G1 F2100
G1 X408.779 Y211.504 E5.63628
G1 X408.093 Y212.852 E5.69627
G1 X407.328 Y214.100 E5.75430
G1 X407.001 Y214.566 E5.77687
G1 X406.250 Y215.509 E5.82466
G1 X405.475 Y216.325 E5.86930
G1 X404.659 Y217.032 E5.91211
G1 X404.051 Y217.470 E5.94181
G1 X403.278 Y217.919 E5.97725
G1 X402.306 Y218.337 E6.01923
G1 X401.547 Y218.558 E6.05057
G1 X400.780 Y218.691 E6.08142
G1 X399.904 Y218.734 E6.11621
G1 X399.140 Y218.678 E6.14659
G1 X398.493 Y218.555 E6.17272
G1 X397.613 Y218.297 E6.20907
G1 X396.685 Y217.883 E6.24936
G1 X395.868 Y217.387 E6.28728
G1 X395.124 Y216.823 E6.32430
G1 X394.399 Y216.161 E6.36321
G1 X394.092 Y215.844 E6.38073
G1 X393.338 Y214.960 E6.42680
G1 X392.645 Y213.998 E6.47380
G1 X392.000 Y212.947 E6.52267
G1 X391.576 Y212.155 E6.55833
G1 X390.951 Y210.802 E6.61740
G1 X390.409 Y209.386 E6.67753
G1 X389.947 Y207.904 E6.73907
G1 X389.564 Y206.352 E6.80248
G1 X389.472 Y205.906 E6.82052
G1 X389.180 Y204.131 E6.89186
G1 X389.000 Y202.350 E6.96283
G1 X388.932 Y200.558 E7.03396
G1 X388.977 Y198.763 E7.10515
G1 X389.140 Y196.971 E7.17650
G1 X389.270 Y196.055 E7.21319
G1 X389.593 Y194.401 E7.28003
G1 X390.013 Y192.818 E7.34497
G1 X390.529 Y191.311 E7.40811
G1 X391.148 Y189.883 E7.46983
G1 X391.642 Y188.933 E7.51228
G1 X392.338 Y187.793 E7.56524
G1 X393.087 Y186.766 E7.61565
G1 X393.904 Y185.831 E7.66492
G1 X394.109 Y185.623 E7.67646
G1 X394.901 Y184.909 E7.71877
G1 X395.704 Y184.313 E7.75839
G1 X396.535 Y183.819 E7.79676
G1 X397.168 Y183.524 E7.82443
G1 X397.971 Y183.241 E7.85820
G1 X398.805 Y183.047 E7.89215
G1 X399.797 Y182.950 E7.93169
G1 X400.593 Y182.972 E7.96325
G1 X401.390 Y183.086 E7.99519
G1 X402.273 Y183.319 E8.03141
G1 X403.057 Y183.623 E8.06474
G1 X403.830 Y184.023 E8.09926
G1 X404.305 Y184.326 E8.12160
G1 X404.995 Y184.827 E8.15542
G1 X405.750 Y185.489 E8.19524
G1 X406.475 Y186.245 E8.23675
G1 X406.853 Y186.692 E8.25997
G1 X407.587 Y187.681 E8.30880
G1 X408.252 Y188.743 E8.35849
G1 X408.854 Y189.881 E8.40956
G1 X409.483 Y191.319 E8.47179
G1 X409.974 Y192.737 E8.53130
G1 X410.379 Y194.214 E8.59202
G1 X410.696 Y195.741 E8.65383
G1 X410.923 Y197.313 E8.71683
G1 X411.078 Y199.325 E8.79685
G1 X411.092 Y201.119 E8.86798
G1 X410.993 Y202.896 E8.93858
G1 X410.783 Y204.667 E9.00930
G1 X410.460 Y206.424 E9.08014
G1 X410.024 Y208.146 E9.15054
G1 X409.415 Y209.976 E9.22704
G1 X409.676 Y210.183 F6000.000
G1 F2100
G1 X409.066 Y211.637 E9.28956
G1 X408.368 Y213.007 E9.35051
G1 X407.591 Y214.273 E9.40942
G1 X407.254 Y214.755 E9.43275
G1 X406.488 Y215.716 E9.48147
G1 X405.693 Y216.553 E9.52726
G1 X404.855 Y217.280 E9.57124
G1 X404.223 Y217.735 E9.60212
G1 X403.420 Y218.201 E9.63893
G1 X402.413 Y218.634 E9.68242
G1 X401.618 Y218.866 E9.71523
G1 X400.815 Y219.005 E9.74755
G1 X399.900 Y219.050 E9.78387
G1 X399.099 Y218.991 E9.81572
G1 X398.419 Y218.862 E9.84319
G1 X397.504 Y218.593 E9.88099
G1 X396.539 Y218.163 E9.92291
G1 X395.690 Y217.648 E9.96226
G1 X394.922 Y217.065 E10.00049
G1 X394.179 Y216.388 E10.04036
G1 X393.858 Y216.056 E10.05867
G1 X393.090 Y215.154 E10.10564
G1 X392.382 Y214.173 E10.15361
G1 X391.727 Y213.104 E10.20332
G1 X391.293 Y212.295 E10.23971
G1 X390.660 Y210.925 E10.29957
G1 X390.111 Y209.489 E10.36052
G1 X389.644 Y207.989 E10.42283
G1 X389.257 Y206.422 E10.48685
G1 X389.162 Y205.964 E10.50539
G1 X388.867 Y204.172 E10.57738
G1 X388.686 Y202.372 E10.64912
G1 X388.616 Y200.560 E10.72104
G1 X388.662 Y198.745 E10.79303
G1 X388.826 Y196.935 E10.86511
G1 X388.959 Y196.003 E10.90244
G1 X389.285 Y194.330 E10.97002
G1 X389.711 Y192.726 E11.03581
G1 X390.235 Y191.197 E11.09989
G1 X390.863 Y189.748 E11.16255
G1 X391.367 Y188.778 E11.20586
G1 X392.075 Y187.618 E11.25977
G1 X392.840 Y186.569 E11.31124
G1 X393.673 Y185.616 E11.36144
G1 X393.891 Y185.395 E11.37373
G1 X394.701 Y184.665 E11.41700
G1 X395.529 Y184.051 E11.45786
G1 X396.388 Y183.540 E11.49749
G1 X397.048 Y183.232 E11.52639
G1 X397.883 Y182.938 E11.56146
G1 X398.744 Y182.737 E11.59655
G1 X399.788 Y182.634 E11.63815
G1 X400.619 Y182.658 E11.67112
G1 X401.453 Y182.776 E11.70450
G1 X402.371 Y183.018 E11.74216
G1 X403.187 Y183.336 E11.77686
G1 X403.988 Y183.750 E11.81261
G1 X404.483 Y184.066 E11.83590
G1 X405.192 Y184.580 E11.87066
G1 X405.969 Y185.261 E11.91160
G1 X406.710 Y186.033 E11.95405
G1 X407.101 Y186.496 E11.97806
G1 X407.848 Y187.503 E12.02778
G1 X408.525 Y188.585 E12.07841
G1 X409.138 Y189.744 E12.13040
G1 X409.777 Y191.204 E12.19359
G1 X410.276 Y192.644 E12.25401
G1 X410.685 Y194.140 E12.31553
G1 X411.006 Y195.686 E12.37812
G1 X411.236 Y197.277 E12.44187
G1 X411.393 Y199.316 E12.52298
G1 X411.407 Y201.126 E12.59474
G1 X411.307 Y202.924 E12.66613
G1 X411.095 Y204.715 E12.73764
G1 X410.768 Y206.492 E12.80929
G1 X410.327 Y208.234 E12.88057
G1 X409.706 Y210.098 E12.95848
G1 X409.967 Y210.305 F6000.000
G1 F2100
G1 X409.352 Y211.770 E13.02146
G1 X408.644 Y213.161 E13.08336
G1 X407.855 Y214.446 E13.14315
G1 X407.506 Y214.944 E13.16725
G1 X406.726 Y215.923 E13.21690
G1 X405.911 Y216.781 E13.26384
G1 X405.051 Y217.527 E13.30898
G1 X404.395 Y218.000 E13.34104
G1 X403.562 Y218.483 E13.37921
G1 X402.520 Y218.931 E13.42422
G1 X401.690 Y219.173 E13.45850
G1 X400.850 Y219.319 E13.49228
G1 X399.897 Y219.366 E13.53014
G1 X399.058 Y219.304 E13.56347
G1 X398.345 Y219.169 E13.59228
G1 X397.395 Y218.890 E13.63153
G1 X396.392 Y218.443 E13.67507
