; generated by Slic3r 1.3.0-dev on 2018-05-01 at 16:59:35

; external perimeters extrusion width = 0.44mm (3.18mm^3/s)
; perimeters extrusion width = 0.56mm (5.17mm^3/s)
; infill extrusion width = 0.50mm (4.57mm^3/s)
; solid infill extrusion width = 0.56mm (5.17mm^3/s)
; top infill extrusion width = 0.56mm (5.17mm^3/s)

M107
M104 S210 ; set temperature
G28 ; home all axes
G32; probe home individual Z axis
G29 S1; load bed mesh

; Filament gcode

M109 S210 ; set temperature and wait for it to be reached
G21 ; set units to millimeters
G90 ; use absolute coordinates
M82 ; use absolute distances for extrusion
G92 E0
M584 U3 Z2 V4; Actuate motors independently
G92 U10.000 V10.000 Z10.000
G1 U0.320 V0.320 Z0.320 F6000.000
G1 E-2.00000 F2400.00000
G92 E0
G1 X604.785 Y86.942 F6000.000
G1 E2.00000 F2400.00000
G1 F1680
G1 X605.169 Y86.012 E2.04221
G1 X606.100 Y85.626 E2.08447
G1 X626.100 Y85.626 E2.92349
G1 X627.030 Y86.011 E2.96570
G1 X627.415 Y86.942 E3.00796
G1 X627.415 Y112.513 E4.08070
G1 X627.031 Y113.442 E4.12290
G1 X626.100 Y113.828 E4.16516
G1 X606.100 Y113.828 E5.00419
G1 X605.170 Y113.443 E5.04640
G1 X604.785 Y112.513 E5.08865
G1 X604.785 Y87.002 E6.15888
G1 E4.15888 F2400.00000
G92 E0
G1 X624.647 Y105.488 F6000.000
G1 E2.00000 F2400.00000
G1 F2100
G1 X607.553 Y105.488 E2.71709
G1 X607.553 Y88.395 E3.43418
G1 X624.647 Y88.395 E4.15127
G1 X624.647 Y105.428 E4.86584
G1 X624.962 Y105.804 F6000.000
G1 F2100
G1 X607.238 Y105.804 E5.60939
G1 X607.238 Y88.080 E6.35294
G1 X624.962 Y88.080 E7.09648
G1 X624.962 Y105.744 E7.83751
G1 X625.277 Y106.119 F6000.000
G1 F2100
G1 X606.923 Y106.119 E8.60752
G1 X606.923 Y87.764 E9.37752
G1 X625.277 Y87.764 E10.14752
G1 X625.277 Y106.059 E10.91501
G1 X625.593 Y106.434 F6000.000
G1 F2100
G1 X606.607 Y106.434 E11.71147
G1 X606.607 Y87.449 E12.50793
G1 X625.593 Y87.449 E13.30439
G1 X625.593 Y106.374 E14.09833
G1 X625.908 Y106.750 F6000.000
G1 F1680
G1 X606.292 Y106.750 E14.92125
G1 X606.292 Y87.134 E15.74417
G1 X625.908 Y87.134 E16.56709
G1 X625.908 Y106.690 E17.38749
G1 X625.522 Y106.646 F6000.000
G1 E15.38749 F2400.00000
G92 E0
G1 X624.287 Y105.218 F6000.000
G1 E2.00000 F2400.00000
G1 F2100
G1 X624.376 Y105.128 E2.00536
G1 X624.376 Y104.677 E2.02450
G1 X623.836 Y105.218 E2.05692
G1 X623.385 Y105.218 E2.07606
G1 X624.376 Y104.226 E2.13555
G1 X624.376 Y103.775 E2.15469
G1 X622.934 Y105.218 E2.24124
G1 X622.483 Y105.218 E2.26038
G1 X624.376 Y103.324 E2.37399
G1 X624.376 Y102.873 E2.39313
G1 X622.032 Y105.218 E2.53381
G1 X621.580 Y105.218 E2.55295
G1 X624.376 Y102.422 E2.72070
G1 X624.376 Y101.971 E2.73983
G1 X621.129 Y105.218 E2.93464
G1 X620.678 Y105.218 E2.95378
G1 X624.376 Y101.520 E3.17565
G1 X624.376 Y101.069 E3.19479
G1 X620.227 Y105.218 E3.44373
G1 X619.776 Y105.218 E3.46287
G1 X624.376 Y100.618 E3.73887
G1 X624.376 Y100.167 E3.75801
G1 X619.325 Y105.218 E4.06108
G1 X618.874 Y105.218 E4.08021
G1 X624.376 Y99.716 E4.41034
G1 X624.376 Y99.265 E4.42948
G1 X618.423 Y105.218 E4.78668
G1 X617.972 Y105.218 E4.80581
G1 X624.376 Y98.814 E5.19008
G1 X624.376 Y98.363 E5.20921
G1 X617.521 Y105.218 E5.62054
G1 X617.070 Y105.218 E5.63967
G1 X624.376 Y97.912 E6.07806
G1 X624.376 Y97.461 E6.09720
G1 X616.619 Y105.218 E6.56265
G1 X616.168 Y105.218 E6.58179
G1 X624.376 Y97.010 E7.07431
G1 X624.376 Y96.559 E7.09345
G1 X615.717 Y105.218 E7.61303
G1 X615.266 Y105.218 E7.63216
G1 X624.376 Y96.108 E8.17881
G1 X624.376 Y95.657 E8.19795
G1 X614.815 Y105.218 E8.77166
G1 X614.364 Y105.218 E8.79079
G1 X624.376 Y95.206 E9.39157
G1 X624.376 Y94.755 E9.41071
G1 X613.913 Y105.218 E10.03855
G1 X613.462 Y105.218 E10.05768
G1 X624.376 Y94.304 E10.71259
G1 X624.376 Y93.853 E10.73172
G1 X613.011 Y105.218 E11.41369
G1 X612.560 Y105.218 E11.43283
G1 X624.376 Y93.402 E12.14186
G1 X624.376 Y92.951 E12.16100
G1 X612.109 Y105.218 E12.89709
G1 X611.658 Y105.218 E12.91623
G1 X624.376 Y92.500 E13.67939
G1 X624.376 Y92.049 E13.69853
G1 X611.207 Y105.218 E14.48875
G1 X610.756 Y105.218 E14.50789
G1 X624.376 Y91.598 E15.32518
G1 X624.376 Y91.147 E15.34432
G1 X610.305 Y105.218 E16.18867
G1 X609.854 Y105.218 E16.20781
G1 X624.376 Y90.695 E17.07922
G1 X624.376 Y90.244 E17.09836
G1 X609.403 Y105.218 E17.99684
G1 X608.952 Y105.218 E18.01598
G1 X624.376 Y89.793 E18.94152
G1 X624.376 Y89.342 E18.96066
G1 X608.501 Y105.218 E19.91327
G1 X608.050 Y105.218 E19.93241
G1 X624.376 Y88.891 E20.91208
G1 X624.376 Y88.666 E20.92165
G1 X624.150 Y88.666 E20.93122
G1 X607.824 Y104.992 E21.91090
G1 X607.824 Y104.541 E21.93003
G1 X623.699 Y88.666 E22.88264
G1 X623.248 Y88.666 E22.90178
G1 X607.824 Y104.090 E23.82733
G1 X607.824 Y103.639 E23.84646
G1 X622.797 Y88.666 E24.74495
G1 X622.346 Y88.666 E24.76408
G1 X607.824 Y103.188 E25.63550
G1 X607.824 Y102.737 E25.65464
G1 X621.895 Y88.666 E26.49899
G1 X621.444 Y88.666 E26.51813
G1 X607.824 Y102.286 E27.33542
G1 X607.824 Y101.835 E27.35455
G1 X620.993 Y88.666 E28.14478
G1 X620.542 Y88.666 E28.16392
G1 X607.824 Y101.384 E28.92708
G1 X607.824 Y100.933 E28.94621
G1 X620.091 Y88.666 E29.68231
G1 X619.640 Y88.666 E29.70145
G1 X607.824 Y100.482 E30.41048
G1 X607.824 Y100.031 E30.42962
G1 X619.189 Y88.666 E31.11158
G1 X618.738 Y88.666 E31.13072
G1 X607.824 Y99.580 E31.78562
G1 X607.824 Y99.129 E31.80476
G1 X618.287 Y88.666 E32.43260
G1 X617.836 Y88.666 E32.45174
G1 X607.824 Y98.678 E33.05251
G1 X607.824 Y98.227 E33.07165
G1 X617.385 Y88.666 E33.64536
G1 X616.934 Y88.666 E33.66450
G1 X607.824 Y97.776 E34.21114
G1 X607.824 Y97.325 E34.23028
G1 X616.483 Y88.666 E34.74986
G1 X616.032 Y88.666 E34.76900
G1 X607.824 Y96.874 E35.26152
G1 X607.824 Y96.423 E35.28065
G1 X615.581 Y88.666 E35.74611
G1 X615.130 Y88.666 E35.76524
G1 X607.824 Y95.972 E36.20363
G1 X607.824 Y95.521 E36.22277
G1 X614.679 Y88.666 E36.63409
G1 X614.228 Y88.666 E36.65323
G1 X607.824 Y95.070 E37.03749
G1 X607.824 Y94.619 E37.05663
G1 X613.777 Y88.666 E37.41382
G1 X613.326 Y88.666 E37.43296
G1 X607.824 Y94.168 E37.76309
G1 X607.824 Y93.716 E37.78223
G1 X612.875 Y88.666 E38.08530
G1 X612.424 Y88.666 E38.10443
G1 X607.824 Y93.265 E38.38044
G1 X607.824 Y92.814 E38.39958
G1 X611.973 Y88.666 E38.64851
G1 X611.522 Y88.666 E38.66765
G1 X607.824 Y92.363 E38.88953
G1 X607.824 Y91.912 E38.90866
G1 X611.071 Y88.666 E39.10347
G1 X610.620 Y88.666 E39.12261
G1 X607.824 Y91.461 E39.29036
G1 X607.824 Y91.010 E39.30949
G1 X610.169 Y88.666 E39.45018
G1 X609.717 Y88.666 E39.46931
G1 X607.824 Y90.559 E39.58293
G1 X607.824 Y90.108 E39.60207
G1 X609.266 Y88.666 E39.68862
G1 X608.815 Y88.666 E39.70776
G1 X607.824 Y89.657 E39.76725
G1 X607.824 Y89.206 E39.78638
G1 X608.364 Y88.666 E39.81881
G1 X607.913 Y88.666 E39.83795
G1 X607.824 Y88.755 E39.84330
M104 S205 ; set temperature
G1 U0.520 V0.520 Z0.520 F6000.000
G1 X623.872 Y104.713 F6000.000
G1 F3000
G1 X608.328 Y104.713 E40.51159
G1 X608.328 Y89.170 E41.17988
G1 X623.872 Y89.170 E41.84817
G1 X623.872 Y104.653 E42.51389
G1 X624.389 Y105.231 F6000.000
G1 F3000
G1 X607.811 Y105.231 E43.22664
G1 X607.811 Y88.653 E43.93940
G1 X624.389 Y88.653 E44.65216
G1 X624.389 Y105.171 E45.36233
G1 X624.906 Y105.748 F6000.000
G1 F3000
G1 X607.294 Y105.748 E46.11955
G1 X607.294 Y88.136 E46.87677
G1 X624.906 Y88.136 E47.63399
G1 X624.906 Y105.688 E48.38864
G1 X625.423 Y106.265 F6000.000
G1 F3000
G1 X606.777 Y106.265 E49.19032
G1 X606.777 Y87.619 E49.99200
G1 X625.423 Y87.619 E50.79369
G1 X625.423 Y106.205 E51.59279
G1 X625.880 Y106.722 F6000.000
G1 F2400
G1 X606.320 Y106.722 E52.23861
G1 X606.320 Y87.162 E52.88443
G1 X625.880 Y87.162 E53.53025
G1 X625.880 Y106.662 E54.17409
G1 X625.494 Y106.618 F6000.000
G1 X623.428 Y89.760 F6000.000
G1 F3000
G1 X623.281 Y89.614 E54.18314
G1 X622.537 Y89.614 E54.21569
G1 X623.428 Y90.505 E54.27078
G1 X623.428 Y91.249 E54.30334
G1 X621.793 Y89.614 E54.40446
G1 X621.049 Y89.614 E54.43701
G1 X623.428 Y91.993 E54.58417
G1 X623.428 Y92.737 E54.61672
G1 X620.305 Y89.614 E54.80991
G1 X619.561 Y89.614 E54.84246
G1 X623.428 Y93.481 E55.08169
G1 X623.428 Y94.225 E55.11424
G1 X618.817 Y89.614 E55.39950
G1 X618.073 Y89.614 E55.43205
G1 X623.428 Y94.969 E55.76334
G1 X623.428 Y95.713 E55.79589
G1 X617.329 Y89.614 E56.17322
G1 X616.585 Y89.614 E56.20577
G1 X623.428 Y96.457 E56.62913
G1 X623.428 Y97.201 E56.66168
G1 X615.841 Y89.614 E57.13107
G1 X615.097 Y89.614 E57.16362
G1 X623.428 Y97.945 E57.67905
G1 X623.428 Y98.689 E57.71160
G1 X614.353 Y89.614 E58.27306
G1 X613.609 Y89.614 E58.30561
G1 X623.428 Y99.433 E58.91310
G1 X623.428 Y100.177 E58.94566
G1 X612.865 Y89.614 E59.59918
G1 X612.121 Y89.614 E59.63173
G1 X623.428 Y100.921 E60.33130
G1 X623.428 Y101.665 E60.36385
G1 X611.376 Y89.614 E61.10944
G1 X610.632 Y89.614 E61.14199
G1 X623.428 Y102.409 E61.93362
G1 X623.428 Y103.153 E61.96617
G1 X609.888 Y89.614 E62.80383
G1 X609.144 Y89.614 E62.83638
G1 X623.428 Y103.898 E63.72008
G1 X623.428 Y104.270 E63.73636
G1 X623.056 Y104.270 E63.75263
G1 X608.772 Y89.986 E64.63633
G1 X608.772 Y90.730 E64.66888
G1 X622.312 Y104.270 E65.50654
G1 X621.568 Y104.270 E65.53910
G1 X608.772 Y91.474 E66.33073
G1 X608.772 Y92.218 E66.36328
G1 X620.824 Y104.270 E67.10887
G1 X620.080 Y104.270 E67.14143
G1 X608.772 Y92.962 E67.84099
G1 X608.772 Y93.706 E67.87354
G1 X619.335 Y104.270 E68.52707
G1 X618.591 Y104.270 E68.55962
G1 X608.772 Y94.450 E69.16712
G1 X608.772 Y95.194 E69.19967
G1 X617.847 Y104.270 E69.76113
G1 X617.103 Y104.270 E69.79368
G1 X608.772 Y95.939 E70.30911
G1 X608.772 Y96.683 E70.34166
G1 X616.359 Y104.270 E70.81106
G1 X615.615 Y104.270 E70.84361
G1 X608.772 Y97.427 E71.26697
G1 X608.772 Y98.171 E71.29952
G1 X614.871 Y104.270 E71.67685
G1 X614.127 Y104.270 E71.70940
G1 X608.772 Y98.915 E72.04069
G1 X608.772 Y99.659 E72.07324
G1 X613.383 Y104.270 E72.35851
G1 X612.639 Y104.270 E72.39106
G1 X608.772 Y100.403 E72.63028
G1 X608.772 Y101.147 E72.66283
G1 X611.895 Y104.270 E72.85603
G1 X611.151 Y104.270 E72.88858
G1 X608.772 Y101.891 E73.03574
G1 X608.772 Y102.635 E73.06829
G1 X610.407 Y104.270 E73.16942
G1 X609.663 Y104.270 E73.20197
G1 X608.772 Y103.379 E73.25706
G1 X608.772 Y104.123 E73.28961
G1 X608.919 Y104.269 E73.29866
G1 U0.720 V0.720 Z0.720 F6000.000
G1 X623.872 Y104.713 F6000.000
G1 F3000
G1 X608.328 Y104.713 E73.96695
G1 X608.328 Y89.170 E74.63524
G1 X623.872 Y89.170 E75.30354
G1 X623.872 Y104.653 E75.96925
G1 X624.389 Y105.231 F6000.000
G1 F3000
G1 X607.811 Y105.231 E76.68201
G1 X607.811 Y88.653 E77.39476
G1 X624.389 Y88.653 E78.10752
G1 X624.389 Y105.171 E78.81770
G1 X624.906 Y105.748 F6000.000
G1 F3000
G1 X607.294 Y105.748 E79.57492
G1 X607.294 Y88.136 E80.33214
G1 X624.906 Y88.136 E81.08936
G1 X624.906 Y105.688 E81.84400
G1 X625.423 Y106.265 F6000.000
G1 F3000
G1 X606.777 Y106.265 E82.64568
G1 X606.777 Y87.619 E83.44737
G1 X625.423 Y87.619 E84.24905
G1 X625.423 Y106.205 E85.04816
G1 X625.880 Y106.722 F6000.000
G1 F2400
G1 X606.320 Y106.722 E85.69397
G1 X606.320 Y87.162 E86.33979
G1 X625.880 Y87.162 E86.98561
G1 X625.880 Y106.662 E87.62945
G1 X625.494 Y106.618 F6000.000
G1 X623.281 Y104.270 F6000.000
G1 F3000
G1 X623.428 Y104.123 E87.63851
G1 X623.428 Y103.379 E87.67106
G1 X622.537 Y104.270 E87.72615
G1 X621.793 Y104.270 E87.75870
G1 X623.428 Y102.635 E87.85982
G1 X623.428 Y101.891 E87.89237
G1 X621.049 Y104.270 E88.03953
G1 X620.305 Y104.270 E88.07208
G1 X623.428 Y101.147 E88.26527
G1 X623.428 Y100.403 E88.29782
G1 X619.561 Y104.270 E88.53705
G1 X618.817 Y104.270 E88.56960
G1 X623.428 Y99.659 E88.85486
G1 X623.428 Y98.915 E88.88741
G1 X618.073 Y104.270 E89.21870
G1 X617.329 Y104.270 E89.25125
G1 X623.428 Y98.171 E89.62858
G1 X623.428 Y97.427 E89.66113
G1 X616.585 Y104.270 E90.08449
G1 X615.841 Y104.270 E90.11704
G1 X623.428 Y96.683 E90.58643
G1 X623.428 Y95.939 E90.61898
G1 X615.097 Y104.270 E91.13441
G1 X614.353 Y104.270 E91.16696
G1 X623.428 Y95.194 E91.72842
G1 X623.428 Y94.450 E91.76097
G1 X613.609 Y104.270 E92.36847
G1 X612.865 Y104.270 E92.40102
G1 X623.428 Y93.706 E93.05454
G1 X623.428 Y92.962 E93.08710
G1 X612.121 Y104.270 E93.78666
G1 X611.376 Y104.270 E93.81921
G1 X623.428 Y92.218 E94.56480
G1 X623.428 Y91.474 E94.59735
G1 X610.632 Y104.270 E95.38898
G1 X609.888 Y104.270 E95.42153
G1 X623.428 Y90.730 E96.25919
G1 X623.428 Y89.986 E96.29175
G1 X609.144 Y104.270 E97.17544
G1 X608.772 Y104.270 E97.19172
G1 X608.772 Y103.898 E97.20799
G1 X623.056 Y89.614 E98.09169
G1 X622.312 Y89.614 E98.12424
G1 X608.772 Y103.153 E98.96191
G1 X608.772 Y102.409 E98.99446
G1 X621.568 Y89.614 E99.78609
G1 X620.824 Y89.614 E99.81864
G1 X608.772 Y101.665 E100.56424
G1 X608.772 Y100.921 E100.59679
G1 X620.080 Y89.614 E101.29635
G1 X619.335 Y89.614 E101.32890
G1 X608.772 Y100.177 E101.98243
G1 X608.772 Y99.433 E102.01498
G1 X618.591 Y89.614 E102.62248
G1 X617.847 Y89.614 E102.65503
G1 X608.772 Y98.689 E103.21649
G1 X608.772 Y97.945 E103.24904
G1 X617.103 Y89.614 E103.76447
G1 X616.359 Y89.614 E103.79702
G1 X608.772 Y97.201 E104.26642
G1 X608.772 Y96.457 E104.29897
G1 X615.615 Y89.614 E104.72233
G1 X614.871 Y89.614 E104.75488
G1 X608.772 Y95.713 E105.13221
G1 X608.772 Y94.969 E105.16476
G1 X614.127 Y89.614 E105.49605
G1 X613.383 Y89.614 E105.52861
G1 X608.772 Y94.225 E105.81387
G1 X608.772 Y93.481 E105.84642
G1 X612.639 Y89.614 E106.08564
G1 X611.895 Y89.614 E106.11820
G1 X608.772 Y92.737 E106.31139
G1 X608.772 Y91.993 E106.34394
G1 X611.151 Y89.614 E106.49110
G1 X610.407 Y89.614 E106.52365
G1 X608.772 Y91.249 E106.62478
G1 X608.772 Y90.505 E106.65733
G1 X609.663 Y89.614 E106.71242
G1 X608.919 Y89.614 E106.74497
G1 X608.772 Y89.760 E106.75402
M106 S239.7
G1 U0.920 V0.920 Z0.920 F6000.000
G1 X623.872 Y104.713 F6000.000
G1 F3000
G1 X608.328 Y104.713 E107.42231
G1 X608.328 Y89.170 E108.09060
G1 X623.872 Y89.170 E108.75890
G1 X623.872 Y104.653 E109.42461
G1 X624.389 Y105.231 F6000.000
G1 F3000
G1 X607.811 Y105.231 E110.13737
G1 X607.811 Y88.653 E110.85012
G1 X624.389 Y88.653 E111.56288
G1 X624.389 Y105.171 E112.27306
G1 X624.906 Y105.748 F6000.000
G1 F3000
G1 X607.294 Y105.748 E113.03028
G1 X607.294 Y88.136 E113.78750
G1 X624.906 Y88.136 E114.54472
G1 X624.906 Y105.688 E115.29936
G1 X625.423 Y106.265 F6000.000
G1 F3000
G1 X606.777 Y106.265 E116.10104
G1 X606.777 Y87.619 E116.90273
G1 X625.423 Y87.619 E117.70441
G1 X625.423 Y106.205 E118.50352
G1 X625.880 Y106.722 F6000.000
G1 F2400
G1 X606.320 Y106.722 E119.14933
G1 X606.320 Y87.162 E119.79515
G1 X625.880 Y87.162 E120.44097
G1 X625.880 Y106.662 E121.08481
G1 X625.494 Y106.618 F6000.000
G1 X623.454 Y91.359 F6000.000
G1 F3000
G1 X621.683 Y89.588 E121.17996
G1 X617.374 Y89.588 E121.34375
G1 X623.454 Y95.668 E121.67052
G1 X623.454 Y99.977 E121.83431
G1 X613.064 Y89.588 E122.39271
G1 X608.755 Y89.588 E122.55649
G1 X623.454 Y104.295 E123.34675
G1 X619.153 Y104.295 E123.51021
G1 X608.747 Y93.889 E124.06953
G1 X608.747 Y98.199 E124.23332
G1 X614.843 Y104.295 E124.56101
G1 X610.534 Y104.295 E124.72480
G1 X608.747 Y102.508 E124.82087
G1 U1.120 V1.120 Z1.120 F6000.000
G1 X623.872 Y104.713 F6000.000
G1 F3000
G1 X608.328 Y104.713 E125.48916
G1 X608.328 Y89.170 E126.15745
G1 X623.872 Y89.170 E126.82574
G1 X623.872 Y104.653 E127.49146
G1 X624.389 Y105.231 F6000.000
G1 F3000
G1 X607.811 Y105.231 E128.20421
G1 X607.811 Y88.653 E128.91697
G1 X624.389 Y88.653 E129.62973
G1 X624.389 Y105.171 E130.33990
G1 X624.906 Y105.748 F6000.000
G1 F3000
G1 X607.294 Y105.748 E131.09712
G1 X607.294 Y88.136 E131.85434
G1 X624.906 Y88.136 E132.61156
G1 X624.906 Y105.688 E133.36620
G1 X625.423 Y106.265 F6000.000
G1 F3000
G1 X606.777 Y106.265 E134.16789
G1 X606.777 Y87.619 E134.96957
G1 X625.423 Y87.619 E135.77126
G1 X625.423 Y106.205 E136.57036
G1 X625.880 Y106.722 F6000.000
G1 F2400
G1 X606.320 Y106.722 E137.21618
G1 X606.320 Y87.162 E137.86200
G1 X625.880 Y87.162 E138.50782
G1 X625.880 Y106.662 E139.15165
G1 X625.494 Y106.618 F6000.000
G1 X621.666 Y104.295 F6000.000
G1 F3000
G1 X623.454 Y102.508 E139.24772
G1 X623.454 Y98.199 E139.41151
G1 X617.357 Y104.295 E139.73920
G1 X613.047 Y104.295 E139.90299
G1 X623.454 Y93.889 E140.46231
G1 X623.454 Y89.588 E140.62577
G1 X608.747 Y104.287 E141.41603
G1 X608.747 Y99.977 E141.57981
G1 X619.136 Y89.588 E142.13821
G1 X614.826 Y89.588 E142.30200
G1 X608.747 Y95.668 E142.62877
