; generated by Slic3r 1.3.0-dev on 2018-06-03 at 15:53:42

; external perimeters extrusion width = 0.66mm (7.15mm^3/s)
; perimeters extrusion width = 0.84mm (11.63mm^3/s)
; infill extrusion width = 0.75mm (10.28mm^3/s)
; solid infill extrusion width = 0.84mm (11.63mm^3/s)
; top infill extrusion width = 0.84mm (11.63mm^3/s)

M107
G28 ; home all axes
G32; probe home individual Z axis
G29 S1; load bed mesh
M109 S205 ; set temperature and wait for it to be reached
M117 Purge extruder
G92 E0 ; reset extruder
G1 X400
G1 Z1.0 F3000.0 ; move z up little to prevent scratching of surface
G1 X400 Y20 Z0.3 F5000.0 ; move to start-line position
G1 X400 Y200.0 Z0.3 F1500.0 E15 ; draw 1st line
G1 X400.5 Y200.0 Z0.3 F5000.0 ; move to side a little
G1 X400.5 Y20 Z0.3 F1500.0 E30 ; draw 2nd line
; G1 E27 F3000 ; retract filament 3mm
G92 E0 ; reset extruder
; done purging extruder
G1 Z1.0 F3000 ; move z up little to prevent scratching of surface
G1 Z10
G1 X200
M117 Printing!

; Filament gcode

G21 ; set units to millimeters
G90 ; use absolute coordinates
M82 ; use absolute distances for extrusion
G92 E0
G1 Z0.320 F6000.000
G1 E-2.00000 F2400.00000
G92 E0
G1 X236.112 Y93.891 F6000.000
G1 E2.00000 F2400.00000
G1 F1680
G1 X237.500 Y93.223 E2.06107
G1 X387.500 Y93.223 E8.00903
G1 X388.609 Y93.612 E8.05563
G1 X389.277 Y95.000 E8.11670
G1 X389.277 Y245.000 E14.06466
G1 X388.888 Y246.109 E14.11127
G1 X387.500 Y246.777 E14.17233
G1 X237.500 Y246.777 E20.12029
G1 X236.391 Y246.388 E20.16690
G1 X235.723 Y245.000 E20.22797
G1 X235.723 Y95.000 E26.17593
G1 X236.082 Y93.976 E26.21896
G1 X236.425 Y94.010 F6000.000
G1 F1680
G1 X237.500 Y93.539 E26.26551
G1 X387.500 Y93.539 E32.21347
G1 X388.490 Y93.925 E32.25560
G1 X388.961 Y95.000 E32.30215
G1 X388.961 Y245.000 E38.25011
G1 X388.575 Y245.990 E38.29224
G1 X387.500 Y246.461 E38.33879
G1 X237.500 Y246.461 E44.28675
G1 X236.510 Y246.075 E44.32888
G1 X236.039 Y245.000 E44.37543
G1 X236.039 Y95.000 E50.32339
G1 X236.392 Y94.094 E50.36195
G1 X236.737 Y94.145 F6000.000
G1 F1680
G1 X237.500 Y93.854 E50.39436
G1 X387.500 Y93.854 E56.34232
G1 X388.355 Y94.237 E56.37945
G1 X388.646 Y95.000 E56.41185
G1 X388.646 Y245.000 E62.35981
G1 X388.263 Y245.855 E62.39694
G1 X387.500 Y246.146 E62.42934
G1 X237.500 Y246.146 E68.37730
G1 X236.645 Y245.763 E68.41443
G1 X236.354 Y245.000 E68.44683
G1 X236.354 Y95.000 E74.39479
G1 X236.700 Y94.227 E74.42835
G1 X237.045 Y94.305 F6000.000
G1 F1680
G1 X237.500 Y94.169 E74.44717
G1 X387.500 Y94.169 E80.39513
G1 X388.195 Y94.545 E80.42647
G1 X388.331 Y95.000 E80.44528
G1 X388.331 Y245.000 E86.39324
G1 X387.955 Y245.695 E86.42458
G1 X387.500 Y245.831 E86.44339
G1 X237.500 Y245.831 E92.39135
G1 X236.805 Y245.455 E92.42269
G1 X236.669 Y245.000 E92.44151
G1 X236.669 Y95.000 E98.38947
G1 X237.002 Y94.384 E98.41723
G1 X237.500 Y94.485 F6000.000
G1 F1680
G1 X387.500 Y94.485 E104.36519
G1 X388.015 Y95.000 E104.39409
G1 X388.015 Y245.000 E110.34205
G1 X387.500 Y245.515 E110.37095
G1 X237.500 Y245.515 E116.31891
G1 X236.985 Y245.000 E116.34781
G1 X236.985 Y95.000 E122.29577
G1 X237.436 Y94.548 E122.32110
G1 E120.32110 F2400.00000
G92 E0
G1 X387.092 Y244.592 F6000.000
G1 E2.00000 F2400.00000
G1 F1680
G1 X237.908 Y244.592 E7.91560
G1 X237.908 Y95.408 E13.83121
G1 X387.092 Y95.408 E19.74681
G1 X387.092 Y244.502 E25.65885
G1 X387.247 Y245.172 F6000.000
G1 X387.308 Y244.808 F6000.000
G1 F1680
G1 X237.692 Y244.808 E31.59158
G1 X237.692 Y95.192 E37.52431
G1 X387.308 Y95.192 E43.45705
G1 X387.308 Y244.718 E49.38621
G1 X386.728 Y244.653 F6000.000
G1 E47.38621 F2400.00000
G92 E0
; Filament-specific end gcode 
;END gcode for filament

G28 X0  ; home X axis
M106 S0; turns off cooling fan
M104 S0 ; turn off temperature
M84     ; disable motors

; filament used = 167.7mm (0.4cm3)
; total filament cost = 0.0

; avoid_crossing_perimeters = 0
; bed_shape = 0x0,625x0,625x340,0x340
; bed_temperature = 0
; bed_total_dim = 770,504,250
; before_layer_gcode = 
; between_objects_gcode = 
; bridge_acceleration = 0
; bridge_fan_speed = 100
; brim_connections_width = 0
; brim_width = 0
; complete_objects = 0
; cooling = 1
; default_acceleration = 0
; disable_fan_first_layers = 3
; duplicate_distance = 6
; end_filament_gcode = "; Filament-specific end gcode \n;END gcode for filament\n"
; end_gcode = G28 X0  ; home X axis\nM106 S0; turns off cooling fan\nM104 S0 ; turn off temperature\nM84     ; disable motors\n
; extruder_clearance_height = 20
; extruder_clearance_radius = 20
; extruder_offset = 0x0
; extrusion_axis = E
; extrusion_multiplier = 1
; fan_always_on = 0
; fan_below_layer_time = 60
; filament_colour = #FFFFFF
; filament_cost = 0
; filament_density = 0
; filament_diameter = 1.8
; filament_max_volumetric_speed = 0
; filament_notes = ""
; first_layer_acceleration = 0
; first_layer_bed_temperature = 0
; first_layer_extrusion_width = 120%
; first_layer_speed = 70%
; first_layer_temperature = 205
; gcode_arcs = 0
; gcode_comments = 0
; gcode_flavor = reprap
; has_heatbed = 1
; infill_acceleration = 0
; infill_first = 0
; initial_z_tilt = 10
; interior_brim_width = 0
; layer_gcode = 
; max_angle = 15
; max_fan_speed = 100
; max_layer_height = 0.3
; max_print_speed = 80
; max_volumetric_speed = 0
; min_fan_speed = 35
; min_layer_height = 0.15
; min_print_speed = 10
; min_skirt_length = 0
; notes = 
; nozzle_diameter = 0.6
; only_retract_when_crossing_perimeters = 1
; ooze_prevention = 0
; origin_offset = -27.8,-54.8,-19
; output_filename_format = [input_filename_base].gcode
; perimeter_acceleration = 0
; post_process = 
; pressure_advance = 0
; print_tilt = 0
; printer_notes = 
; resolution = 0
; retract_before_travel = 2
; retract_layer_change = 0
; retract_length = 2
; retract_length_toolchange = 10
; retract_lift = 0
; retract_lift_above = 0
; retract_lift_below = 0
; retract_restart_extra = 0
; retract_restart_extra_toolchange = 0
; retract_speed = 40
; skirt_distance = 0.2
; skirt_height = 1
; skirts = 5
; slowdown_below_layer_time = 5
; spiral_vase = 0
; standby_temperature_delta = -5
; start_filament_gcode = "; Filament gcode\n"
; start_gcode = G28 ; home all axes\nG32; probe home individual Z axis\nG29 S1; load bed mesh\nM109 S205 ; set temperature and wait for it to be reached\nM117 Purge extruder\nG92 E0 ; reset extruder\nG1 X400\nG1 Z1.0 F3000.0 ; move z up little to prevent scratching of surface\nG1 X400 Y20 Z0.3 F5000.0 ; move to start-line position\nG1 X400 Y200.0 Z0.3 F1500.0 E15 ; draw 1st line\nG1 X400.5 Y200.0 Z0.3 F5000.0 ; move to side a little\nG1 X400.5 Y20 Z0.3 F1500.0 E30 ; draw 2nd line\n; G1 E27 F3000 ; retract filament 3mm\nG92 E0 ; reset extruder\n; done purging extruder\nG1 Z1.0 F3000 ; move z up little to prevent scratching of surface\nG1 Z10\nG1 X200\nM117 Printing!\n
; stl_initial_position = 460,210,0
; temperature = 205
; threads = 4
; toolchange_gcode = 
; travel_speed = 100
; use_firmware_retraction = 0
; use_relative_e_distances = 0
; use_volumetric_e = 0
; vibration_limit = 0
; wipe = 0
; z_offset = 0
; z_steps_per_mm = 0
; adaptive_slicing = 0
; adaptive_slicing_quality = 75%
; dont_support_bridges = 1
; extrusion_width = 0
; first_layer_height = 0.32
; infill_only_where_needed = 0
; interface_shells = 0
; layer_height = 0.3
; match_horizontal_surfaces = 0
; raft_layers = 0
; regions_overlap = 0
; seam_position = aligned
; sequential_print_priority = 0
; support_material = 0
; support_material_angle = 0
; support_material_buildplate_only = 0
; support_material_contact_distance = 0.2
; support_material_enforce_layers = 0
; support_material_extruder = 1
; support_material_extrusion_width = 0
; support_material_interface_extruder = 1
; support_material_interface_extrusion_width = 0
; support_material_interface_layers = 3
; support_material_interface_spacing = 0
; support_material_interface_speed = 100%
; support_material_pattern = rectilinear
; support_material_spacing = 2.5
; support_material_speed = 40
; support_material_threshold = 80%
; tilt_enable = 0
; tilt_levels = 0,0,0
; xy_size_compensation = 0
; bottom_infill_pattern = rectilinear
; bottom_solid_layers = 3
; bridge_flow_ratio = 1
; bridge_speed = 40
; external_perimeter_extrusion_width = 0
; external_perimeter_speed = 80%
; external_perimeters_first = 0
; extra_perimeters = 1
; fill_angle = 45
; fill_density = 15%
; fill_gaps = 1
; fill_pattern = rectilinear
; gap_fill_speed = 100%
; infill_every_layers = 1
; infill_extruder = 1
; infill_extrusion_width = 0
; infill_overlap = 20%
; infill_speed = 50
; overhangs = 1
; perimeter_extruder = 1
; perimeter_extrusion_width = 0
; perimeter_speed = 50
; perimeters = 5
; small_perimeter_speed = 80%
; solid_infill_below_area = 10
; solid_infill_every_layers = 0
; solid_infill_extruder = 1
; solid_infill_extrusion_width = 0
; solid_infill_speed = 100%
; thin_walls = 1
; top_infill_extrusion_width = 0
; top_infill_pattern = rectilinear
; top_solid_infill_speed = 100%
; top_solid_layers = 3
