; generated by Slic3r 1.3.0-dev on 2018-05-11 at 16:12:41

; external perimeters extrusion width = 0.44mm (3.18mm^3/s)
; perimeters extrusion width = 0.56mm (5.17mm^3/s)
; infill extrusion width = 0.50mm (4.57mm^3/s)
; solid infill extrusion width = 0.56mm (5.17mm^3/s)
; top infill extrusion width = 0.56mm (5.17mm^3/s)

M107
M104 S210 ; set temperature
G28 ; home all axes
G32; probe home individual Z axis
G29 S1; load bed mesh

; Filament gcode

M109 S210 ; set temperature and wait for it to be reached
G21 ; set units to millimeters
G90 ; use absolute coordinates
M82 ; use absolute distances for extrusion
G92 E0
M584 U3 Z2 V4; Actuate motors independently
G92 U10.000 V10.000 Z10.000
G1 U0.320 V0.320 Z0.320 F6000.000
G1 E-2.00000 F2400.00000
G92 E0
G1 X604.785 Y86.942 F6000.000
G1 E2.00000 F2400.00000
G1 F1680
G1 X605.169 Y86.012 E2.04221
G1 X606.100 Y85.626 E2.08447
G1 X626.100 Y85.626 E2.92349
G1 X627.030 Y86.011 E2.96570
G1 X627.415 Y86.942 E3.00796
G1 X627.415 Y110.561 E3.99880
G1 X627.031 Y111.490 E4.04101
G1 X626.100 Y111.876 E4.08327
G1 X606.100 Y111.876 E4.92230
G1 X605.170 Y111.491 E4.96450
G1 X604.785 Y110.561 E5.00676
G1 X604.785 Y87.002 E5.99509
G1 E3.99509 F2400.00000
G92 E0
G1 X624.647 Y105.488 F6000.000
G1 E2.00000 F2400.00000
G1 F2100
G1 X607.553 Y105.488 E2.71709
G1 X607.553 Y88.395 E3.43418
G1 X624.647 Y88.395 E4.15127
G1 X624.647 Y105.428 E4.86584
G1 X624.962 Y105.804 F6000.000
G1 F2100
G1 X607.238 Y105.804 E5.60939
G1 X607.238 Y88.080 E6.35294
G1 X624.962 Y88.080 E7.09648
G1 X624.962 Y105.744 E7.83751
G1 X625.277 Y106.119 F6000.000
G1 F2100
G1 X606.923 Y106.119 E8.60752
G1 X606.923 Y87.764 E9.37752
G1 X625.277 Y87.764 E10.14752
G1 X625.277 Y106.059 E10.91501
G1 X625.593 Y106.434 F6000.000
G1 F2100
G1 X606.607 Y106.434 E11.71147
G1 X606.607 Y87.449 E12.50793
G1 X625.593 Y87.449 E13.30439
G1 X625.593 Y106.374 E14.09833
G1 X625.908 Y106.750 F6000.000
G1 F1680
G1 X606.292 Y106.750 E14.92125
G1 X606.292 Y87.134 E15.74417
G1 X625.908 Y87.134 E16.56709
G1 X625.908 Y106.690 E17.38749
G1 X625.522 Y106.646 F6000.000
G1 E15.38749 F2400.00000
G92 E0
G1 X624.287 Y105.218 F6000.000
G1 E2.00000 F2400.00000
G1 F2100
G1 X624.376 Y105.128 E2.00536
G1 X624.376 Y104.677 E2.02450
G1 X623.836 Y105.218 E2.05692
G1 X623.385 Y105.218 E2.07606
G1 X624.376 Y104.226 E2.13555
G1 X624.376 Y103.775 E2.15468
G1 X622.934 Y105.218 E2.24124
G1 X622.483 Y105.218 E2.26037
G1 X624.376 Y103.324 E2.37399
G1 X624.376 Y102.873 E2.39313
G1 X622.032 Y105.218 E2.53381
G1 X621.580 Y105.218 E2.55295
G1 X624.376 Y102.422 E2.72069
G1 X624.376 Y101.971 E2.73983
G1 X621.129 Y105.218 E2.93464
G1 X620.678 Y105.218 E2.95377
G1 X624.376 Y101.520 E3.17565
G1 X624.376 Y101.069 E3.19478
G1 X620.227 Y105.218 E3.44372
G1 X619.776 Y105.218 E3.46286
G1 X624.376 Y100.618 E3.73886
G1 X624.376 Y100.167 E3.75800
G1 X619.325 Y105.218 E4.06106
G1 X618.874 Y105.218 E4.08020
G1 X624.376 Y99.716 E4.41033
G1 X624.376 Y99.265 E4.42947
G1 X618.423 Y105.218 E4.78666
G1 X617.972 Y105.218 E4.80580
G1 X624.376 Y98.814 E5.19006
G1 X624.376 Y98.363 E5.20919
G1 X617.521 Y105.218 E5.62051
G1 X617.070 Y105.218 E5.63965
G1 X624.376 Y97.912 E6.07804
G1 X624.376 Y97.461 E6.09718
G1 X616.619 Y105.218 E6.56263
G1 X616.168 Y105.218 E6.58176
G1 X624.376 Y97.010 E7.07428
G1 X624.376 Y96.559 E7.09341
G1 X615.717 Y105.218 E7.61299
G1 X615.266 Y105.218 E7.63213
G1 X624.376 Y96.108 E8.17877
G1 X624.376 Y95.657 E8.19791
G1 X614.815 Y105.218 E8.77162
G1 X614.364 Y105.218 E8.79075
G1 X624.376 Y95.206 E9.39152
G1 X624.376 Y94.755 E9.41066
G1 X613.913 Y105.218 E10.03850
G1 X613.462 Y105.218 E10.05763
G1 X624.376 Y94.304 E10.71253
G1 X624.376 Y93.853 E10.73167
G1 X613.011 Y105.218 E11.41363
G1 X612.560 Y105.218 E11.43277
G1 X624.376 Y93.402 E12.14180
G1 X624.376 Y92.951 E12.16093
G1 X612.109 Y105.218 E12.89703
G1 X611.658 Y105.218 E12.91616
G1 X624.376 Y92.500 E13.67932
G1 X624.376 Y92.049 E13.69846
G1 X611.207 Y105.218 E14.48868
G1 X610.756 Y105.218 E14.50781
G1 X624.376 Y91.598 E15.32510
G1 X624.376 Y91.147 E15.34423
G1 X610.305 Y105.218 E16.18858
G1 X609.854 Y105.218 E16.20772
G1 X624.376 Y90.696 E17.07913
G1 X624.376 Y90.244 E17.09827
G1 X609.403 Y105.218 E17.99674
G1 X608.952 Y105.218 E18.01588
G1 X624.376 Y89.793 E18.94142
G1 X624.376 Y89.342 E18.96056
G1 X608.501 Y105.218 E19.91316
G1 X608.050 Y105.218 E19.93230
G1 X624.376 Y88.891 E20.91197
G1 X624.376 Y88.666 E20.92154
G1 X624.151 Y88.666 E20.93111
G1 X607.824 Y104.992 E21.91078
G1 X607.824 Y104.541 E21.92992
G1 X623.699 Y88.666 E22.88253
G1 X623.248 Y88.666 E22.90166
G1 X607.824 Y104.090 E23.82721
G1 X607.824 Y103.639 E23.84635
G1 X622.797 Y88.666 E24.74483
G1 X622.346 Y88.666 E24.76397
G1 X607.824 Y103.188 E25.63539
G1 X607.824 Y102.737 E25.65452
G1 X621.895 Y88.666 E26.49888
G1 X621.444 Y88.666 E26.51801
G1 X607.824 Y102.286 E27.33530
G1 X607.824 Y101.835 E27.35444
G1 X620.993 Y88.666 E28.14467
G1 X620.542 Y88.666 E28.16380
G1 X607.824 Y101.384 E28.92697
G1 X607.824 Y100.933 E28.94610
G1 X620.091 Y88.666 E29.68220
G1 X619.640 Y88.666 E29.70134
G1 X607.824 Y100.482 E30.41037
G1 X607.824 Y100.031 E30.42951
G1 X619.189 Y88.666 E31.11148
G1 X618.738 Y88.666 E31.13061
G1 X607.824 Y99.580 E31.78552
G1 X607.824 Y99.129 E31.80466
G1 X618.287 Y88.666 E32.43250
G1 X617.836 Y88.666 E32.45163
G1 X607.824 Y98.678 E33.05241
G1 X607.824 Y98.227 E33.07155
G1 X617.385 Y88.666 E33.64526
G1 X616.934 Y88.666 E33.66440
G1 X607.824 Y97.776 E34.21105
G1 X607.824 Y97.325 E34.23018
G1 X616.483 Y88.666 E34.74977
G1 X616.032 Y88.666 E34.76891
G1 X607.824 Y96.874 E35.26143
G1 X607.824 Y96.423 E35.28056
G1 X615.581 Y88.666 E35.74602
G1 X615.130 Y88.666 E35.76516
G1 X607.824 Y95.972 E36.20355
G1 X607.824 Y95.521 E36.22269
G1 X614.679 Y88.666 E36.63401
G1 X614.228 Y88.666 E36.65315
G1 X607.824 Y95.070 E37.03742
G1 X607.824 Y94.619 E37.05655
G1 X613.777 Y88.666 E37.41375
G1 X613.326 Y88.666 E37.43289
G1 X607.824 Y94.168 E37.76303
G1 X607.824 Y93.717 E37.78216
G1 X612.875 Y88.666 E38.08523
G1 X612.424 Y88.666 E38.10437
G1 X607.824 Y93.266 E38.38038
G1 X607.824 Y92.815 E38.39952
G1 X611.973 Y88.666 E38.64846
G1 X611.522 Y88.666 E38.66760
G1 X607.824 Y92.363 E38.88948
G1 X607.824 Y91.912 E38.90861
G1 X611.071 Y88.666 E39.10343
G1 X610.620 Y88.666 E39.12257
G1 X607.824 Y91.461 E39.29032
G1 X607.824 Y91.010 E39.30945
G1 X610.169 Y88.666 E39.45014
G1 X609.718 Y88.666 E39.46928
G1 X607.824 Y90.559 E39.58290
G1 X607.824 Y90.108 E39.60204
G1 X609.267 Y88.666 E39.68860
G1 X608.816 Y88.666 E39.70773
G1 X607.824 Y89.657 E39.76723
G1 X607.824 Y89.206 E39.78637
G1 X608.364 Y88.666 E39.81880
G1 X607.913 Y88.666 E39.83793
G1 X607.824 Y88.755 E39.84328
M104 S205 ; set temperature
G1 U0.520 V0.520 Z0.520 F6000.000
G1 X623.872 Y104.713 F6000.000
G1 F3000
G1 X608.328 Y104.713 E40.51158
G1 X608.328 Y89.170 E41.17987
G1 X623.872 Y89.170 E41.84816
G1 X623.872 Y104.653 E42.51387
G1 X624.389 Y105.231 F6000.000
G1 F3000
G1 X607.811 Y105.231 E43.22663
G1 X607.811 Y88.653 E43.93939
G1 X624.389 Y88.653 E44.65214
G1 X624.389 Y105.171 E45.36232
G1 X624.906 Y105.748 F6000.000
G1 F3000
G1 X607.294 Y105.748 E46.11954
G1 X607.294 Y88.136 E46.87676
G1 X624.906 Y88.136 E47.63398
G1 X624.906 Y105.688 E48.38862
G1 X625.423 Y106.265 F6000.000
G1 F3000
G1 X606.777 Y106.265 E49.19031
G1 X606.777 Y87.619 E49.99199
G1 X625.423 Y87.619 E50.79368
G1 X625.423 Y106.205 E51.59278
G1 X625.880 Y106.722 F6000.000
G1 F2400
G1 X606.320 Y106.722 E52.23860
G1 X606.320 Y87.162 E52.88442
G1 X625.880 Y87.162 E53.53024
G1 X625.880 Y106.662 E54.17407
G1 X625.494 Y106.618 F6000.000
G1 X623.428 Y89.760 F6000.000
G1 F3000
G1 X623.281 Y89.614 E54.18313
G1 X622.537 Y89.614 E54.21568
G1 X623.428 Y90.505 E54.27077
G1 X623.428 Y91.249 E54.30332
G1 X621.793 Y89.614 E54.40445
G1 X621.049 Y89.614 E54.43700
G1 X623.428 Y91.993 E54.58415
G1 X623.428 Y92.737 E54.61671
G1 X620.305 Y89.614 E54.80990
G1 X619.561 Y89.614 E54.84245
G1 X623.428 Y93.481 E55.08167
G1 X623.428 Y94.225 E55.11422
G1 X618.817 Y89.614 E55.39948
G1 X618.073 Y89.614 E55.43203
G1 X623.428 Y94.969 E55.76333
G1 X623.428 Y95.713 E55.79588
G1 X617.329 Y89.614 E56.17320
G1 X616.585 Y89.614 E56.20575
G1 X623.428 Y96.457 E56.62911
G1 X623.428 Y97.201 E56.66166
G1 X615.841 Y89.614 E57.13106
G1 X615.097 Y89.614 E57.16361
G1 X623.428 Y97.945 E57.67903
G1 X623.428 Y98.689 E57.71159
G1 X614.353 Y89.614 E58.27305
G1 X613.609 Y89.614 E58.30560
G1 X623.428 Y99.433 E58.91309
G1 X623.428 Y100.177 E58.94564
G1 X612.865 Y89.614 E59.59917
G1 X612.121 Y89.614 E59.63172
G1 X623.428 Y100.921 E60.33128
G1 X623.428 Y101.665 E60.36383
G1 X611.376 Y89.614 E61.10943
G1 X610.632 Y89.614 E61.14198
G1 X623.428 Y102.409 E61.93361
G1 X623.428 Y103.153 E61.96616
G1 X609.888 Y89.614 E62.80382
G1 X609.144 Y89.614 E62.83637
G1 X623.428 Y103.898 E63.72007
G1 X623.428 Y104.270 E63.73634
G1 X623.056 Y104.270 E63.75262
G1 X608.772 Y89.986 E64.63632
G1 X608.772 Y90.730 E64.66887
G1 X622.312 Y104.270 E65.50653
G1 X621.568 Y104.270 E65.53908
G1 X608.772 Y91.474 E66.33071
G1 X608.772 Y92.218 E66.36326
G1 X620.824 Y104.270 E67.10886
G1 X620.080 Y104.270 E67.14141
G1 X608.772 Y92.962 E67.84098
G1 X608.772 Y93.706 E67.87353
G1 X619.335 Y104.270 E68.52706
G1 X618.591 Y104.270 E68.55961
G1 X608.772 Y94.450 E69.16710
G1 X608.772 Y95.194 E69.19965
G1 X617.847 Y104.270 E69.76112
G1 X617.103 Y104.270 E69.79367
G1 X608.772 Y95.939 E70.30910
G1 X608.772 Y96.683 E70.34165
G1 X616.359 Y104.270 E70.81104
G1 X615.615 Y104.270 E70.84359
G1 X608.772 Y97.427 E71.26696
G1 X608.772 Y98.171 E71.29951
G1 X614.871 Y104.270 E71.67683
G1 X614.127 Y104.270 E71.70938
G1 X608.772 Y98.915 E72.04068
G1 X608.772 Y99.659 E72.07323
G1 X613.383 Y104.270 E72.35849
G1 X612.639 Y104.270 E72.39104
G1 X608.772 Y100.403 E72.63027
G1 X608.772 Y101.147 E72.66282
G1 X611.895 Y104.270 E72.85601
G1 X611.151 Y104.270 E72.88856
G1 X608.772 Y101.891 E73.03573
G1 X608.772 Y102.635 E73.06828
G1 X610.407 Y104.270 E73.16940
G1 X609.663 Y104.270 E73.20195
G1 X608.772 Y103.379 E73.25705
G1 X608.772 Y104.123 E73.28960
G1 X608.919 Y104.269 E73.29865
G1 U0.720 V0.720 Z0.720 F6000.000
G1 X623.872 Y104.713 F6000.000
G1 F3000
G1 X608.328 Y104.713 E73.96694
G1 X608.328 Y89.170 E74.63523
G1 X623.872 Y89.170 E75.30352
G1 X623.872 Y104.653 E75.96924
G1 X624.389 Y105.231 F6000.000
G1 F3000
G1 X607.811 Y105.231 E76.68199
G1 X607.811 Y88.653 E77.39475
G1 X624.389 Y88.653 E78.10750
G1 X624.389 Y105.171 E78.81768
G1 X624.906 Y105.748 F6000.000
G1 F3000
G1 X607.294 Y105.748 E79.57490
G1 X607.294 Y88.136 E80.33212
G1 X624.906 Y88.136 E81.08934
G1 X624.906 Y105.688 E81.84398
G1 X625.423 Y106.265 F6000.000
G1 F3000
G1 X606.777 Y106.265 E82.64567
G1 X606.777 Y87.619 E83.44735
G1 X625.423 Y87.619 E84.24904
G1 X625.423 Y106.205 E85.04814
G1 X625.880 Y106.722 F6000.000
G1 F2400
G1 X606.320 Y106.722 E85.69396
G1 X606.320 Y87.162 E86.33978
G1 X625.880 Y87.162 E86.98560
G1 X625.880 Y106.662 E87.62943
G1 X625.494 Y106.618 F6000.000
G1 X623.281 Y104.270 F6000.000
G1 F3000
G1 X623.428 Y104.123 E87.63849
G1 X623.428 Y103.379 E87.67104
G1 X622.537 Y104.270 E87.72613
G1 X621.793 Y104.270 E87.75868
G1 X623.428 Y102.635 E87.85981
G1 X623.428 Y101.891 E87.89236
G1 X621.049 Y104.270 E88.03951
G1 X620.305 Y104.270 E88.07207
G1 X623.428 Y101.147 E88.26526
G1 X623.428 Y100.403 E88.29781
G1 X619.561 Y104.270 E88.53703
G1 X618.817 Y104.270 E88.56958
G1 X623.428 Y99.659 E88.85484
G1 X623.428 Y98.915 E88.88739
G1 X618.073 Y104.270 E89.21869
G1 X617.329 Y104.270 E89.25124
G1 X623.428 Y98.171 E89.62856
G1 X623.428 Y97.427 E89.66111
G1 X616.585 Y104.270 E90.08447
G1 X615.841 Y104.270 E90.11702
G1 X623.428 Y96.683 E90.58642
G1 X623.428 Y95.939 E90.61897
G1 X615.097 Y104.270 E91.13439
G1 X614.353 Y104.270 E91.16695
G1 X623.428 Y95.194 E91.72841
G1 X623.428 Y94.450 E91.76096
G1 X613.609 Y104.270 E92.36845
G1 X612.865 Y104.270 E92.40100
G1 X623.428 Y93.706 E93.05453
G1 X623.428 Y92.962 E93.08708
G1 X612.121 Y104.270 E93.78664
G1 X611.376 Y104.270 E93.81919
G1 X623.428 Y92.218 E94.56479
G1 X623.428 Y91.474 E94.59734
G1 X610.632 Y104.270 E95.38897
G1 X609.888 Y104.270 E95.42152
G1 X623.428 Y90.730 E96.25918
G1 X623.428 Y89.986 E96.29173
G1 X609.144 Y104.270 E97.17543
G1 X608.772 Y104.270 E97.19170
G1 X608.772 Y103.898 E97.20798
G1 X623.056 Y89.614 E98.09168
G1 X622.312 Y89.614 E98.12423
G1 X608.772 Y103.153 E98.96189
G1 X608.772 Y102.409 E98.99444
G1 X621.568 Y89.614 E99.78607
G1 X620.824 Y89.614 E99.81862
G1 X608.772 Y101.665 E100.56422
G1 X608.772 Y100.921 E100.59677
G1 X620.080 Y89.614 E101.29633
G1 X619.335 Y89.614 E101.32888
G1 X608.772 Y100.177 E101.98242
G1 X608.772 Y99.433 E102.01497
G1 X618.591 Y89.614 E102.62246
G1 X617.847 Y89.614 E102.65501
G1 X608.772 Y98.689 E103.21648
G1 X608.772 Y97.945 E103.24903
G1 X617.103 Y89.614 E103.76446
G1 X616.359 Y89.614 E103.79701
G1 X608.772 Y97.201 E104.26640
G1 X608.772 Y96.457 E104.29895
G1 X615.615 Y89.614 E104.72231
G1 X614.871 Y89.614 E104.75487
G1 X608.772 Y95.713 E105.13219
G1 X608.772 Y94.969 E105.16474
G1 X614.127 Y89.614 E105.49604
G1 X613.383 Y89.614 E105.52859
G1 X608.772 Y94.225 E105.81385
G1 X608.772 Y93.481 E105.84640
G1 X612.639 Y89.614 E106.08563
G1 X611.895 Y89.614 E106.11818
G1 X608.772 Y92.737 E106.31137
G1 X608.772 Y91.993 E106.34392
G1 X611.151 Y89.614 E106.49108
G1 X610.407 Y89.614 E106.52363
G1 X608.772 Y91.249 E106.62476
G1 X608.772 Y90.505 E106.65731
G1 X609.663 Y89.614 E106.71240
G1 X608.919 Y89.614 E106.74495
G1 X608.772 Y89.760 E106.75400
M106 S239.7
G1 U0.920 V0.920 Z0.920 F6000.000
G1 X623.872 Y104.713 F6000.000
G1 F3000
G1 X608.328 Y104.713 E107.42230
G1 X608.328 Y89.170 E108.09059
G1 X623.872 Y89.170 E108.75888
G1 X623.872 Y104.653 E109.42459
G1 X624.389 Y105.231 F6000.000
G1 F3000
G1 X607.811 Y105.231 E110.13735
G1 X607.811 Y88.653 E110.85011
G1 X624.389 Y88.653 E111.56286
G1 X624.389 Y105.171 E112.27304
G1 X624.906 Y105.748 F6000.000
G1 F3000
G1 X607.294 Y105.748 E113.03026
G1 X607.294 Y88.136 E113.78748
G1 X624.906 Y88.136 E114.54470
G1 X624.906 Y105.688 E115.29934
G1 X625.423 Y106.265 F6000.000
G1 F3000
G1 X606.777 Y106.265 E116.10103
G1 X606.777 Y87.619 E116.90271
G1 X625.423 Y87.619 E117.70439
G1 X625.423 Y106.205 E118.50350
G1 X625.880 Y106.722 F6000.000
G1 F2400
G1 X606.320 Y106.722 E119.14932
G1 X606.320 Y87.162 E119.79514
G1 X625.880 Y87.162 E120.44095
G1 X625.880 Y106.662 E121.08479
G1 X625.494 Y106.618 F6000.000
G1 X623.454 Y91.367 F6000.000
G1 F3000
G1 X621.675 Y89.588 E121.18040
G1 X617.365 Y89.588 E121.34419
G1 X623.454 Y95.677 E121.67142
G1 X623.454 Y99.986 E121.83521
G1 X613.056 Y89.588 E122.39407
G1 X608.747 Y89.588 E122.55785
G1 X623.454 Y104.295 E123.34834
G1 X619.144 Y104.295 E123.51212
G1 X608.747 Y93.898 E124.07099
G1 X608.747 Y98.207 E124.23477
G1 X614.835 Y104.295 E124.56201
G1 X610.525 Y104.295 E124.72579
G1 X608.747 Y102.516 E124.82140
G1 U1.120 V1.120 Z1.120 F6000.000
G1 X623.872 Y104.713 F6000.000
G1 F3000
G1 X608.328 Y104.713 E125.48969
G1 X608.328 Y89.170 E126.15799
G1 X623.872 Y89.170 E126.82628
G1 X623.872 Y104.653 E127.49199
G1 X624.389 Y105.231 F6000.000
G1 F3000
G1 X607.811 Y105.231 E128.20475
G1 X607.811 Y88.653 E128.91750
G1 X624.389 Y88.653 E129.63026
G1 X624.389 Y105.171 E130.34044
G1 X624.906 Y105.748 F6000.000
G1 F3000
G1 X607.294 Y105.748 E131.09766
G1 X607.294 Y88.136 E131.85488
G1 X624.906 Y88.136 E132.61210
G1 X624.906 Y105.688 E133.36674
G1 X625.423 Y106.265 F6000.000
G1 F3000
G1 X606.777 Y106.265 E134.16842
G1 X606.777 Y87.619 E134.97011
G1 X625.423 Y87.619 E135.77179
G1 X625.423 Y106.205 E136.57090
G1 X625.880 Y106.722 F6000.000
G1 F2400
G1 X606.320 Y106.722 E137.21672
G1 X606.320 Y87.162 E137.86253
G1 X625.880 Y87.162 E138.50835
G1 X625.880 Y106.662 E139.15219
G1 X625.494 Y106.618 F6000.000
G1 X621.675 Y104.295 F6000.000
G1 F3000
G1 X623.454 Y102.516 E139.24780
G1 X623.454 Y98.207 E139.41159
G1 X617.365 Y104.295 E139.73882
G1 X613.056 Y104.295 E139.90261
G1 X623.454 Y93.898 E140.46147
G1 X623.454 Y89.588 E140.62525
G1 X608.747 Y104.295 E141.41574
G1 X608.747 Y99.986 E141.57952
G1 X619.144 Y89.588 E142.13838
G1 X614.835 Y89.588 E142.30217
G1 X608.747 Y95.677 E142.62941
