; generated by Slic3r 1.3.0-dev on 2018-05-16 at 13:18:58

; external perimeters extrusion width = 0.44mm (3.18mm^3/s)
; perimeters extrusion width = 0.56mm (5.17mm^3/s)
; infill extrusion width = 0.50mm (4.57mm^3/s)
; solid infill extrusion width = 0.56mm (5.17mm^3/s)
; top infill extrusion width = 0.56mm (5.17mm^3/s)

M107
M104 S210 ; set temperature
G28 ; home all axes
G32; probe home individual Z axis
G29 S1; load bed mesh

; Filament gcode

M109 S210 ; set temperature and wait for it to be reached
G21 ; set units to millimeters
G90 ; use absolute coordinates
M82 ; use absolute distances for extrusion
G92 E0
G1 U0.320 V0.320 Z0.320 F6000.000
G1 E-2.00000 F2400.00000
G92 E0
G1 X604.154 Y86.942 F6000.000
G1 E2.00000 F2400.00000
G1 F1680
G1 X604.544 Y85.774 E2.05167
G1 X606.100 Y84.996 E2.12465
G1 X626.100 Y84.996 E2.96368
G1 X627.268 Y85.386 E3.01534
G1 X628.046 Y86.942 E3.08833
G1 X628.046 Y110.561 E4.07918
G1 X627.656 Y111.729 E4.13084
G1 X626.100 Y112.507 E4.20383
G1 X606.100 Y112.507 E5.04285
G1 X604.932 Y112.117 E5.09452
G1 X604.154 Y110.561 E5.16750
G1 X604.154 Y87.002 E6.15583
G1 X604.469 Y86.942 F6000.000
G1 F1680
G1 X604.857 Y85.886 E6.20301
G1 X606.100 Y85.311 E6.26046
G1 X626.100 Y85.311 E7.09949
G1 X627.156 Y85.699 E7.14666
G1 X627.731 Y86.942 E7.20412
G1 X627.731 Y110.561 E8.19496
G1 X627.343 Y111.616 E8.24214
G1 X626.100 Y112.191 E8.29959
G1 X606.100 Y112.191 E9.13862
G1 X605.044 Y111.804 E9.18579
G1 X604.469 Y110.561 E9.24325
G1 X604.469 Y87.002 E10.23157
G1 X604.785 Y86.942 F6000.000
G1 F1680
G1 X605.169 Y86.012 E10.27378
G1 X606.100 Y85.626 E10.31604
G1 X626.100 Y85.626 E11.15507
G1 X627.030 Y86.011 E11.19727
G1 X627.415 Y86.942 E11.23953
G1 X627.415 Y110.561 E12.23038
G1 X627.031 Y111.490 E12.27259
G1 X626.100 Y111.876 E12.31484
G1 X606.100 Y111.876 E13.15387
G1 X605.170 Y111.491 E13.19608
G1 X604.785 Y110.561 E13.23834
G1 X604.785 Y87.002 E14.22667
G1 E12.22667 F2400.00000
G92 E0
G1 X624.647 Y105.488 F6000.000
G1 E2.00000 F2400.00000
G1 F2100
G1 X607.553 Y105.488 E2.71709
G1 X607.553 Y88.395 E3.43418
G1 X624.647 Y88.395 E4.15127
G1 X624.647 Y105.428 E4.86584
G1 X624.962 Y105.804 F6000.000
G1 F2100
G1 X607.238 Y105.804 E5.60939
G1 X607.238 Y88.080 E6.35294
G1 X624.962 Y88.080 E7.09648
G1 X624.962 Y105.744 E7.83751
G1 X625.277 Y106.119 F6000.000
G1 F2100
G1 X606.923 Y106.119 E8.60752
G1 X606.923 Y87.764 E9.37752
G1 X625.277 Y87.764 E10.14752
G1 X625.277 Y106.059 E10.91501
G1 X625.593 Y106.434 F6000.000
G1 F2100
G1 X606.607 Y106.434 E11.71147
G1 X606.607 Y87.449 E12.50793
G1 X625.593 Y87.449 E13.30439
G1 X625.593 Y106.374 E14.09833
G1 X625.908 Y106.750 F6000.000
G1 F1680
G1 X606.292 Y106.750 E14.92125
G1 X606.292 Y87.134 E15.74417
G1 X625.908 Y87.134 E16.56709
G1 X625.908 Y106.690 E17.38749
G1 X625.522 Y106.646 F6000.000
G1 E15.38749 F2400.00000
G92 E0
G1 X624.287 Y105.218 F6000.000
G1 E2.00000 F2400.00000
G1 F2100
G1 X624.376 Y105.128 E2.00536
G1 X624.376 Y104.677 E2.02450
G1 X623.836 Y105.218 E2.05692
G1 X623.385 Y105.218 E2.07606
G1 X624.376 Y104.226 E2.13555
G1 X624.376 Y103.775 E2.15468
G1 X622.934 Y105.218 E2.24124
G1 X622.483 Y105.218 E2.26037
G1 X624.376 Y103.324 E2.37399
G1 X624.376 Y102.873 E2.39313
G1 X622.032 Y105.218 E2.53381
G1 X621.580 Y105.218 E2.55295
G1 X624.376 Y102.422 E2.72069
G1 X624.376 Y101.971 E2.73983
G1 X621.129 Y105.218 E2.93464
G1 X620.678 Y105.218 E2.95377
G1 X624.376 Y101.520 E3.17565
G1 X624.376 Y101.069 E3.19478
G1 X620.227 Y105.218 E3.44372
G1 X619.776 Y105.218 E3.46286
G1 X624.376 Y100.618 E3.73886
G1 X624.376 Y100.167 E3.75800
G1 X619.325 Y105.218 E4.06106
G1 X618.874 Y105.218 E4.08020
G1 X624.376 Y99.716 E4.41033
G1 X624.376 Y99.265 E4.42947
G1 X618.423 Y105.218 E4.78666
G1 X617.972 Y105.218 E4.80580
G1 X624.376 Y98.814 E5.19006
G1 X624.376 Y98.363 E5.20919
G1 X617.521 Y105.218 E5.62051
G1 X617.070 Y105.218 E5.63965
G1 X624.376 Y97.912 E6.07804
G1 X624.376 Y97.461 E6.09718
G1 X616.619 Y105.218 E6.56263
G1 X616.168 Y105.218 E6.58176
G1 X624.376 Y97.010 E7.07428
G1 X624.376 Y96.559 E7.09341
G1 X615.717 Y105.218 E7.61299
G1 X615.266 Y105.218 E7.63213
G1 X624.376 Y96.108 E8.17877
G1 X624.376 Y95.657 E8.19791
G1 X614.815 Y105.218 E8.77162
G1 X614.364 Y105.218 E8.79075
G1 X624.376 Y95.206 E9.39152
G1 X624.376 Y94.755 E9.41066
G1 X613.913 Y105.218 E10.03850
G1 X613.462 Y105.218 E10.05763
G1 X624.376 Y94.304 E10.71253
G1 X624.376 Y93.853 E10.73167
G1 X613.011 Y105.218 E11.41363
G1 X612.560 Y105.218 E11.43277
G1 X624.376 Y93.402 E12.14180
G1 X624.376 Y92.951 E12.16093
G1 X612.109 Y105.218 E12.89703
G1 X611.658 Y105.218 E12.91616
G1 X624.376 Y92.500 E13.67932
G1 X624.376 Y92.049 E13.69846
G1 X611.207 Y105.218 E14.48868
G1 X610.756 Y105.218 E14.50781
G1 X624.376 Y91.598 E15.32510
G1 X624.376 Y91.147 E15.34423
G1 X610.305 Y105.218 E16.18858
G1 X609.854 Y105.218 E16.20772
G1 X624.376 Y90.696 E17.07913
G1 X624.376 Y90.244 E17.09827
G1 X609.403 Y105.218 E17.99674
G1 X608.952 Y105.218 E18.01588
G1 X624.376 Y89.793 E18.94142
G1 X624.376 Y89.342 E18.96056
G1 X608.501 Y105.218 E19.91316
G1 X608.050 Y105.218 E19.93230
G1 X624.376 Y88.891 E20.91197
G1 X624.376 Y88.666 E20.92154
G1 X624.151 Y88.666 E20.93111
G1 X607.824 Y104.992 E21.91078
G1 X607.824 Y104.541 E21.92992
G1 X623.699 Y88.666 E22.88253
G1 X623.248 Y88.666 E22.90166
G1 X607.824 Y104.090 E23.82721
G1 X607.824 Y103.639 E23.84635
G1 X622.797 Y88.666 E24.74483
G1 X622.346 Y88.666 E24.76397
G1 X607.824 Y103.188 E25.63539
G1 X607.824 Y102.737 E25.65452
G1 X621.895 Y88.666 E26.49888
G1 X621.444 Y88.666 E26.51801
G1 X607.824 Y102.286 E27.33530
G1 X607.824 Y101.835 E27.35444
G1 X620.993 Y88.666 E28.14467
G1 X620.542 Y88.666 E28.16380
G1 X607.824 Y101.384 E28.92697
G1 X607.824 Y100.933 E28.94610
G1 X620.091 Y88.666 E29.68220
G1 X619.640 Y88.666 E29.70134
G1 X607.824 Y100.482 E30.41037
G1 X607.824 Y100.031 E30.42951
G1 X619.189 Y88.666 E31.11148
G1 X618.738 Y88.666 E31.13061
G1 X607.824 Y99.580 E31.78552
G1 X607.824 Y99.129 E31.80466
G1 X618.287 Y88.666 E32.43250
G1 X617.836 Y88.666 E32.45163
G1 X607.824 Y98.678 E33.05241
G1 X607.824 Y98.227 E33.07155
G1 X617.385 Y88.666 E33.64526
G1 X616.934 Y88.666 E33.66440
G1 X607.824 Y97.776 E34.21105
G1 X607.824 Y97.325 E34.23018
G1 X616.483 Y88.666 E34.74977
G1 X616.032 Y88.666 E34.76891
G1 X607.824 Y96.874 E35.26143
G1 X607.824 Y96.423 E35.28056
G1 X615.581 Y88.666 E35.74602
G1 X615.130 Y88.666 E35.76516
G1 X607.824 Y95.972 E36.20355
G1 X607.824 Y95.521 E36.22269
G1 X614.679 Y88.666 E36.63401
G1 X614.228 Y88.666 E36.65315
G1 X607.824 Y95.070 E37.03742
G1 X607.824 Y94.619 E37.05655
G1 X613.777 Y88.666 E37.41375
G1 X613.326 Y88.666 E37.43289
G1 X607.824 Y94.168 E37.76303
G1 X607.824 Y93.717 E37.78216
G1 X612.875 Y88.666 E38.08523
G1 X612.424 Y88.666 E38.10437
G1 X607.824 Y93.266 E38.38038
G1 X607.824 Y92.815 E38.39952
G1 X611.973 Y88.666 E38.64846
G1 X611.522 Y88.666 E38.66760
G1 X607.824 Y92.363 E38.88948
G1 X607.824 Y91.912 E38.90861
G1 X611.071 Y88.666 E39.10343
G1 X610.620 Y88.666 E39.12257
G1 X607.824 Y91.461 E39.29032
G1 X607.824 Y91.010 E39.30945
G1 X610.169 Y88.666 E39.45014
G1 X609.718 Y88.666 E39.46928
G1 X607.824 Y90.559 E39.58290
G1 X607.824 Y90.108 E39.60204
G1 X609.267 Y88.666 E39.68860
G1 X608.816 Y88.666 E39.70773
G1 X607.824 Y89.657 E39.76723
G1 X607.824 Y89.206 E39.78637
G1 X608.364 Y88.666 E39.81880
G1 X607.913 Y88.666 E39.83793
G1 X607.824 Y88.755 E39.84328
G1 U18.001 V18.001 Z84.127 F6000.000
G1 E37.84328 F2400.00000
G92 E0
G1 X607.553 Y91.840 F6000.000
G1 E2.00000 F2400.00000
G1 F2100
G1 X624.647 Y91.840 E2.71709
G1 X624.647 Y109.107 E3.44150
G1 X607.553 Y109.107 E4.15859
G1 X607.553 Y91.900 E4.88047
G1 X607.238 Y91.524 F6000.000
G1 F2100
G1 X624.962 Y91.524 E5.62402
G1 X624.962 Y109.423 E6.37488
G1 X607.238 Y109.423 E7.11843
G1 X607.238 Y91.584 E7.86678
G1 X606.923 Y91.209 F6000.000
G1 F2100
G1 X625.277 Y91.209 E8.63678
G1 X625.277 Y109.738 E9.41410
G1 X606.923 Y109.738 E10.18410
G1 X606.923 Y91.269 E10.95890
G1 X606.607 Y90.894 F6000.000
G1 F2100
G1 X625.593 Y90.894 E11.75537
G1 X625.593 Y110.053 E12.55914
G1 X606.607 Y110.053 E13.35560
G1 X606.607 Y90.954 E14.15686
G1 X606.292 Y90.578 F6000.000
G1 F1680
G1 X625.908 Y90.578 E14.97978
G1 X625.908 Y110.369 E15.81001
G1 X606.292 Y110.369 E16.63293
G1 X606.292 Y90.638 E17.46064
G1 X606.678 Y90.682 F6000.000
G1 E15.46064 F2400.00000
G92 E0
G1 X607.913 Y92.110 F6000.000
G1 E2.00000 F2400.00000
G1 F2100
G1 X607.824 Y92.200 E2.00532
G1 X607.824 Y92.647 E2.02414
G1 X608.361 Y92.110 E2.05608
G1 X608.808 Y92.110 E2.07490
G1 X607.824 Y93.094 E2.13345
G1 X607.824 Y93.542 E2.15227
G1 X609.255 Y92.110 E2.23744
G1 X609.703 Y92.110 E2.25627
G1 X607.824 Y93.989 E2.36805
G1 X607.824 Y94.436 E2.38688
G1 X610.150 Y92.110 E2.52528
G1 X610.597 Y92.110 E2.54410
G1 X607.824 Y94.884 E2.70913
G1 X607.824 Y95.331 E2.72795
G1 X611.044 Y92.110 E2.91959
G1 X611.492 Y92.110 E2.93841
G1 X607.824 Y95.778 E3.15667
G1 X607.824 Y96.225 E3.17549
G1 X611.939 Y92.110 E3.42037
G1 X612.386 Y92.110 E3.43919
G1 X607.824 Y96.673 E3.71068
G1 X607.824 Y97.120 E3.72950
G1 X612.834 Y92.110 E4.02761
G1 X613.281 Y92.110 E4.04643
G1 X607.824 Y97.567 E4.37116
G1 X607.824 Y98.015 E4.38998
G1 X613.728 Y92.110 E4.74133
G1 X614.176 Y92.110 E4.76015
G1 X607.824 Y98.462 E5.13811
G1 X607.824 Y98.909 E5.15693
G1 X614.623 Y92.110 E5.56151
G1 X615.070 Y92.110 E5.58033
G1 X607.824 Y99.356 E6.01153
G1 X607.824 Y99.804 E6.03035
G1 X615.517 Y92.110 E6.48817
G1 X615.965 Y92.110 E6.50699
G1 X607.824 Y100.251 E6.99142
G1 X607.824 Y100.698 E7.01024
G1 X616.412 Y92.110 E7.52129
G1 X616.859 Y92.110 E7.54011
G1 X607.824 Y101.146 E8.07778
G1 X607.824 Y101.593 E8.09660
G1 X617.307 Y92.110 E8.66089
G1 X617.754 Y92.110 E8.67971
G1 X607.824 Y102.040 E9.27061
G1 X607.824 Y102.487 E9.28943
G1 X618.201 Y92.110 E9.90695
G1 X618.648 Y92.110 E9.92577
G1 X607.824 Y102.935 E10.56991
G1 X607.824 Y103.382 E10.58873
G1 X619.096 Y92.110 E11.25948
G1 X619.543 Y92.110 E11.27831
G1 X607.824 Y103.829 E11.97568
G1 X607.824 Y104.277 E11.99450
G1 X619.990 Y92.110 E12.71849
G1 X620.438 Y92.110 E12.73731
G1 X607.824 Y104.724 E13.48792
G1 X607.824 Y105.171 E13.50674
G1 X620.885 Y92.110 E14.28396
G1 X621.332 Y92.110 E14.30278
G1 X607.824 Y105.619 E15.10662
G1 X607.824 Y106.066 E15.12544
G1 X621.779 Y92.110 E15.95590
G1 X622.227 Y92.110 E15.97472
G1 X607.824 Y106.513 E16.83180
G1 X607.824 Y106.960 E16.85062
G1 X622.674 Y92.110 E17.73431
G1 X623.121 Y92.110 E17.75314
G1 X607.824 Y107.408 E18.66345
G1 X607.824 Y107.855 E18.68227
G1 X623.569 Y92.110 E19.61920
G1 X624.016 Y92.110 E19.63802
G1 X607.824 Y108.302 E20.60156
G1 X607.824 Y108.750 E20.62038
G1 X624.376 Y92.198 E21.60536
G1 X624.376 Y92.645 E21.62418
G1 X608.184 Y108.837 E22.58772
G1 X608.631 Y108.837 E22.60654
G1 X624.376 Y93.092 E23.54347
G1 X624.376 Y93.539 E23.56229
G1 X609.079 Y108.837 E24.47260
G1 X609.526 Y108.837 E24.49142
G1 X624.376 Y93.987 E25.37511
G1 X624.376 Y94.434 E25.39393
G1 X609.973 Y108.837 E26.25100
G1 X610.421 Y108.837 E26.26982
G1 X624.376 Y94.881 E27.10028
G1 X624.376 Y95.329 E27.11910
G1 X610.868 Y108.837 E27.92294
G1 X611.315 Y108.837 E27.94176
G1 X624.376 Y95.776 E28.71898
G1 X624.376 Y96.223 E28.73780
G1 X611.762 Y108.837 E29.48840
G1 X612.210 Y108.837 E29.50723
G1 X624.376 Y96.671 E30.23121
G1 X624.376 Y97.118 E30.25003
G1 X612.657 Y108.837 E30.94740
G1 X613.104 Y108.837 E30.96622
G1 X624.376 Y97.565 E31.63697
G1 X624.376 Y98.012 E31.65579
G1 X613.552 Y108.837 E32.29993
G1 X613.999 Y108.837 E32.31875
G1 X624.376 Y98.460 E32.93627
G1 X624.376 Y98.907 E32.95509
G1 X614.446 Y108.837 E33.54599
G1 X614.894 Y108.837 E33.56481
G1 X624.376 Y99.354 E34.12909
G1 X624.376 Y99.802 E34.14791
G1 X615.341 Y108.837 E34.68557
G1 X615.788 Y108.837 E34.70439
G1 X624.376 Y100.249 E35.21544
G1 X624.376 Y100.696 E35.23426
G1 X616.235 Y108.837 E35.71869
G1 X616.683 Y108.837 E35.73751
G1 X624.376 Y101.143 E36.19532
G1 X624.376 Y101.591 E36.21415
G1 X617.130 Y108.837 E36.64534
G1 X617.577 Y108.837 E36.66416
G1 X624.376 Y102.038 E37.06874
G1 X624.376 Y102.485 E37.08756
G1 X618.025 Y108.837 E37.46552
G1 X618.472 Y108.837 E37.48434
G1 X624.376 Y102.933 E37.83568
G1 X624.376 Y103.380 E37.85450
G1 X618.919 Y108.837 E38.17923
G1 X619.366 Y108.837 E38.19805
G1 X624.376 Y103.827 E38.49616
G1 X624.376 Y104.274 E38.51498
G1 X619.814 Y108.837 E38.78647
G1 X620.261 Y108.837 E38.80529
G1 X624.376 Y104.722 E39.05016
G1 X624.376 Y105.169 E39.06898
G1 X620.708 Y108.837 E39.28724
G1 X621.156 Y108.837 E39.30606
G1 X624.376 Y105.616 E39.49770
G1 X624.376 Y106.064 E39.51652
G1 X621.603 Y108.837 E39.68154
G1 X622.050 Y108.837 E39.70036
G1 X624.376 Y106.511 E39.83876
G1 X624.376 Y106.958 E39.85758
G1 X622.497 Y108.837 E39.96937
G1 X622.945 Y108.837 E39.98819
G1 X624.376 Y107.406 E40.07336
G1 X624.376 Y107.853 E40.09218
G1 X623.392 Y108.837 E40.15073
G1 X623.839 Y108.837 E40.16955
G1 X624.376 Y108.300 E40.20149
G1 X624.376 Y108.747 E40.22031
G1 X624.287 Y108.837 E40.22562
M104 S205 ; set temperature
G1 U0.520 V0.520 Z0.520 F6000.000
G1 E38.22562 F2400.00000
G92 E0
G1 X623.872 Y104.713 F6000.000
G1 E2.00000 F2400.00000
G1 F3000
G1 X608.328 Y104.713 E2.66829
G1 X608.328 Y89.170 E3.33658
G1 X623.872 Y89.170 E4.00488
G1 X623.872 Y104.653 E4.67059
G1 X624.389 Y105.231 F6000.000
G1 F3000
G1 X607.811 Y105.231 E5.38335
G1 X607.811 Y88.653 E6.09610
G1 X624.389 Y88.653 E6.80886
G1 X624.389 Y105.171 E7.51904
G1 X624.906 Y105.748 F6000.000
G1 F3000
G1 X607.294 Y105.748 E8.27626
G1 X607.294 Y88.136 E9.03348
G1 X624.906 Y88.136 E9.79070
G1 X624.906 Y105.688 E10.54534
G1 X625.423 Y106.265 F6000.000
G1 F3000
G1 X606.777 Y106.265 E11.34702
G1 X606.777 Y87.619 E12.14871
G1 X625.423 Y87.619 E12.95039
G1 X625.423 Y106.205 E13.74950
G1 X625.880 Y106.722 F6000.000
G1 F2400
G1 X606.320 Y106.722 E14.39531
G1 X606.320 Y87.162 E15.04113
G1 X625.880 Y87.162 E15.68695
G1 X625.880 Y106.662 E16.33079
G1 X625.494 Y106.618 F6000.000
G1 X623.428 Y89.760 F6000.000
G1 F3000
G1 X623.281 Y89.614 E16.33985
G1 X622.537 Y89.614 E16.37240
G1 X623.428 Y90.505 E16.42749
G1 X623.428 Y91.249 E16.46004
G1 X621.793 Y89.614 E16.56116
G1 X621.049 Y89.614 E16.59371
G1 X623.428 Y91.993 E16.74087
G1 X623.428 Y92.737 E16.77342
G1 X620.305 Y89.614 E16.96661
G1 X619.561 Y89.614 E16.99916
G1 X623.428 Y93.481 E17.23839
G1 X623.428 Y94.225 E17.27094
G1 X618.817 Y89.614 E17.55620
G1 X618.073 Y89.614 E17.58875
G1 X623.428 Y94.969 E17.92004
G1 X623.428 Y95.713 E17.95259
G1 X617.329 Y89.614 E18.32992
G1 X616.585 Y89.614 E18.36247
G1 X623.428 Y96.457 E18.78583
G1 X623.428 Y97.201 E18.81838
G1 X615.841 Y89.614 E19.28777
G1 X615.097 Y89.614 E19.32032
G1 X623.428 Y97.945 E19.83575
G1 X623.428 Y98.689 E19.86830
G1 X614.353 Y89.614 E20.42976
G1 X613.609 Y89.614 E20.46231
G1 X623.428 Y99.433 E21.06981
G1 X623.428 Y100.177 E21.10236
G1 X612.865 Y89.614 E21.75589
G1 X612.121 Y89.614 E21.78844
G1 X623.428 Y100.921 E22.48800
G1 X623.428 Y101.665 E22.52055
G1 X611.376 Y89.614 E23.26614
G1 X610.632 Y89.614 E23.29869
G1 X623.428 Y102.409 E24.09032
G1 X623.428 Y103.153 E24.12287
G1 X609.888 Y89.614 E24.96054
G1 X609.144 Y89.614 E24.99309
G1 X623.428 Y103.898 E25.87678
G1 X623.428 Y104.270 E25.89306
G1 X623.056 Y104.270 E25.90933
G1 X608.772 Y89.986 E26.79303
G1 X608.772 Y90.730 E26.82558
G1 X622.312 Y104.270 E27.66325
G1 X621.568 Y104.270 E27.69580
G1 X608.772 Y91.474 E28.48743
G1 X608.772 Y92.218 E28.51998
G1 X620.824 Y104.270 E29.26558
G1 X620.080 Y104.270 E29.29813
G1 X608.772 Y92.962 E29.99769
G1 X608.772 Y93.706 E30.03024
G1 X619.335 Y104.270 E30.68377
G1 X618.591 Y104.270 E30.71632
G1 X608.772 Y94.450 E31.32382
G1 X608.772 Y95.194 E31.35637
G1 X617.847 Y104.270 E31.91783
G1 X617.103 Y104.270 E31.95038
G1 X608.772 Y95.939 E32.46581
G1 X608.772 Y96.683 E32.49836
G1 X616.359 Y104.270 E32.96776
G1 X615.615 Y104.270 E33.00031
G1 X608.772 Y97.427 E33.42367
G1 X608.772 Y98.171 E33.45622
G1 X614.871 Y104.270 E33.83355
G1 X614.127 Y104.270 E33.86610
G1 X608.772 Y98.915 E34.19740
G1 X608.772 Y99.659 E34.22995
G1 X613.383 Y104.270 E34.51521
G1 X612.639 Y104.270 E34.54776
G1 X608.772 Y100.403 E34.78699
G1 X608.772 Y101.147 E34.81954
