; generated by Slic3r 1.3.0-dev on 2018-05-18 at 16:35:13

; external perimeters extrusion width = 0.44mm (3.18mm^3/s)
; perimeters extrusion width = 0.56mm (5.17mm^3/s)
; infill extrusion width = 0.50mm (4.57mm^3/s)
; solid infill extrusion width = 0.56mm (5.17mm^3/s)
; top infill extrusion width = 0.56mm (5.17mm^3/s)

M107
M104 S210 ; set temperature
G28 ; home all axes
G32; probe home individual Z axis
G29 S1; load bed mesh

; Filament gcode

M109 S210 ; set temperature and wait for it to be reached
G21 ; set units to millimeters
G90 ; use absolute coordinates
M82 ; use absolute distances for extrusion
G92 E0
M584 U3 Z2 V4; Actuate motors independently
G92 U10.000 V10.000 Z10.000
G1 U0.320 V0.320 Z0.320 F6000.000
G1 E-2.00000 F2400.00000
G92 E0
G1 X583.671 Y98.539 F6000.000
G1 E2.00000 F2400.00000
G1 F1680
G1 X584.050 Y97.605 E2.04226
G1 X598.293 Y83.161 E2.89327
G1 X598.732 Y82.866 E2.91544
G1 X608.785 Y78.758 E3.37103
G1 X610.212 Y79.046 E3.43212
G1 X624.354 Y93.188 E4.27115
G1 X624.740 Y94.117 E4.31336
G1 X624.354 Y95.048 E4.35561
G1 X610.212 Y109.190 E5.19464
G1 X609.800 Y109.469 E5.21551
G1 X599.748 Y113.779 E5.67435
G1 X598.742 Y113.791 E5.71656
G1 X598.306 Y113.506 E5.73840
G1 X584.063 Y99.466 E6.57742
G1 X583.695 Y98.594 E6.61712
G1 E4.61712 F2400.00000
G92 E0
G1 X621.369 Y94.118 F6000.000
G1 E2.00000 F2400.00000
G1 F2100
G1 X609.282 Y106.205 E2.71709
G1 X597.195 Y94.118 E3.43418
G1 X609.282 Y82.031 E4.15127
G1 X621.327 Y94.075 E4.86584
G1 X621.815 Y94.118 F6000.000
G1 F2100
G1 X609.282 Y106.651 E5.60939
G1 X596.749 Y94.118 E6.35293
G1 X609.282 Y81.585 E7.09648
G1 X621.773 Y94.075 E7.83751
G1 X622.261 Y94.118 F6000.000
G1 F2100
G1 X609.282 Y107.097 E8.60751
G1 X596.304 Y94.118 E9.37752
G1 X609.282 Y81.139 E10.14752
G1 X622.219 Y94.075 E10.91501
G1 X622.707 Y94.118 F6000.000
G1 F2100
G1 X609.282 Y107.542 E11.71147
G1 X595.858 Y94.118 E12.50793
G1 X609.282 Y80.693 E13.30438
G1 X622.664 Y94.075 E14.09833
G1 X623.153 Y94.118 F6000.000
G1 F1680
G1 X609.282 Y107.988 E14.92125
G1 X595.412 Y94.118 E15.74416
G1 X609.282 Y80.247 E16.56708
G1 X623.110 Y94.075 E17.38748
G1 X622.806 Y94.318 F6000.000
G1 E15.38748 F2400.00000
G92 E0
G1 X609.327 Y82.432 F6000.000
G1 E2.00000 F2400.00000
G1 F2100
G1 X597.597 Y94.162 E2.69871
G1 X597.821 Y94.386 E2.71204
G1 X609.551 Y82.656 E3.41075
G1 X609.775 Y82.880 E3.42408
G1 X598.044 Y94.610 E4.12279
G1 X598.268 Y94.834 E4.13613
G1 X609.998 Y83.104 E4.83483
G1 X610.222 Y83.328 E4.84817
G1 X598.492 Y95.058 E5.54687
G1 X598.716 Y95.282 E5.56021
G1 X610.446 Y83.552 E6.25892
G1 X610.670 Y83.775 E6.27225
G1 X598.940 Y95.506 E6.97096
G1 X599.164 Y95.729 E6.98429
G1 X610.894 Y83.999 E7.68300
G1 X611.118 Y84.223 E7.69633
G1 X599.388 Y95.953 E8.39504
G1 X599.612 Y96.177 E8.40838
G1 X611.342 Y84.447 E9.10708
G1 X611.565 Y84.671 E9.12042
G1 X599.835 Y96.401 E9.81913
G1 X600.059 Y96.625 E9.83246
G1 X611.789 Y84.895 E10.53117
G1 X612.013 Y85.119 E10.54450
G1 X600.283 Y96.849 E11.24321
G1 X600.507 Y97.073 E11.25655
G1 X612.237 Y85.343 E11.95525
G1 X612.461 Y85.566 E11.96859
G1 X600.731 Y97.296 E12.66730
G1 X600.955 Y97.520 E12.68063
G1 X612.685 Y85.790 E13.37934
G1 X612.909 Y86.014 E13.39267
G1 X601.179 Y97.744 E14.09138
G1 X601.402 Y97.968 E14.10471
G1 X613.133 Y86.238 E14.80342
G1 X613.356 Y86.462 E14.81676
G1 X601.626 Y98.192 E15.51546
G1 X601.850 Y98.416 E15.52880
G1 X613.580 Y86.686 E16.22751
G1 X613.804 Y86.910 E16.24084
G1 X602.074 Y98.640 E16.93955
G1 X602.298 Y98.864 E16.95288
G1 X614.028 Y87.133 E17.65159
G1 X614.252 Y87.357 E17.66493
G1 X602.522 Y99.087 E18.36363
G1 X602.746 Y99.311 E18.37697
G1 X614.476 Y87.581 E19.07568
G1 X614.700 Y87.805 E19.08901
G1 X602.969 Y99.535 E19.78772
G1 X603.193 Y99.759 E19.80105
G1 X614.923 Y88.029 E20.49976
G1 X615.147 Y88.253 E20.51310
G1 X603.417 Y99.983 E21.21180
G1 X603.641 Y100.207 E21.22514
G1 X615.371 Y88.477 E21.92385
G1 X615.595 Y88.700 E21.93718
G1 X603.865 Y100.431 E22.63589
G1 X604.089 Y100.654 E22.64922
G1 X615.819 Y88.924 E23.34793
G1 X616.043 Y89.148 E23.36127
G1 X604.313 Y100.878 E24.05997
G1 X604.536 Y101.102 E24.07331
G1 X616.267 Y89.372 E24.77202
G1 X616.490 Y89.596 E24.78535
G1 X604.760 Y101.326 E25.48406
G1 X604.984 Y101.550 E25.49739
G1 X616.714 Y89.820 E26.19610
G1 X616.938 Y90.044 E26.20944
G1 X605.208 Y101.774 E26.90814
G1 X605.432 Y101.998 E26.92148
G1 X617.162 Y90.267 E27.62019
G1 X617.386 Y90.491 E27.63352
G1 X605.656 Y102.221 E28.33223
G1 X605.880 Y102.445 E28.34556
G1 X617.610 Y90.715 E29.04427
G1 X617.834 Y90.939 E29.05761
G1 X606.103 Y102.669 E29.75632
G1 X606.327 Y102.893 E29.76965
G1 X618.057 Y91.163 E30.46836
G1 X618.281 Y91.387 E30.48169
G1 X606.551 Y103.117 E31.18040
G1 X606.775 Y103.341 E31.19374
G1 X618.505 Y91.611 E31.89244
G1 X618.729 Y91.835 E31.90578
G1 X606.999 Y103.565 E32.60449
G1 X607.223 Y103.788 E32.61782
G1 X618.953 Y92.058 E33.31653
G1 X619.177 Y92.282 E33.32987
G1 X607.447 Y104.012 E34.02857
G1 X607.671 Y104.236 E34.04191
G1 X619.401 Y92.506 E34.74062
G1 X619.625 Y92.730 E34.75395
G1 X607.894 Y104.460 E35.45266
G1 X608.118 Y104.684 E35.46599
G1 X619.848 Y92.954 E36.16470
G1 X620.072 Y93.178 E36.17804
G1 X608.342 Y104.908 E36.87675
G1 X608.566 Y105.132 E36.89008
G1 X620.296 Y93.402 E37.58879
G1 X620.520 Y93.625 E37.60212
G1 X608.790 Y105.356 E38.30083
G1 X609.014 Y105.579 E38.31417
G1 X620.744 Y93.849 E39.01288
G1 X620.968 Y94.073 E39.02621
G1 X609.238 Y105.803 E39.72492
M104 S205 ; set temperature
G1 U0.520 V0.520 Z0.520 F6000.000
G1 X620.273 Y94.118 F6000.000
G1 F3000
G1 X609.282 Y105.109 E40.39321
G1 X598.291 Y94.118 E41.06150
G1 X609.282 Y83.127 E41.72979
G1 X620.231 Y94.075 E42.39551
G1 X621.004 Y94.118 F6000.000
G1 F3000
G1 X609.282 Y105.840 E43.10826
G1 X597.560 Y94.118 E43.82102
G1 X609.282 Y82.396 E44.53378
G1 X620.962 Y94.075 E45.24395
G1 X621.736 Y94.118 F6000.000
G1 F3000
G1 X609.282 Y106.571 E46.00117
G1 X596.829 Y94.118 E46.75839
G1 X609.282 Y81.664 E47.51561
G1 X621.693 Y94.075 E48.27025
G1 X622.467 Y94.118 F6000.000
G1 F3000
G1 X609.282 Y107.302 E49.07194
G1 X596.098 Y94.118 E49.87362
G1 X609.282 Y80.933 E50.67530
G1 X622.424 Y94.075 E51.47441
G1 X623.113 Y94.118 F6000.000
G1 F2400
G1 X609.282 Y107.949 E52.12023
G1 X595.451 Y94.118 E52.76605
G1 X609.282 Y80.287 E53.41186
G1 X623.071 Y94.075 E54.05570
G1 X622.767 Y94.318 F6000.000
G1 X619.615 Y94.191 F6000.000
G1 F3000
G1 X609.209 Y83.785 E54.68977
G1 X608.843 Y84.152 E54.71210
G1 X619.248 Y94.557 E55.34617
G1 X618.882 Y94.924 E55.36849
G1 X608.476 Y84.518 E56.00256
G1 X608.110 Y84.884 E56.02489
G1 X618.516 Y95.290 E56.65896
G1 X618.149 Y95.657 E56.68129
G1 X607.743 Y85.251 E57.31536
G1 X607.377 Y85.617 E57.33768
G1 X617.783 Y96.023 E57.97175
G1 X617.416 Y96.389 E57.99408
G1 X607.011 Y85.984 E58.62815
G1 X606.644 Y86.350 E58.65048
G1 X617.050 Y96.756 E59.28454
G1 X616.684 Y97.122 E59.30687
G1 X606.278 Y86.716 E59.94094
G1 X605.911 Y87.083 E59.96327
G1 X616.317 Y97.489 E60.59734
G1 X615.951 Y97.855 E60.61966
G1 X605.545 Y87.449 E61.25373
G1 X605.179 Y87.816 E61.27606
G1 X615.584 Y98.221 E61.91013
G1 X615.218 Y98.588 E61.93246
G1 X604.812 Y88.182 E62.56653
G1 X604.446 Y88.548 E62.58885
G1 X614.852 Y98.954 E63.22292
G1 X614.485 Y99.321 E63.24525
G1 X604.079 Y88.915 E63.87932
G1 X603.713 Y89.281 E63.90164
G1 X614.119 Y99.687 E64.53571
G1 X613.752 Y100.054 E64.55804
G1 X603.346 Y89.648 E65.19211
G1 X602.980 Y90.014 E65.21444
G1 X613.386 Y100.420 E65.84850
G1 X613.019 Y100.786 E65.87083
G1 X602.614 Y90.380 E66.50490
G1 X602.247 Y90.747 E66.52723
G1 X612.653 Y101.153 E67.16130
G1 X612.287 Y101.519 E67.18362
G1 X601.881 Y91.113 E67.81769
G1 X601.514 Y91.480 E67.84002
G1 X611.920 Y101.886 E68.47409
G1 X611.554 Y102.252 E68.49641
G1 X601.148 Y91.846 E69.13048
G1 X600.782 Y92.213 E69.15281
G1 X611.187 Y102.618 E69.78688
G1 X610.821 Y102.985 E69.80920
G1 X600.415 Y92.579 E70.44327
G1 X600.049 Y92.945 E70.46560
G1 X610.455 Y103.351 E71.09967
G1 X610.088 Y103.718 E71.12200
G1 X599.682 Y93.312 E71.75606
G1 X599.316 Y93.678 E71.77839
G1 X609.722 Y104.084 E72.41246
G1 X609.355 Y104.450 E72.43479
G1 X598.950 Y94.045 E73.06885
G1 U0.720 V0.720 Z0.720 F6000.000
G1 X620.273 Y94.118 F6000.000
G1 F3000
G1 X609.282 Y105.109 E73.73715
G1 X598.291 Y94.118 E74.40544
G1 X609.282 Y83.127 E75.07373
G1 X620.231 Y94.075 E75.73944
G1 X621.004 Y94.118 F6000.000
G1 F3000
G1 X609.282 Y105.840 E76.45220
G1 X597.560 Y94.118 E77.16496
G1 X609.282 Y82.396 E77.87771
G1 X620.962 Y94.075 E78.58789
G1 X621.736 Y94.118 F6000.000
G1 F3000
G1 X609.282 Y106.571 E79.34511
G1 X596.829 Y94.118 E80.10233
G1 X609.282 Y81.664 E80.85955
G1 X621.693 Y94.075 E81.61419
G1 X622.467 Y94.118 F6000.000
G1 F3000
G1 X609.282 Y107.302 E82.41587
G1 X596.098 Y94.118 E83.21756
G1 X609.282 Y80.933 E84.01924
G1 X622.424 Y94.075 E84.81834
G1 X623.113 Y94.118 F6000.000
G1 F2400
G1 X609.282 Y107.949 E85.46416
G1 X595.451 Y94.118 E86.10998
G1 X609.282 Y80.287 E86.75580
G1 X623.071 Y94.075 E87.39964
G1 X622.727 Y94.221 F6000.000
G1 X609.355 Y83.785 F6000.000
G1 F3000
G1 X598.950 Y94.191 E88.03370
G1 X599.316 Y94.557 E88.05603
G1 X609.722 Y84.152 E88.69010
G1 X610.088 Y84.518 E88.71243
G1 X599.682 Y94.924 E89.34650
G1 X600.049 Y95.290 E89.36882
G1 X610.455 Y84.884 E90.00289
G1 X610.821 Y85.251 E90.02522
G1 X600.415 Y95.657 E90.65929
G1 X600.782 Y96.023 E90.68161
G1 X611.187 Y85.617 E91.31568
G1 X611.554 Y85.984 E91.33801
G1 X601.148 Y96.389 E91.97208
G1 X601.514 Y96.756 E91.99440
G1 X611.920 Y86.350 E92.62847
G1 X612.287 Y86.716 E92.65080
G1 X601.881 Y97.122 E93.28487
G1 X602.247 Y97.489 E93.30719
G1 X612.653 Y87.083 E93.94126
G1 X613.020 Y87.449 E93.96359
G1 X602.614 Y97.855 E94.59766
G1 X602.980 Y98.221 E94.61999
G1 X613.386 Y87.816 E95.25406
G1 X613.752 Y88.182 E95.27638
G1 X603.346 Y98.588 E95.91045
G1 X603.713 Y98.954 E95.93278
G1 X614.119 Y88.548 E96.56685
G1 X614.485 Y88.915 E96.58917
G1 X604.079 Y99.321 E97.22324
G1 X604.446 Y99.687 E97.24557
G1 X614.852 Y89.281 E97.87964
G1 X615.218 Y89.648 E97.90197
G1 X604.812 Y100.054 E98.53604
G1 X605.179 Y100.420 E98.55836
G1 X615.584 Y90.014 E99.19243
G1 X615.951 Y90.381 E99.21476
G1 X605.545 Y100.786 E99.84883
G1 X605.911 Y101.153 E99.87115
G1 X616.317 Y90.747 E100.50522
G1 X616.684 Y91.113 E100.52755
G1 X606.278 Y101.519 E101.16162
G1 X606.644 Y101.886 E101.18395
G1 X617.050 Y91.480 E101.81802
G1 X617.416 Y91.846 E101.84034
G1 X607.011 Y102.252 E102.47441
G1 X607.377 Y102.618 E102.49674
G1 X617.783 Y92.213 E103.13081
G1 X618.149 Y92.579 E103.15314
G1 X607.743 Y102.985 E103.78721
G1 X608.110 Y103.351 E103.80953
G1 X618.516 Y92.945 E104.44360
G1 X618.882 Y93.312 E104.46593
G1 X608.476 Y103.718 E105.10000
G1 X608.843 Y104.084 E105.12233
G1 X619.248 Y93.678 E105.75640
G1 X619.615 Y94.045 E105.77872
G1 X609.209 Y104.450 E106.41279
M106 S242.25
G1 U0.920 V0.920 Z0.920 F6000.000
G1 X620.273 Y94.118 F6000.000
G1 F3000
G1 X609.282 Y105.109 E107.08109
G1 X598.291 Y94.118 E107.74938
G1 X609.282 Y83.127 E108.41767
G1 X620.231 Y94.075 E109.08338
G1 X621.004 Y94.118 F6000.000
G1 F3000
G1 X609.282 Y105.840 E109.79614
G1 X597.560 Y94.118 E110.50889
G1 X609.282 Y82.396 E111.22165
G1 X620.962 Y94.075 E111.93183
G1 X621.736 Y94.118 F6000.000
G1 F3000
G1 X609.282 Y106.571 E112.68905
G1 X596.829 Y94.118 E113.44627
G1 X609.282 Y81.664 E114.20349
G1 X621.693 Y94.075 E114.95813
G1 X622.467 Y94.118 F6000.000
G1 F3000
G1 X609.282 Y107.302 E115.75981
G1 X596.098 Y94.118 E116.56149
G1 X609.282 Y80.933 E117.36318
G1 X622.424 Y94.075 E118.16228
G1 X623.113 Y94.118 F6000.000
G1 F2400
G1 X609.282 Y107.949 E118.80810
G1 X595.451 Y94.118 E119.45392
G1 X609.282 Y80.287 E120.09974
G1 X623.071 Y94.075 E120.74357
G1 X622.727 Y94.221 F6000.000
G1 X618.811 Y95.028 F6000.000
G1 F3000
G1 X608.372 Y84.589 E121.30470
G1 X606.217 Y86.743 E121.42051
G1 X616.657 Y97.183 E121.98164
G1 X614.502 Y99.338 E122.09746
G1 X604.062 Y88.898 E122.65858
G1 X601.908 Y91.053 E122.77440
G1 X612.347 Y101.492 E123.33552
G1 X610.193 Y103.647 E123.45134
G1 X599.753 Y93.207 E124.01246
G1 U1.120 V1.120 Z1.120 F6000.000
G1 X620.273 Y94.118 F6000.000
G1 F3000
G1 X609.282 Y105.109 E124.68075
G1 X598.291 Y94.118 E125.34905
G1 X609.282 Y83.127 E126.01734
G1 X620.231 Y94.075 E126.68305
G1 X621.004 Y94.118 F6000.000
G1 F3000
G1 X609.282 Y105.840 E127.39581
G1 X597.560 Y94.118 E128.10856
G1 X609.282 Y82.396 E128.82132
G1 X620.962 Y94.075 E129.53150
G1 X621.736 Y94.118 F6000.000
G1 F3000
G1 X609.282 Y106.571 E130.28872
G1 X596.829 Y94.118 E131.04594
G1 X609.282 Y81.664 E131.80315
G1 X621.693 Y94.075 E132.55780
G1 X622.467 Y94.118 F6000.000
G1 F3000
G1 X609.282 Y107.302 E133.35948
G1 X596.098 Y94.118 E134.16116
G1 X609.282 Y80.933 E134.96285
G1 X622.424 Y94.075 E135.76195
G1 X623.113 Y94.118 F6000.000
G1 F2400
G1 X609.282 Y107.949 E136.40777
G1 X595.451 Y94.118 E137.05359
G1 X609.282 Y80.287 E137.69941
G1 X623.071 Y94.075 E138.34324
G1 X622.727 Y94.221 F6000.000
G1 X610.193 Y84.589 F6000.000
G1 F3000
G1 X599.753 Y95.028 E138.90437
G1 X601.908 Y97.183 E139.02018
G1 X612.347 Y86.743 E139.58131
G1 X614.502 Y88.898 E139.69712
G1 X604.062 Y99.338 E140.25825
G1 X606.217 Y101.492 E140.37406
G1 X616.657 Y91.053 E140.93519
G1 X618.811 Y93.207 E141.05100
G1 X608.372 Y103.647 E141.61213
G1 U1.320 V1.320 Z1.320 F6000.000
G1 X620.273 Y94.118 F6000.000
G1 F3000
G1 X609.282 Y105.109 E142.28042
G1 X598.291 Y94.118 E142.94872
G1 X609.282 Y83.127 E143.61701
G1 X620.231 Y94.075 E144.28272
G1 X621.004 Y94.118 F6000.000
G1 F3000
G1 X609.282 Y105.840 E144.99548
G1 X597.560 Y94.118 E145.70823
G1 X609.282 Y82.396 E146.42099
G1 X620.962 Y94.075 E147.13116
G1 X621.736 Y94.118 F6000.000
G1 F3000
G1 X609.282 Y106.571 E147.88839
G1 X596.829 Y94.118 E148.64561
G1 X609.282 Y81.664 E149.40282
G1 X621.693 Y94.075 E150.15747
G1 X622.467 Y94.118 F6000.000
G1 F3000
G1 X609.282 Y107.302 E150.95915
G1 X596.098 Y94.118 E151.76083
G1 X609.282 Y80.933 E152.56252
G1 X622.424 Y94.075 E153.36162
G1 X623.113 Y94.118 F6000.000
G1 F2400
G1 X609.282 Y107.949 E154.00744
G1 X595.451 Y94.118 E154.65326
G1 X609.282 Y80.287 E155.29908
G1 X623.071 Y94.075 E155.94291
G1 X622.727 Y94.221 F6000.000
G1 X618.811 Y95.028 F6000.000
G1 F3000
G1 X608.372 Y84.589 E156.50404
G1 X606.217 Y86.743 E156.61985
G1 X616.657 Y97.183 E157.18098
G1 X614.502 Y99.338 E157.29679
G1 X604.062 Y88.898 E157.85792
G1 X601.908 Y91.053 E157.97373
G1 X612.347 Y101.492 E158.53486
G1 X610.193 Y103.647 E158.65067
G1 X599.753 Y93.207 E159.21180
G1 U1.520 V1.520 Z1.520 F6000.000
G1 X620.273 Y94.118 F6000.000
G1 F3000
G1 X609.282 Y105.109 E159.88009
G1 X598.291 Y94.118 E160.54839
G1 X609.282 Y83.127 E161.21668
G1 X620.231 Y94.075 E161.88239
G1 X621.004 Y94.118 F6000.000
G1 F3000
G1 X609.282 Y105.840 E162.59515
G1 X597.560 Y94.118 E163.30790
G1 X609.282 Y82.396 E164.02066
G1 X620.962 Y94.075 E164.73083
G1 X621.736 Y94.118 F6000.000
G1 F3000
G1 X609.282 Y106.571 E165.48806
G1 X596.829 Y94.118 E166.24528
G1 X609.282 Y81.664 E167.00249
G1 X621.693 Y94.075 E167.75714
G1 X622.467 Y94.118 F6000.000
G1 F3000
G1 X609.282 Y107.302 E168.55882
G1 X596.098 Y94.118 E169.36050
G1 X609.282 Y80.933 E170.16219
G1 X622.424 Y94.075 E170.96129
G1 X623.113 Y94.118 F6000.000
G1 F2400
G1 X609.282 Y107.949 E171.60711
G1 X595.451 Y94.118 E172.25293
G1 X609.282 Y80.287 E172.89875
G1 X623.071 Y94.075 E173.54258
G1 X622.727 Y94.221 F6000.000
G1 X610.193 Y84.589 F6000.000
G1 F3000
G1 X599.753 Y95.028 E174.10371
G1 X601.908 Y97.183 E174.21952
G1 X612.347 Y86.743 E174.78065
G1 X614.502 Y88.898 E174.89646
G1 X604.062 Y99.338 E175.45759
G1 X606.217 Y101.492 E175.57340
G1 X616.657 Y91.053 E176.13453
G1 X618.811 Y93.207 E176.25034
G1 X608.372 Y103.647 E176.81147
G1 U1.720 V1.720 Z1.720 F6000.000
G1 X620.273 Y94.118 F6000.000
G1 F3000
G1 X609.282 Y105.109 E177.47976
G1 X598.291 Y94.118 E178.14806
G1 X609.282 Y83.127 E178.81635
G1 X620.231 Y94.075 E179.48206
G1 X621.004 Y94.118 F6000.000
G1 F3000
G1 X609.282 Y105.840 E180.19482
G1 X597.560 Y94.118 E180.90757
G1 X609.282 Y82.396 E181.62033
G1 X620.962 Y94.075 E182.33051
G1 X621.736 Y94.118 F6000.000
G1 F3000
G1 X609.282 Y106.571 E183.08773
G1 X596.829 Y94.118 E183.84495
