; generated by Slic3r 1.3.0-dev on 2018-06-22 at 16:41:17

; external perimeters extrusion width = 0.69mm (7.51mm^3/s)
; perimeters extrusion width = 0.60mm (8.03mm^3/s)
; infill extrusion width = 0.30mm (3.53mm^3/s)
; solid infill extrusion width = 0.30mm (2.83mm^3/s)
; top infill extrusion width = 0.30mm (2.26mm^3/s)

M107
G28 ; home all axes
G32; probe home individual Z axis
G29 S1; load bed mesh
M109 S205 ; set temperature and wait for it to be reached
M117 Purge extruder
G92 E0 ; reset extruder
G1 X400
G1 Z1.0 F3000.0 ; move z up little to prevent scratching of surface
G1 X400 Y20 Z0.3 F5000.0 ; move to start-line position
G1 X400 Y200.0 Z0.3 F1500.0 E15 ; draw 1st line
G1 X400.5 Y200.0 Z0.3 F5000.0 ; move to side a little
G1 X400.5 Y20 Z0.3 F1500.0 E30 ; draw 2nd line
; G1 E27 F3000 ; retract filament 3mm
G92 E0 ; reset extruder
; done purging extruder
G1 Z1.0 F3000 ; move z up little to prevent scratching of surface
M117 Printing!

; Filament gcode

G21 ; set units to millimeters
G90 ; use absolute coordinates
M82 ; use absolute distances for extrusion
G92 E0
G1 Z0.270 F6000.000
G1 E-2.00000 F2400.00000
G92 E0
G1 X268.866 Y181.344 F6000.000
G1 E2.00000 F2400.00000
G1 F960
G1 X269.127 Y181.015 E2.02149
G1 X269.415 Y180.732 E2.04217
G1 X269.699 Y180.511 E2.06055
G1 X270.097 Y180.280 E2.08409
G1 X328.307 Y150.035 E5.43929
G1 X329.380 Y149.587 E5.49879
G1 X330.646 Y149.217 E5.56626
G1 X331.694 Y149.034 E5.62065
G1 X332.410 Y148.975 E5.65739
G1 X333.268 Y148.968 E5.70130
G1 X334.553 Y149.094 E5.76735
G1 X335.415 Y149.271 E5.81237
G1 X335.861 Y149.391 E5.83599
G1 X337.026 Y149.811 E5.89931
G1 X338.025 Y150.290 E5.95597
G1 X338.842 Y150.772 E6.00450
G1 X339.558 Y151.269 E6.04909
G1 X340.565 Y152.089 E6.11550
G1 X341.547 Y153.066 E6.18634
G1 X342.269 Y153.908 E6.24308
G1 X342.512 Y154.226 E6.26356
G1 X343.156 Y155.111 E6.31954
G1 X343.844 Y156.206 E6.38567
G1 X344.531 Y157.479 E6.45967
G1 X345.142 Y158.812 E6.53467
G1 X345.713 Y160.306 E6.61646
G1 X346.206 Y161.893 E6.70145
G1 X346.604 Y163.519 E6.78711
G1 X346.925 Y165.289 E6.87909
G1 X347.119 Y166.878 E6.96097
G1 X347.234 Y168.607 E7.04958
G1 X347.254 Y169.423 E7.09134
G1 X347.226 Y171.157 E7.18007
G1 X347.089 Y172.993 E7.27423
G1 X346.843 Y174.807 E7.36783
G1 X346.458 Y176.715 E7.46740
G1 X345.991 Y178.438 E7.55872
G1 X345.683 Y179.375 E7.60918
G1 X345.129 Y180.822 E7.68841
G1 X344.377 Y182.448 E7.78003
G1 X343.587 Y183.870 E7.86326
G1 X342.803 Y185.071 E7.93661
G1 X342.172 Y185.917 E7.99060
G1 X341.175 Y187.065 E8.06837
G1 X340.209 Y187.998 E8.13703
G1 X339.201 Y188.809 E8.20322
G1 X338.333 Y189.388 E8.25661
G1 X337.506 Y189.847 E8.30498
G1 X336.473 Y190.303 E8.36274
G1 X335.955 Y190.485 E8.39080
G1 X335.133 Y190.713 E8.43444
G1 X334.092 Y190.898 E8.48853
G1 X332.983 Y190.971 E8.54537
G1 X283.444 Y192.590 E11.08053
G1 X281.690 Y192.498 E11.17037
G1 X280.110 Y192.242 E11.25221
G1 X278.690 Y191.869 E11.32735
G1 X278.064 Y191.654 E11.36117
G1 X277.111 Y191.292 E11.41334
G1 X276.537 Y191.033 E11.44555
G1 X275.454 Y190.496 E11.50739
G1 X273.934 Y189.586 E11.59799
G1 X272.431 Y188.508 E11.69262
G1 X271.074 Y187.399 E11.78224
G1 X269.672 Y186.090 E11.88034
G1 X269.241 Y185.637 E11.91231
G1 X268.963 Y185.296 E11.93482
G1 X268.775 Y185.001 E11.95270
G1 X268.638 Y184.739 E11.96784
G1 X268.504 Y184.424 E11.98535
G1 X268.392 Y184.046 E12.00549
G1 X268.331 Y183.732 E12.02187
G1 X268.295 Y183.384 E12.03977
G1 X268.312 Y182.849 E12.06713
G1 X268.377 Y182.472 E12.08669
G1 X268.476 Y182.124 E12.10519
G1 X268.605 Y181.802 E12.12296
G1 X268.818 Y181.420 E12.14530
G1 X269.264 Y181.616 F6000.000
G1 F960
G1 X269.494 Y181.327 E12.16417
G1 X269.720 Y181.106 E12.18034
G1 X269.976 Y180.905 E12.19701
G1 X270.319 Y180.708 E12.21725
G1 X328.529 Y150.463 E15.57245
G1 X329.563 Y150.033 E15.62971
G1 X330.574 Y149.729 E15.68371
G1 X331.739 Y149.514 E15.74431
G1 X332.413 Y149.457 E15.77893
G1 X333.272 Y149.450 E15.82285
G1 X334.298 Y149.542 E15.87555
G1 X335.317 Y149.743 E15.92870
G1 X335.827 Y149.886 E15.95578
G1 X336.686 Y150.191 E16.00240
G1 X337.659 Y150.641 E16.05721
G1 X338.595 Y151.186 E16.11261
G1 X339.441 Y151.783 E16.16558
G1 X340.387 Y152.582 E16.22890
G1 X341.183 Y153.382 E16.28664
G1 X341.903 Y154.221 E16.34320
G1 X342.690 Y155.283 E16.41080
G1 X343.435 Y156.462 E16.48211
G1 X344.147 Y157.788 E16.55911
G1 X344.737 Y159.094 E16.63243
G1 X345.291 Y160.562 E16.71264
G1 X345.769 Y162.118 E16.79591
G1 X346.136 Y163.631 E16.87555
G1 X346.360 Y164.852 E16.93903
G1 X346.446 Y165.348 E16.96477
G1 X346.640 Y166.935 E17.04654
G1 X346.753 Y168.636 E17.13376
G1 X346.769 Y169.245 E17.16490
G1 X346.744 Y171.148 E17.26226
G1 X346.609 Y172.955 E17.35494
G1 X346.350 Y174.831 E17.45182
G1 X345.993 Y176.589 E17.54357
G1 X345.554 Y178.215 E17.62968
G1 X345.233 Y179.203 E17.68282
G1 X344.679 Y180.649 E17.76203
G1 X344.005 Y182.117 E17.84466
G1 X343.244 Y183.506 E17.92564
G1 X342.339 Y184.893 E18.01038
G1 X341.720 Y185.709 E18.06275
G1 X340.928 Y186.625 E18.12471
G1 X339.905 Y187.624 E18.19783
G1 X338.930 Y188.410 E18.26186
G1 X338.099 Y188.967 E18.31306
G1 X337.272 Y189.426 E18.36143
G1 X336.282 Y189.860 E18.41671
G1 X335.826 Y190.021 E18.44143
G1 X335.004 Y190.249 E18.48506
G1 X334.013 Y190.422 E18.53654
G1 X332.967 Y190.489 E18.59014
G1 X283.428 Y192.108 E21.12530
G1 X281.761 Y192.021 E21.21068
G1 X280.228 Y191.775 E21.29012
G1 X278.816 Y191.404 E21.36481
G1 X277.283 Y190.841 E21.44833
G1 X276.750 Y190.601 E21.47822
G1 X275.690 Y190.075 E21.53874
G1 X274.202 Y189.185 E21.62744
G1 X272.726 Y188.127 E21.72029
G1 X271.428 Y187.067 E21.80603
G1 X269.743 Y185.478 E21.92448
G1 X269.432 Y185.115 E21.94892
G1 X269.302 Y184.935 E21.96028
G1 X269.136 Y184.662 E21.97661
G1 X268.992 Y184.346 E21.99437
G1 X268.857 Y183.919 E22.01729
G1 X268.809 Y183.676 E22.02998
G1 X268.776 Y183.358 E22.04633
G1 X268.789 Y182.920 E22.06873
G1 X268.850 Y182.566 E22.08709
G1 X268.927 Y182.294 E22.10154
G1 X269.043 Y182.002 E22.11765
G1 X269.216 Y181.692 E22.13578
G1 X269.662 Y181.888 F6000.000
G1 F960
G1 X269.861 Y181.640 E22.15204
G1 X270.024 Y181.480 E22.16370
G1 X270.254 Y181.299 E22.17866
G1 X270.541 Y181.136 E22.19558
G1 X328.751 Y150.891 E25.55078
G1 X329.745 Y150.479 E25.60582
G1 X330.709 Y150.192 E25.65725
G1 X331.784 Y149.994 E25.71315
G1 X332.417 Y149.939 E25.74566
G1 X333.275 Y149.932 E25.78957
G1 X334.250 Y150.022 E25.83965
G1 X335.220 Y150.215 E25.89020
G1 X335.667 Y150.340 E25.91394
G1 X336.523 Y150.645 E25.96044
G1 X337.452 Y151.076 E26.01281
G1 X338.348 Y151.600 E26.06589
G1 X339.133 Y152.154 E26.11505
G1 X340.049 Y152.926 E26.17630
G1 X340.819 Y153.698 E26.23212
G1 X341.537 Y154.535 E26.28849
G1 X342.342 Y155.628 E26.35794
G1 X343.027 Y156.717 E26.42372
G1 X343.708 Y157.989 E26.49754
G1 X344.287 Y159.267 E26.56927
G1 X344.831 Y160.705 E26.64791
G1 X345.300 Y162.232 E26.72965
G1 X345.667 Y163.743 E26.80916
G1 X345.886 Y164.938 E26.87131
G1 X345.968 Y165.407 E26.89563
G1 X346.161 Y166.992 E26.97730
G1 X346.272 Y168.666 E27.06312
G1 X346.288 Y169.257 E27.09337
G1 X346.262 Y171.139 E27.18962
G1 X346.128 Y172.917 E27.28084
G1 X345.878 Y174.736 E27.37477
G1 X345.527 Y176.464 E27.46492
G1 X345.089 Y178.088 E27.55099
G1 X344.782 Y179.030 E27.60166
G1 X344.201 Y180.542 E27.68449
G1 X343.567 Y181.915 E27.76183
G1 X342.822 Y183.273 E27.84108
G1 X341.954 Y184.603 E27.92231
G1 X341.356 Y185.394 E27.97301
G1 X340.563 Y186.310 E28.03498
G1 X339.600 Y187.250 E28.10382
G1 X338.736 Y187.954 E28.16083
G1 X337.864 Y188.545 E28.21469
G1 X337.038 Y189.004 E28.26306
G1 X336.092 Y189.418 E28.31586
G1 X335.698 Y189.556 E28.33724
G1 X334.875 Y189.784 E28.38087
G1 X333.934 Y189.947 E28.42974
G1 X332.951 Y190.007 E28.48009
G1 X283.413 Y191.626 E31.01525
G1 X281.833 Y191.544 E31.09617
G1 X280.436 Y191.326 E31.16846
G1 X279.786 Y191.167 E31.20269
G1 X278.864 Y190.914 E31.25161
G1 X277.390 Y190.364 E31.33205
G1 X275.976 Y189.682 E31.41235
G1 X275.596 Y189.469 E31.43463
G1 X274.292 Y188.665 E31.51299
G1 X272.984 Y187.716 E31.59566
G1 X271.591 Y186.571 E31.68790
G1 X270.333 Y185.388 E31.77623
G1 X270.105 Y185.159 E31.79274
G1 X269.802 Y184.805 E31.81656
G1 X269.594 Y184.492 E31.83578
G1 X269.409 Y184.091 E31.85837
G1 X269.322 Y183.792 E31.87431
G1 X269.264 Y183.418 E31.89367
G1 X269.257 Y183.233 E31.90314
G1 X269.271 Y182.946 E31.91782
G1 X269.346 Y182.566 E31.93764
G1 X269.471 Y182.227 E31.95613
G1 X269.615 Y181.964 E31.97146
G1 E29.97146 F2400.00000
G92 E0
G1 X340.402 Y181.867 F6000.000
G1 E2.00000 F2400.00000
G1 F1200
G1 X339.685 Y182.966 E2.06710
G1 X339.202 Y183.607 E2.10815
G1 X338.494 Y184.425 E2.16347
G1 X337.773 Y185.130 E2.21506
G1 X337.027 Y185.737 E2.26427
G1 X336.439 Y186.136 E2.30060
G1 X335.755 Y186.516 E2.34065
G1 X335.039 Y186.824 E2.38048
G1 X334.215 Y187.064 E2.42437
G1 X333.568 Y187.171 E2.45792
G1 X332.891 Y187.209 E2.49258
G1 X332.637 Y187.202 E2.50561
G1 X331.826 Y187.106 E2.54735
G1 X331.182 Y186.951 E2.58123
G1 X330.533 Y186.722 E2.61647
G1 X329.869 Y186.410 E2.65398
G1 X329.654 Y186.291 E2.66655
G1 X328.828 Y185.753 E2.71697
G1 X328.168 Y185.226 E2.76016
G1 X327.519 Y184.613 E2.80582
G1 X326.937 Y183.978 E2.84989
G1 X326.259 Y183.120 E2.90581
G1 X325.627 Y182.188 E2.96338
G1 X325.068 Y181.231 E3.02011
G1 X324.374 Y179.831 E3.10001
G1 X323.853 Y178.557 E3.17042
G1 X323.406 Y177.226 E3.24224
G1 X323.035 Y175.846 E3.31532
G1 X322.739 Y174.413 E3.39019
G1 X322.589 Y173.461 E3.43945
G1 X322.418 Y171.867 E3.52146
G1 X322.343 Y170.269 E3.60327
G1 X322.362 Y168.663 E3.68541
G1 X322.477 Y167.054 E3.76792
G1 X322.692 Y165.441 E3.85116
G1 X322.918 Y164.256 E3.91289
G1 X323.284 Y162.783 E3.99051
G1 X323.729 Y161.381 E4.06573
G1 X324.252 Y160.053 E4.13877
G1 X324.852 Y158.799 E4.20983
G1 X325.443 Y157.761 E4.27094
G1 X326.093 Y156.791 E4.33067
G1 X326.783 Y155.919 E4.38752
G1 X327.524 Y155.129 E4.44294
G1 X327.831 Y154.844 E4.46434
G1 X328.544 Y154.269 E4.51120
G1 X329.257 Y153.794 E4.55504
G1 X329.982 Y153.406 E4.59708
G1 X330.722 Y153.103 E4.63801
G1 X331.407 Y152.903 E4.67451
G1 X332.119 Y152.773 E4.71149
G1 X332.512 Y152.736 E4.73169
G1 X333.207 Y152.731 E4.76722
G1 X333.886 Y152.798 E4.80212
G1 X334.786 Y152.997 E4.84931
G1 X335.503 Y153.252 E4.88821
G1 X336.184 Y153.572 E4.92669
G1 X336.861 Y153.972 E4.96692
G1 X337.395 Y154.348 E5.00031
G1 X338.131 Y154.965 E5.04942
G1 X338.744 Y155.576 E5.09370
G1 X339.371 Y156.308 E5.14299
G1 X340.009 Y157.175 E5.19808
G1 X340.625 Y158.154 E5.25721
G1 X341.187 Y159.204 E5.31814
G1 X341.691 Y160.312 E5.38037
G1 X342.174 Y161.584 E5.44999
G1 X342.594 Y162.945 E5.52283
G1 X342.935 Y164.350 E5.59678
G1 X343.196 Y165.796 E5.67194
G1 X343.377 Y167.279 E5.74836
G1 X343.477 Y168.810 E5.82685
G1 X343.489 Y169.295 E5.85166
G1 X343.465 Y171.041 E5.94095
G1 X343.342 Y172.650 E6.02347
G1 X343.124 Y174.236 E6.10538
G1 X342.811 Y175.789 E6.18641
G1 X342.399 Y177.316 E6.26728
G1 X342.153 Y178.071 E6.30792
G1 X341.637 Y179.421 E6.38184
G1 X341.052 Y180.686 E6.45313
G1 X340.445 Y181.788 E6.51749
G1 X340.806 Y182.131 F6000.000
G1 F1200
G1 X340.079 Y183.243 E6.58541
G1 X339.577 Y183.910 E6.62813
G1 X338.845 Y184.755 E6.68532
G1 X338.094 Y185.490 E6.73905
G1 X337.315 Y186.124 E6.79045
G1 X336.692 Y186.547 E6.82896
G1 X335.967 Y186.949 E6.87135
G1 X335.215 Y187.273 E6.91327
G1 X334.319 Y187.535 E6.96097
G1 X333.621 Y187.651 E6.99718
G1 X332.898 Y187.691 E7.03420
G1 X332.602 Y187.683 E7.04936
G1 X331.741 Y187.581 E7.09369
G1 X331.046 Y187.414 E7.13029
G1 X330.350 Y187.168 E7.16804
G1 X329.648 Y186.840 E7.20765
G1 X329.405 Y186.704 E7.22192
G1 X328.545 Y186.144 E7.27438
G1 X327.852 Y185.590 E7.31978
G1 X327.175 Y184.952 E7.36736
G1 X326.570 Y184.290 E7.41322
G1 X325.870 Y183.405 E7.47093
G1 X325.219 Y182.446 E7.53023
G1 X324.643 Y181.460 E7.58863
G1 X323.934 Y180.030 E7.67027
G1 X323.401 Y178.725 E7.74236
G1 X322.944 Y177.365 E7.81572
G1 X322.566 Y175.958 E7.89028
G1 X322.264 Y174.499 E7.96647
G1 X322.111 Y173.524 E8.01693
G1 X321.937 Y171.904 E8.10028
G1 X321.860 Y170.278 E8.18355
G1 X321.880 Y168.643 E8.26716
G1 X321.997 Y167.005 E8.35116
G1 X322.216 Y165.364 E8.43584
G1 X322.447 Y164.152 E8.49894
G1 X322.820 Y162.651 E8.57804
G1 X323.275 Y161.220 E8.65487
G1 X323.810 Y159.860 E8.72961
G1 X324.424 Y158.576 E8.80244
G1 X325.033 Y157.507 E8.86533
G1 X325.704 Y156.507 E8.92693
G1 X326.418 Y155.604 E8.98579
G1 X327.184 Y154.787 E9.04309
G1 X327.515 Y154.480 E9.06620
G1 X328.258 Y153.880 E9.11504
G1 X329.009 Y153.380 E9.16119
G1 X329.776 Y152.969 E9.20570
G1 X330.563 Y152.647 E9.24918
G1 X331.296 Y152.433 E9.28826
G1 X332.053 Y152.295 E9.32759
G1 X332.487 Y152.255 E9.34991
G1 X333.228 Y152.249 E9.38780
G1 X333.958 Y152.321 E9.42531
G1 X334.932 Y152.537 E9.47636
G1 X335.687 Y152.806 E9.51732
G1 X336.409 Y153.146 E9.55816
G1 X337.123 Y153.567 E9.60053
G1 X337.689 Y153.966 E9.63596
G1 X338.456 Y154.609 E9.68718
G1 X339.097 Y155.248 E9.73348
G1 X339.749 Y156.008 E9.78465
G1 X340.408 Y156.904 E9.84155
G1 X341.042 Y157.912 E9.90245
G1 X341.619 Y158.989 E9.96499
G1 X342.136 Y160.127 E10.02889
G1 X342.630 Y161.427 E10.10005
G1 X343.059 Y162.817 E10.17443
G1 X343.406 Y164.250 E10.24986
G1 X343.673 Y165.724 E10.32646
G1 X343.858 Y167.234 E10.40428
G1 X343.958 Y168.789 E10.48395
G1 X343.971 Y169.292 E10.50973
G1 X343.947 Y171.062 E10.60028
G1 X343.822 Y172.701 E10.68432
G1 X343.599 Y174.316 E10.76774
G1 X343.280 Y175.899 E10.85033
G1 X342.861 Y177.453 E10.93263
G1 X342.608 Y178.232 E10.97453
G1 X342.081 Y179.608 E11.04991
G1 X341.483 Y180.904 E11.12290
G1 X340.850 Y182.053 E11.18998
G1 X341.209 Y182.394 F6000.000
G1 F1200
G1 X340.474 Y183.520 E11.25873
G1 X339.952 Y184.213 E11.30311
G1 X339.197 Y185.086 E11.36216
G1 X338.415 Y185.850 E11.41804
G1 X337.603 Y186.511 E11.47164
G1 X336.945 Y186.958 E11.51233
G1 X336.180 Y187.383 E11.55705
G1 X335.390 Y187.723 E11.60105
G1 X334.424 Y188.006 E11.65257
G1 X333.674 Y188.131 E11.69144
G1 X332.905 Y188.173 E11.73081
G1 X332.567 Y188.164 E11.74811
G1 X331.657 Y188.056 E11.79502
G1 X330.909 Y187.877 E11.83436
G1 X330.167 Y187.615 E11.87460
G1 X329.428 Y187.269 E11.91631
G1 X329.156 Y187.116 E11.93229
G1 X328.262 Y186.536 E11.98678
G1 X327.535 Y185.954 E12.03440
G1 X326.831 Y185.290 E12.08389
G1 X326.202 Y184.603 E12.13155
G1 X325.481 Y183.690 E12.19105
G1 X324.811 Y182.703 E12.25207
G1 X324.219 Y181.689 E12.31215
G1 X323.495 Y180.228 E12.39553
G1 X322.949 Y178.893 E12.46930
G1 X322.483 Y177.505 E12.54420
G1 X322.096 Y176.069 E12.62025
G1 X321.790 Y174.585 E12.69776
G1 X321.633 Y173.587 E12.74941
G1 X321.457 Y171.941 E12.83410
G1 X321.378 Y170.286 E12.91884
G1 X321.398 Y168.623 E13.00391
G1 X321.517 Y166.956 E13.08939
G1 X321.740 Y165.287 E13.17551
G1 X321.976 Y164.049 E13.23998
G1 X322.356 Y162.520 E13.32056
G1 X322.820 Y161.058 E13.39901
G1 X323.368 Y159.668 E13.47545
G1 X323.997 Y158.352 E13.55005
G1 X324.623 Y157.253 E13.61472
G1 X325.314 Y156.223 E13.67819
G1 X326.052 Y155.289 E13.73905
G1 X326.844 Y154.445 E13.79825
G1 X327.199 Y154.115 E13.82306
G1 X327.973 Y153.491 E13.87388
G1 X328.761 Y152.966 E13.92235
G1 X329.571 Y152.532 E13.96932
G1 X330.404 Y152.191 E14.01535
G1 X331.185 Y151.963 E14.05700
G1 X331.987 Y151.817 E14.09869
G1 X332.463 Y151.773 E14.12314
G1 X333.250 Y151.767 E14.16338
G1 X334.031 Y151.843 E14.20350
G1 X334.823 Y152.006 E14.24487
G1 X335.078 Y152.078 E14.25843
G1 X335.871 Y152.359 E14.30145
G1 X336.635 Y152.719 E14.34466
G1 X337.385 Y153.161 E14.38918
G1 X337.983 Y153.583 E14.42663
G1 X338.782 Y154.253 E14.47995
G1 X339.451 Y154.920 E14.52828
G1 X340.126 Y155.707 E14.58132
G1 X340.807 Y156.632 E14.64005
G1 X341.459 Y157.669 E14.70271
G1 X342.051 Y158.775 E14.76687
G1 X342.582 Y159.942 E14.83243
G1 X343.086 Y161.271 E14.90512
G1 X343.524 Y162.689 E14.98104
G1 X343.878 Y164.150 E15.05796
G1 X344.150 Y165.652 E15.13599
G1 X344.338 Y167.189 E15.21523
G1 X344.440 Y168.767 E15.29608
G1 X344.454 Y169.289 E15.32283
G1 X344.429 Y171.084 E15.41463
G1 X344.301 Y172.752 E15.50019
G1 X344.075 Y174.397 E15.58512
G1 X343.750 Y176.010 E15.66927
G1 X343.324 Y177.590 E15.75300
G1 X343.063 Y178.393 E15.79616
G1 X342.526 Y179.796 E15.87300
