; generated by Slic3r 1.3.0-dev on 2018-06-28 at 15:16:59

; external perimeters extrusion width = 0.69mm (7.51mm^3/s)
; perimeters extrusion width = 0.60mm (8.03mm^3/s)
; infill extrusion width = 0.30mm (3.53mm^3/s)
; solid infill extrusion width = 0.30mm (2.83mm^3/s)
; top infill extrusion width = 0.30mm (2.26mm^3/s)

M107
G28 ; home all axes
G32; probe home individual Z axis
G29 S1; load bed mesh
M109 S205 ; set temperature and wait for it to be reached
M117 Purge extruder
G92 E0 ; reset extruder
G1 X400
G1 Z1.0 F3000.0 ; move z up little to prevent scratching of surface
G1 X400 Y20 Z0.3 F5000.0 ; move to start-line position
G1 X400 Y200.0 Z0.3 F1500.0 E15 ; draw 1st line
G1 X400.5 Y200.0 Z0.3 F5000.0 ; move to side a little
G1 X400.5 Y20 Z0.3 F1500.0 E30 ; draw 2nd line
; G1 E27 F3000 ; retract filament 3mm
G92 E0 ; reset extruder
; done purging extruder
G1 Z1.0 F3000 ; move z up little to prevent scratching of surface
M117 Printing!

; Filament gcode

G21 ; set units to millimeters
G90 ; use absolute coordinates
M82 ; use absolute distances for extrusion
G92 E0
M584 U3 Z2 V4; Actuate motors independently
G92 U10.000 V10.000 Z10.000
G1 U0.270 V0.270 Z0.270 F6000.000
G1 E-2.00000 F2400.00000
G92 E0
G1 X442.798 Y235.972 F6000.000
G1 E2.00000 F2400.00000
G1 F960
G1 X443.177 Y235.413 E2.03449
G1 X443.334 Y235.232 E2.04677
G1 X443.880 Y234.748 E2.08408
G1 X444.142 Y234.576 E2.10009
G1 X444.819 Y234.266 E2.13819
G1 X444.972 Y234.220 E2.14634
G1 X445.179 Y234.164 E2.15731
G1 X445.767 Y234.084 E2.18766
G1 X474.184 Y233.217 E3.64183
G1 X474.829 Y233.271 E3.67493
G1 X475.045 Y233.315 E3.68621
G1 X475.841 Y233.607 E3.72956
G1 X476.034 Y233.714 E3.74087
G1 X476.676 Y234.198 E3.78197
G1 X476.841 Y234.365 E3.79397
G1 X477.147 Y234.726 E3.81817
G1 X477.418 Y235.148 E3.84388
G1 X477.614 Y235.574 E3.86784
G1 X477.703 Y235.820 E3.88123
G1 X477.821 Y236.248 E3.90391
G1 X477.876 Y236.530 E3.91863
G1 X477.939 Y237.213 E3.95370
G1 X477.920 Y237.871 E3.98737
G1 X475.773 Y264.673 E5.36263
G1 X475.509 Y267.023 E5.48356
G1 X475.088 Y269.244 E5.59922
G1 X474.505 Y271.397 E5.71331
G1 X473.761 Y273.459 E5.82541
G1 X472.862 Y275.408 E5.93518
G1 X471.809 Y277.221 E6.04244
G1 X470.799 Y278.639 E6.13146
G1 X470.608 Y278.879 E6.14715
G1 X469.502 Y280.119 E6.23216
G1 X469.263 Y280.357 E6.24939
G1 X468.074 Y281.405 E6.33048
G1 X467.781 Y281.631 E6.34939
G1 X466.523 Y282.474 E6.42684
G1 X466.173 Y282.675 E6.44749
G1 X464.862 Y283.303 E6.52187
G1 X464.457 Y283.460 E6.54405
G1 X463.109 Y283.866 E6.61607
G1 X462.662 Y283.962 E6.63945
G1 X461.293 Y284.140 E6.71009
G1 X460.825 Y284.162 E6.73404
G1 X459.451 Y284.111 E6.80438
G1 X458.989 Y284.055 E6.82816
G1 X457.627 Y283.775 E6.89929
G1 X457.196 Y283.650 E6.92221
G1 X455.862 Y283.144 E6.99519
G1 X455.481 Y282.966 E7.01671
G1 X454.192 Y282.241 E7.09236
G1 X453.867 Y282.027 E7.11225
G1 X452.638 Y281.091 E7.19128
G1 X452.370 Y280.858 E7.20942
G1 X451.216 Y279.723 E7.29222
G1 X451.000 Y279.483 E7.30875
G1 X449.935 Y278.162 E7.39555
G1 X449.762 Y277.923 E7.41060
G1 X448.664 Y276.199 E7.51520
G1 X447.814 Y274.556 E7.60979
G1 X446.983 Y272.554 E7.72063
G1 X446.311 Y270.449 E7.83368
G1 X445.799 Y268.263 E7.94851
G1 X445.439 Y265.926 E8.06945
G1 X442.258 Y238.885 E9.46209
G1 X442.232 Y238.171 E9.49864
G1 X442.249 Y237.853 E9.51488
G1 X442.322 Y237.308 E9.54302
G1 X442.426 Y236.869 E9.56609
G1 X442.515 Y236.597 E9.58076
G1 X442.757 Y236.052 E9.61127
G1 X443.227 Y236.192 F6000.000
G1 F960
G1 X443.540 Y235.730 E9.63984
G1 X443.698 Y235.548 E9.65212
G1 X444.150 Y235.148 E9.68303
G1 X444.390 Y234.990 E9.69772
G1 X444.960 Y234.727 E9.72982
G1 X445.113 Y234.681 E9.73797
G1 X445.294 Y234.632 E9.74758
G1 X445.781 Y234.566 E9.77273
G1 X474.199 Y233.698 E11.22690
G1 X474.733 Y233.744 E11.25432
G1 X474.949 Y233.788 E11.26560
G1 X475.608 Y234.030 E11.30151
G1 X475.802 Y234.136 E11.31282
G1 X476.333 Y234.537 E11.34687
G1 X476.689 Y234.921 E11.37364
G1 X476.947 Y235.295 E11.39686
G1 X477.161 Y235.738 E11.42206
G1 X477.348 Y236.339 E11.45421
G1 X477.402 Y236.621 E11.46894
G1 X477.458 Y237.240 E11.50073
G1 X477.435 Y237.893 E11.53411
G1 X475.293 Y264.635 E12.90628
G1 X475.035 Y266.935 E13.02466
G1 X474.622 Y269.120 E13.13842
G1 X474.106 Y271.057 E13.24093
G1 X473.400 Y273.068 E13.34997
G1 X472.541 Y274.978 E13.45707
G1 X471.542 Y276.746 E13.56094
G1 X470.407 Y278.359 E13.66184
G1 X469.142 Y279.798 E13.75982
G1 X468.944 Y279.995 E13.77410
G1 X467.755 Y281.043 E13.85518
G1 X467.512 Y281.231 E13.87086
G1 X466.255 Y282.074 E13.94831
G1 X465.965 Y282.240 E13.96541
G1 X464.653 Y282.869 E14.03978
G1 X464.318 Y282.998 E14.05816
G1 X462.970 Y283.404 E14.13019
G1 X462.600 Y283.484 E14.14956
G1 X461.230 Y283.662 E14.22020
G1 X460.843 Y283.680 E14.24004
G1 X459.469 Y283.629 E14.31037
G1 X459.086 Y283.583 E14.33008
G1 X457.724 Y283.303 E14.40120
G1 X457.367 Y283.199 E14.42019
G1 X456.033 Y282.693 E14.49317
G1 X455.718 Y282.546 E14.51100
G1 X454.429 Y281.820 E14.58665
G1 X454.159 Y281.643 E14.60312
G1 X452.930 Y280.707 E14.68215
G1 X452.708 Y280.515 E14.69718
G1 X451.555 Y279.379 E14.77998
G1 X451.375 Y279.181 E14.79367
G1 X450.167 Y277.662 E14.89293
G1 X449.204 Y276.171 E14.98372
G1 X448.155 Y274.146 E15.10032
G1 X447.364 Y272.190 E15.20829
G1 X446.723 Y270.128 E15.31875
G1 X446.236 Y267.982 E15.43127
G1 X445.918 Y265.870 E15.54054
G1 X442.738 Y238.838 E16.93265
G1 X442.714 Y238.195 E16.96559
G1 X442.730 Y237.881 E16.98166
G1 X442.798 Y237.387 E17.00720
G1 X442.885 Y237.017 E17.02663
G1 X442.970 Y236.756 E17.04064
G1 X443.186 Y236.272 E17.06776
G1 X443.656 Y236.413 F6000.000
G1 F960
G1 X443.904 Y236.046 E17.09042
G1 X444.062 Y235.865 E17.10269
G1 X444.420 Y235.547 E17.12720
G1 X444.638 Y235.403 E17.14058
G1 X445.101 Y235.188 E17.16667
G1 X445.410 Y235.100 E17.18307
G1 X445.796 Y235.047 E17.20301
G1 X474.213 Y234.180 E18.65718
G1 X474.637 Y234.216 E18.67892
G1 X474.853 Y234.260 E18.69020
G1 X475.376 Y234.452 E18.71868
G1 X475.570 Y234.559 E18.72999
G1 X475.991 Y234.876 E18.75699
G1 X476.307 Y235.216 E18.78070
G1 X476.528 Y235.532 E18.80043
G1 X476.708 Y235.903 E18.82151
G1 X476.874 Y236.430 E18.84978
G1 X476.929 Y236.712 E18.86450
G1 X476.977 Y237.268 E18.89303
G1 X476.954 Y237.854 E18.92304
G1 X474.812 Y264.596 E20.29520
G1 X474.561 Y266.847 E20.41102
G1 X474.157 Y268.996 E20.52289
G1 X473.640 Y270.932 E20.62540
G1 X472.945 Y272.907 E20.73246
G1 X472.102 Y274.778 E20.83744
G1 X471.123 Y276.507 E20.93905
G1 X470.014 Y278.079 E21.03748
G1 X468.782 Y279.477 E21.13278
G1 X467.436 Y280.682 E21.22516
G1 X467.244 Y280.830 E21.23759
G1 X465.986 Y281.674 E21.31504
G1 X465.756 Y281.805 E21.32860
G1 X464.445 Y282.434 E21.40297
G1 X464.179 Y282.537 E21.41755
G1 X462.831 Y282.943 E21.48957
G1 X462.537 Y283.006 E21.50493
G1 X461.168 Y283.184 E21.57557
G1 X460.861 Y283.199 E21.59130
G1 X459.486 Y283.147 E21.66164
G1 X459.183 Y283.111 E21.67726
G1 X457.821 Y282.831 E21.74839
G1 X457.538 Y282.749 E21.76345
G1 X456.204 Y282.243 E21.83642
G1 X455.954 Y282.126 E21.85056
G1 X454.665 Y281.400 E21.92621
G1 X454.452 Y281.260 E21.93927
G1 X453.223 Y280.324 E22.01830
G1 X453.047 Y280.171 E22.03021
G1 X451.750 Y278.878 E22.12385
G1 X450.572 Y277.400 E22.22053
G1 X449.609 Y275.909 E22.31132
G1 X448.602 Y273.964 E22.42336
G1 X447.824 Y272.045 E22.52928
G1 X447.192 Y270.020 E22.63779
G1 X446.713 Y267.910 E22.74845
G1 X446.397 Y265.813 E22.85690
G1 X443.218 Y238.792 E24.24849
G1 X443.195 Y238.219 E24.27783
G1 X443.211 Y237.909 E24.29372
G1 X443.274 Y237.465 E24.31665
G1 X443.425 Y236.916 E24.34577
G1 X443.615 Y236.493 E24.36950
G1 X444.084 Y236.633 F6000.000
G1 F960
G1 X444.268 Y236.362 E24.38624
G1 X444.425 Y236.181 E24.39852
G1 X444.691 Y235.946 E24.41663
G1 X444.826 Y235.855 E24.42497
G1 X444.939 Y235.785 E24.43179
G1 X445.242 Y235.649 E24.44879
G1 X445.525 Y235.568 E24.46384
G1 X445.811 Y235.529 E24.47857
G1 X474.228 Y234.662 E25.93274
G1 X474.541 Y234.689 E25.94881
G1 X474.757 Y234.733 E25.96009
G1 X475.144 Y234.874 E25.98113
G1 X475.337 Y234.981 E25.99244
G1 X475.649 Y235.216 E26.01239
G1 X475.925 Y235.510 E26.03304
G1 X476.108 Y235.769 E26.04928
G1 X476.255 Y236.067 E26.06625
G1 X476.401 Y236.521 E26.09063
G1 X476.455 Y236.803 E26.10535
G1 X476.496 Y237.295 E26.13060
G1 X476.474 Y237.816 E26.15724
G1 X474.332 Y264.558 E27.52941
G1 X474.087 Y266.759 E27.64267
G1 X473.691 Y268.872 E27.75265
G1 X473.175 Y270.808 E27.85515
G1 X472.491 Y272.745 E27.96022
G1 X471.663 Y274.578 E28.06309
G1 X470.705 Y276.268 E28.16243
G1 X469.622 Y277.800 E28.25841
G1 X468.423 Y279.157 E28.35102
G1 X467.118 Y280.320 E28.44045
G1 X465.718 Y281.273 E28.52707
G1 X464.237 Y281.999 E28.61143
G1 X464.040 Y282.075 E28.62220
G1 X462.692 Y282.481 E28.69422
G1 X462.475 Y282.528 E28.70557
G1 X461.106 Y282.706 E28.77621
G1 X460.879 Y282.717 E28.78784
G1 X459.504 Y282.666 E28.85817
G1 X459.280 Y282.639 E28.86971
G1 X457.918 Y282.358 E28.94084
G1 X457.709 Y282.298 E28.95197
G1 X456.375 Y281.792 E29.02493
G1 X456.190 Y281.705 E29.03538
G1 X454.744 Y280.876 E29.12066
G1 X453.515 Y279.940 E29.19968
G1 X452.125 Y278.576 E29.29928
G1 X450.977 Y277.139 E29.39338
G1 X450.014 Y275.648 E29.48416
G1 X449.048 Y273.782 E29.59165
G1 X448.283 Y271.900 E29.69551
G1 X447.662 Y269.912 E29.80208
G1 X447.189 Y267.838 E29.91087
G1 X446.881 Y265.801 E30.01621
G1 X443.701 Y238.777 E31.40797
G1 X443.677 Y238.243 E31.43531
G1 X443.692 Y237.937 E31.45101
G1 X443.749 Y237.543 E31.47135
G1 X443.898 Y237.024 E31.49897
G1 X444.043 Y236.713 E31.51652
G1 X444.513 Y236.854 F6000.000
G1 F960
G1 X444.632 Y236.679 E31.52735
G1 X444.789 Y236.497 E31.53962
G1 X445.096 Y236.254 E31.55963
G1 X445.384 Y236.110 E31.57610
G1 X445.641 Y236.036 E31.58979
G1 X445.825 Y236.011 E31.59931
G1 X474.243 Y235.144 E33.05349
G1 X474.661 Y235.205 E33.07512
G1 X474.911 Y235.297 E33.08873
G1 X475.105 Y235.403 E33.10003
G1 X475.306 Y235.555 E33.11293
G1 X475.543 Y235.804 E33.13053
G1 X475.688 Y236.007 E33.14328
G1 X475.801 Y236.231 E33.15613
G1 X475.928 Y236.612 E33.17663
G1 X475.982 Y236.894 E33.19135
G1 X476.014 Y237.323 E33.21333
G1 X475.993 Y237.777 E33.23659
G1 X473.851 Y264.519 E34.60876
G1 X473.613 Y266.671 E34.71948
G1 X473.225 Y268.748 E34.82755
G1 X472.709 Y270.684 E34.93005
G1 X472.037 Y272.584 E35.03314
G1 X471.224 Y274.379 E35.13390
G1 X470.286 Y276.028 E35.23097
G1 X469.229 Y277.520 E35.32448
G1 X468.063 Y278.836 E35.41441
G1 X466.799 Y279.959 E35.50089
G1 X465.449 Y280.873 E35.58426
G1 X464.028 Y281.565 E35.66509
G1 X462.413 Y282.050 E35.75137
G1 X460.896 Y282.235 E35.82950
G1 X459.377 Y282.166 E35.90728
G1 X458.015 Y281.886 E35.97841
G1 X456.427 Y281.285 E36.06527
G1 X455.036 Y280.493 E36.14715
G1 X453.807 Y279.557 E36.22617
G1 X452.501 Y278.273 E36.31983
G1 X451.382 Y276.877 E36.41135
G1 X450.419 Y275.386 E36.50213
G1 X449.494 Y273.599 E36.60506
G1 X448.743 Y271.756 E36.70686
G1 X448.132 Y269.804 E36.81149
G1 X447.666 Y267.766 E36.91841
G1 X447.358 Y265.729 E37.02375
G1 X444.181 Y238.731 E38.41418
G1 X444.157 Y238.311 E38.43569
G1 X444.184 Y237.872 E38.45819
G1 X444.262 Y237.459 E38.47970
G1 X444.353 Y237.184 E38.49452
G1 X444.472 Y236.934 E38.50868
G1 E36.50868 F2400.00000
G92 E0
G1 X472.768 Y262.632 F6000.000
G1 E2.00000 F2400.00000
G1 F960
G1 X472.703 Y264.429 E2.09195
G1 X472.479 Y266.470 E2.19697
G1 X472.109 Y268.461 E2.30053
G1 X471.598 Y270.376 E2.40194
G1 X470.955 Y272.188 E2.50024
G1 X470.181 Y273.890 E2.59591
G1 X469.293 Y275.445 E2.68750
G1 X468.299 Y276.840 E2.77508
G1 X467.214 Y278.057 E2.85850
G1 X466.050 Y279.083 E2.93783
G1 X464.824 Y279.905 E3.01338
G1 X463.554 Y280.515 E3.08542
G1 X462.242 Y280.910 E3.15550
G1 X460.917 Y281.083 E3.22385
G1 X459.588 Y281.034 E3.29188
G1 X458.269 Y280.762 E3.36076
G1 X456.978 Y280.273 E3.43133
G1 X455.719 Y279.565 E3.50523
G1 X454.519 Y278.651 E3.58240
G1 X453.388 Y277.538 E3.66353
G1 X452.342 Y276.240 E3.74880
G1 X451.394 Y274.772 E3.83819
G1 X450.556 Y273.152 E3.93150
G1 X449.839 Y271.399 E4.02836
G1 X449.252 Y269.535 E4.12830
G1 X448.805 Y267.590 E4.23040
G1 X448.499 Y265.567 E4.33505
G1 X448.341 Y263.511 E4.44049
G1 X448.333 Y261.442 E4.54635
G1 X448.474 Y259.383 E4.65188
G1 X448.763 Y257.362 E4.75634
G1 X449.196 Y255.401 E4.85902
G1 X449.768 Y253.527 E4.95927
G1 X450.470 Y251.760 E5.05649
G1 X451.296 Y250.124 E5.15021
G1 X452.232 Y248.639 E5.24004
G1 X453.268 Y247.321 E5.32577
G1 X454.390 Y246.187 E5.40735
G1 X455.584 Y245.251 E5.48495
G1 X456.833 Y244.521 E5.55897
G1 X458.124 Y244.006 E5.63006
G1 X459.441 Y243.710 E5.69910
G1 X460.770 Y243.636 E5.76716
G1 X462.092 Y243.784 E5.83519
G1 X463.406 Y244.154 E5.90504
G1 X464.685 Y244.742 E5.97701
G1 X465.918 Y245.541 E6.05217
G1 X467.089 Y246.545 E6.13107
G1 X468.184 Y247.742 E6.21403
G1 X469.188 Y249.118 E6.30115
G1 X470.089 Y250.656 E6.39231
G1 X470.871 Y252.332 E6.48693
G1 X471.534 Y254.143 E6.58555
G1 X472.060 Y256.049 E6.68668
G1 X472.445 Y258.032 E6.79000
G1 X472.671 Y260.020 E6.89234
G1 X471.720 Y260.089 E6.94111
G1 X471.661 Y259.434 E6.97475
G1 X471.370 Y257.437 E7.07796
G1 X470.939 Y255.523 E7.17829
G1 X470.379 Y253.723 E7.27475
G1 X469.699 Y252.046 E7.36729
G1 X468.922 Y250.526 E7.45458
G1 X468.075 Y249.187 E7.53563
G1 X467.153 Y248.008 E7.61220
G1 X466.178 Y247.007 E7.68370
G1 X465.164 Y246.181 E7.75059
G1 X464.131 Y245.533 E7.81294
G1 X463.081 Y245.054 E7.87196
G1 X462.035 Y244.747 E7.92773
G1 X460.976 Y244.602 E7.98238
G1 X459.906 Y244.621 E8.03712
G1 X458.837 Y244.803 E8.09260
G1 X457.773 Y245.149 E8.14985
G1 X456.719 Y245.667 E8.20989
G1 X455.671 Y246.370 E8.27446
G1 X454.641 Y247.269 E8.34438
G1 X453.654 Y248.353 E8.41936
G1 X452.733 Y249.610 E8.49907
G1 X451.896 Y251.026 E8.58322
G1 X451.132 Y252.648 E8.67489
G1 X450.485 Y254.408 E8.77083
G1 X449.964 Y256.292 E8.87080
G1 X449.582 Y258.287 E8.97469
G1 X449.353 Y260.339 E9.08031
G1 X449.278 Y262.409 E9.18622
G1 X449.359 Y264.474 E9.29195
G1 X449.594 Y266.511 E9.39684
G1 X449.971 Y268.460 E9.49833
G1 X450.481 Y270.306 E9.59633
G1 X451.116 Y272.037 E9.69062
G1 X451.853 Y273.616 E9.77976
G1 X452.672 Y275.023 E9.86301
G1 X453.225 Y275.822 E9.91274
G1 X454.161 Y276.960 E9.98810
G1 X455.149 Y277.924 E10.05869
G1 X456.164 Y278.707 E10.12424
G1 X457.192 Y279.313 E10.18528
G1 X458.232 Y279.749 E10.24296
G1 X459.286 Y280.022 E10.29863
G1 X460.354 Y280.131 E10.35357
G1 X461.328 Y280.090 E10.40345
G1 X462.391 Y279.890 E10.45877
G1 X463.451 Y279.524 E10.51612
G1 X464.508 Y278.980 E10.57694
G1 X465.560 Y278.246 E10.64252
G1 X466.584 Y277.326 E10.71296
G1 X467.556 Y276.230 E10.78788
G1 X468.471 Y274.949 E10.86838
G1 X469.179 Y273.735 E10.94026
G1 X469.945 Y272.118 E11.03178
G1 X470.596 Y270.363 E11.12753
G1 X471.121 Y268.479 E11.22752
G1 X471.505 Y266.496 E11.33088
G1 X471.739 Y264.440 E11.43670
G1 X471.808 Y262.632 E11.52922
G1 X472.678 Y262.632 E11.57372
G1 X472.650 Y263.221 F6000.000
G1 X472.279 Y262.874 F6000.000
G1 F960
G1 X472.217 Y264.467 E11.64175
G1 X472.001 Y266.400 E11.72470
G1 X471.637 Y268.354 E11.80950
G1 X471.051 Y270.500 E11.90440
G1 X470.378 Y272.311 E11.98683
G1 X469.748 Y273.669 E12.05065
G1 X468.888 Y275.186 E12.12506
G1 X467.923 Y276.540 E12.19596
G1 X466.915 Y277.673 E12.26067
G1 X465.867 Y278.610 E12.32063
G1 X464.765 Y279.376 E12.37788
G1 X464.583 Y279.485 E12.38691
G1 X463.621 Y279.962 E12.43274
G1 X463.378 Y280.061 E12.44394
G1 X462.527 Y280.337 E12.48209
G1 X462.139 Y280.433 E12.49912
G1 X461.397 Y280.551 E12.53118
G1 X460.894 Y280.595 E12.55272
G1 X460.324 Y280.595 E12.57705
G1 X459.646 Y280.548 E12.60603
G1 X459.187 Y280.476 E12.62586
G1 X458.404 Y280.295 E12.66013
G1 X458.098 Y280.198 E12.67384
G1 X457.184 Y279.834 E12.71581
G1 X456.967 Y279.727 E12.72613
G1 X455.885 Y279.093 E12.77963
G1 X454.834 Y278.287 E12.83611
G1 X453.801 Y277.274 E12.89784
G1 X452.733 Y275.958 E12.97014
G1 X452.271 Y275.267 E13.00558
G1 X451.817 Y274.527 E13.04262
G1 X451.442 Y273.843 E13.07590
G1 X451.000 Y272.946 E13.11852
G1 X450.685 Y272.227 E13.15204
G1 X450.299 Y271.233 E13.19752
G1 X450.036 Y270.459 E13.23238
G1 X449.725 Y269.407 E13.27920
G1 X449.515 Y268.576 E13.31576
G1 X449.286 Y267.498 E13.36275
G1 X449.127 Y266.575 E13.40272
