; generated by Slic3r 1.3.0-dev on 2018-05-31 at 18:18:09

; external perimeters extrusion width = 0.66mm (7.15mm^3/s)
; perimeters extrusion width = 0.84mm (11.63mm^3/s)
; infill extrusion width = 0.75mm (10.28mm^3/s)
; solid infill extrusion width = 0.84mm (11.63mm^3/s)
; top infill extrusion width = 0.84mm (11.63mm^3/s)

M107
M104 S205 ; set temperature
G28 ; home all axes
G32; probe home individual Z axis
G29 S1; load bed mesh

M117 Purge extruder
G92 E0 ; reset extruder
G1 X100
G1 Z1.0 F3000.0 ; move z up little to prevent scratching of surface
G1 X100 Y20 Z0.3 F5000.0 ; move to start-line position
G1 X100 Y200.0 Z0.3 F1500.0 E15 ; draw 1st line
G1 X100.5 Y200.0 Z0.3 F5000.0 ; move to side a little
G1 X100.5 Y20 Z0.3 F1500.0 E30 ; draw 2nd line
; G1 E27 F3000 ; retract filament 3mm
G92 E0 ; reset extruder
; done purging extruder
G1 Z1.0 F3000 ; move z up little to prevent scratching of surface
M117 Printing!

; Filament gcode

M109 S205 ; set temperature and wait for it to be reached
G21 ; set units to millimeters
G90 ; use absolute coordinates
M82 ; use absolute distances for extrusion
G92 E0
G1 Z0.320 F6000.000
G1 E-2.00000 F2400.00000
G92 E0
G1 X466.095 Y186.516 F6000.000
G1 E2.00000 F2400.00000
G1 F1680
G1 X466.856 Y184.918 E2.07021
G1 X467.578 Y183.655 E2.12786
G1 X468.311 Y182.562 E2.18007
G1 X469.280 Y181.354 E2.24145
G1 X470.120 Y180.469 E2.28986
G1 X470.687 Y179.946 E2.32043
G1 X471.510 Y179.279 E2.36245
G1 X472.491 Y178.613 E2.40948
G1 X473.685 Y177.973 E2.46318
G1 X474.596 Y177.598 E2.50226
G1 X475.635 Y177.283 E2.54531
G1 X476.696 Y177.079 E2.58815
G1 X477.547 Y176.999 E2.62204
G1 X478.600 Y177.001 E2.66377
G1 X479.470 Y177.087 E2.69845
G1 X480.519 Y177.293 E2.74083
G1 X480.949 Y177.410 E2.75850
G1 X481.925 Y177.754 E2.79954
G1 X482.455 Y177.994 E2.82261
G1 X483.060 Y178.290 E2.84932
G1 X483.991 Y178.848 E2.89238
G1 X484.756 Y179.395 E2.92967
G1 X485.674 Y180.169 E2.97728
G1 X486.447 Y180.931 E3.02032
G1 X487.263 Y181.863 E3.06943
G1 X488.144 Y183.051 E3.12809
G1 X488.880 Y184.233 E3.18332
G1 X489.502 Y185.399 E3.23569
G1 X490.144 Y186.817 E3.29743
G1 X490.669 Y188.204 E3.35624
G1 X491.183 Y189.876 E3.42559
G1 X491.549 Y191.395 E3.48754
G1 X491.717 Y192.302 E3.52413
G1 X491.863 Y193.139 E3.55781
G1 X492.056 Y194.731 E3.62139
G1 X492.169 Y196.448 E3.68964
G1 X492.183 Y196.950 E3.70956
G1 X492.154 Y199.083 E3.79413
G1 X492.022 Y200.805 E3.86264
G1 X491.838 Y202.164 E3.91699
G1 X491.758 Y202.711 E3.93891
G1 X491.422 Y204.378 E4.00635
G1 X490.931 Y206.199 E4.08114
G1 X490.627 Y207.125 E4.11979
G1 X490.026 Y208.683 E4.18602
G1 X489.390 Y210.060 E4.24613
G1 X488.622 Y211.465 E4.30967
G1 X487.767 Y212.785 E4.37199
G1 X487.070 Y213.712 E4.41798
G1 X486.275 Y214.632 E4.46622
G1 X485.343 Y215.555 E4.51821
G1 X484.232 Y216.464 E4.57516
G1 X483.380 Y217.035 E4.61581
G1 X482.548 Y217.499 E4.65358
G1 X481.421 Y217.992 E4.70239
G1 X481.048 Y218.119 E4.71800
G1 X480.219 Y218.351 E4.75212
G1 X479.197 Y218.531 E4.79327
G1 X478.155 Y218.600 E4.83469
G1 X477.461 Y218.582 E4.86223
G1 X476.343 Y218.446 E4.90686
G1 X475.228 Y218.171 E4.95243
G1 X474.245 Y217.814 E4.99388
G1 X473.431 Y217.431 E5.02958
G1 X473.088 Y217.244 E5.04505
G1 X472.762 Y217.054 E5.06002
G1 X471.931 Y216.501 E5.09959
G1 X471.021 Y215.778 E5.14568
G1 X470.163 Y214.974 E5.19232
G1 X469.329 Y214.060 E5.24138
G1 X468.495 Y212.995 E5.29499
G1 X467.730 Y211.859 E5.34929
G1 X467.025 Y210.642 E5.40507
G1 X466.301 Y209.174 E5.46999
G1 X465.684 Y207.675 E5.53428
G1 X465.162 Y206.133 E5.59883
G1 X464.731 Y204.546 E5.66403
G1 X464.390 Y202.917 E5.73001
G1 X464.200 Y201.712 E5.77842
G1 X464.010 Y199.916 E5.85002
G1 X463.929 Y198.213 E5.91763
G1 X463.946 Y196.396 E5.98966
G1 X464.072 Y194.574 E6.06208
G1 X464.326 Y192.653 E6.13893
G1 X464.589 Y191.274 E6.19460
G1 X465.010 Y189.587 E6.26354
G1 X465.489 Y188.073 E6.32651
G1 X466.062 Y186.600 E6.38918
G1 X466.389 Y186.631 F6000.000
G1 F1680
G1 X467.131 Y185.073 E6.45761
G1 X467.840 Y183.831 E6.51435
G1 X468.572 Y182.739 E6.56647
G1 X469.508 Y181.572 E6.62580
G1 X470.349 Y180.686 E6.67422
G1 X470.885 Y180.191 E6.70316
G1 X471.708 Y179.524 E6.74518
G1 X472.667 Y178.875 E6.79107
G1 X473.805 Y178.264 E6.84229
G1 X474.716 Y177.890 E6.88136
G1 X475.724 Y177.586 E6.92310
G1 X476.753 Y177.389 E6.96464
G1 X477.550 Y177.314 E6.99636
G1 X478.569 Y177.315 E7.03679
G1 X479.439 Y177.400 E7.07144
G1 X480.455 Y177.602 E7.11251
G1 X480.863 Y177.713 E7.12929
G1 X481.818 Y178.051 E7.16946
G1 X482.787 Y178.501 E7.21181
G1 X483.718 Y179.046 E7.25462
G1 X484.213 Y179.389 E7.27849
G1 X484.555 Y179.638 E7.29524
G1 X485.453 Y180.393 E7.34180
G1 X486.225 Y181.154 E7.38476
G1 X487.024 Y182.068 E7.43289
G1 X487.878 Y183.220 E7.48977
G1 X488.603 Y184.383 E7.54412
G1 X489.223 Y185.547 E7.59641
G1 X489.850 Y186.930 E7.65660
G1 X490.373 Y188.315 E7.71534
G1 X490.876 Y189.951 E7.78319
G1 X491.242 Y191.468 E7.84508
G1 X491.407 Y192.359 E7.88099
G1 X491.550 Y193.177 E7.91395
G1 X491.743 Y194.768 E7.97747
G1 X491.854 Y196.467 E8.04501
G1 X491.868 Y196.957 E8.06443
G1 X491.840 Y199.059 E8.14778
G1 X491.707 Y200.781 E8.21626
G1 X491.526 Y202.121 E8.26988
G1 X491.449 Y202.648 E8.29103
G1 X491.113 Y204.315 E8.35844
G1 X490.631 Y206.101 E8.43181
G1 X490.333 Y207.012 E8.46983
G1 X489.740 Y208.551 E8.53521
G1 X489.104 Y209.927 E8.59533
G1 X488.346 Y211.313 E8.65798
G1 X487.503 Y212.612 E8.71937
G1 X486.832 Y213.506 E8.76368
G1 X486.037 Y214.426 E8.81192
G1 X485.122 Y215.329 E8.86288
G1 X484.054 Y216.203 E8.91760
G1 X483.227 Y216.760 E8.95715
G1 X482.395 Y217.224 E8.99491
G1 X481.316 Y217.695 E9.04161
G1 X480.963 Y217.816 E9.05637
G1 X480.134 Y218.047 E9.09050
G1 X479.145 Y218.220 E9.13031
G1 X478.137 Y218.285 E9.17037
G1 X477.494 Y218.268 E9.19589
G1 X476.398 Y218.136 E9.23967
G1 X475.332 Y217.874 E9.28320
G1 X474.378 Y217.528 E9.32342
G1 X473.566 Y217.146 E9.35902
G1 X473.244 Y216.970 E9.37355
G1 X472.936 Y216.790 E9.38771
G1 X472.107 Y216.239 E9.42718
G1 X471.219 Y215.533 E9.47216
G1 X470.381 Y214.746 E9.51777
G1 X469.576 Y213.864 E9.56510
G1 X468.756 Y212.818 E9.61779
G1 X468.003 Y211.700 E9.67126
G1 X467.308 Y210.503 E9.72615
G1 X466.584 Y209.035 E9.79107
G1 X465.976 Y207.556 E9.85448
G1 X465.460 Y206.033 E9.91824
G1 X465.035 Y204.464 E9.98267
G1 X464.699 Y202.854 E10.04792
G1 X464.514 Y201.678 E10.09511
G1 X464.325 Y199.901 E10.16597
G1 X464.243 Y198.198 E10.23358
G1 X464.261 Y196.400 E10.30487
G1 X464.386 Y194.597 E10.37655
G1 X464.636 Y192.712 E10.45195
G1 X464.896 Y191.350 E10.50693
G1 X465.311 Y189.682 E10.57506
G1 X465.790 Y188.168 E10.63803
G1 X466.356 Y186.715 E10.69987
G1 X466.682 Y186.746 F6000.000
G1 F1680
G1 X467.405 Y185.229 E10.76652
G1 X468.102 Y184.006 E10.82235
G1 X468.833 Y182.916 E10.87438
G1 X469.737 Y181.789 E10.93167
G1 X470.578 Y180.904 E10.98008
G1 X471.084 Y180.436 E11.00740
G1 X471.907 Y179.769 E11.04942
G1 X472.842 Y179.137 E11.09417
G1 X473.925 Y178.556 E11.14289
G1 X474.836 Y178.181 E11.18196
G1 X475.813 Y177.888 E11.22240
G1 X476.810 Y177.700 E11.26263
G1 X477.552 Y177.630 E11.29219
G1 X478.538 Y177.628 E11.33131
G1 X479.408 Y177.714 E11.36594
G1 X480.391 Y177.911 E11.40569
G1 X480.777 Y178.017 E11.42159
G1 X481.711 Y178.347 E11.46089
G1 X482.651 Y178.786 E11.50200
G1 X483.557 Y179.317 E11.54363
G1 X484.031 Y179.647 E11.56656
G1 X484.353 Y179.881 E11.58232
G1 X485.232 Y180.618 E11.62783
G1 X486.002 Y181.377 E11.67070
G1 X486.784 Y182.273 E11.71785
G1 X487.612 Y183.389 E11.77295
G1 X488.325 Y184.533 E11.82642
G1 X488.945 Y185.695 E11.87863
G1 X489.555 Y187.042 E11.93727
G1 X490.078 Y188.426 E11.99594
G1 X490.570 Y190.026 E12.06229
G1 X490.936 Y191.541 E12.12411
G1 X491.097 Y192.415 E12.15935
G1 X491.237 Y193.216 E12.19159
G1 X491.430 Y194.805 E12.25506
G1 X491.539 Y196.487 E12.32189
G1 X491.552 Y196.964 E12.34082
G1 X491.525 Y199.035 E12.42294
G1 X491.393 Y200.756 E12.49138
G1 X491.213 Y202.078 E12.54429
G1 X491.140 Y202.586 E12.56465
G1 X490.804 Y204.252 E12.63204
G1 X490.332 Y206.004 E12.70399
G1 X490.038 Y206.900 E12.74137
G1 X489.454 Y208.419 E12.80591
G1 X488.818 Y209.795 E12.86603
G1 X488.069 Y211.161 E12.92781
G1 X487.239 Y212.440 E12.98826
G1 X486.593 Y213.299 E13.03089
G1 X485.798 Y214.220 E13.07913
G1 X484.902 Y215.104 E13.12905
G1 X483.877 Y215.943 E13.18156
G1 X483.073 Y216.484 E13.21999
G1 X482.241 Y216.948 E13.25775
G1 X481.210 Y217.397 E13.30234
G1 X480.879 Y217.512 E13.31626
G1 X480.050 Y217.743 E13.35038
G1 X479.094 Y217.909 E13.38887
G1 X478.120 Y217.970 E13.42755
G1 X477.527 Y217.955 E13.45105
G1 X476.453 Y217.825 E13.49398
G1 X475.436 Y217.576 E13.53548
G1 X474.511 Y217.243 E13.57447
G1 X473.701 Y216.861 E13.60997
G1 X473.401 Y216.696 E13.62356
G1 X473.109 Y216.527 E13.63691
G1 X472.283 Y215.977 E13.67627
G1 X471.418 Y215.288 E13.72014
G1 X470.599 Y214.518 E13.76473
G1 X469.824 Y213.668 E13.81032
G1 X469.017 Y212.641 E13.86211
G1 X468.275 Y211.541 E13.91473
G1 X467.591 Y210.364 E13.96874
G1 X466.867 Y208.895 E14.03365
G1 X466.268 Y207.436 E14.09619
G1 X465.759 Y205.932 E14.15915
G1 X465.340 Y204.382 E14.22282
G1 X465.008 Y202.790 E14.28733
G1 X464.827 Y201.644 E14.33331
G1 X464.640 Y199.886 E14.40343
G1 X464.558 Y198.183 E14.47104
G1 X464.576 Y196.403 E14.54160
G1 X464.701 Y194.619 E14.61253
G1 X464.945 Y192.770 E14.68647
G1 X465.202 Y191.425 E14.74076
G1 X465.612 Y189.777 E14.80810
G1 X466.091 Y188.264 E14.87106
G1 X466.650 Y186.830 E14.93206
G1 X466.976 Y186.862 F6000.000
G1 F1680
G1 X467.679 Y185.384 E14.99693
G1 X468.364 Y184.181 E15.05185
G1 X469.094 Y183.093 E15.10379
G1 X469.965 Y182.006 E15.15904
G1 X470.806 Y181.121 E15.20745
G1 X471.282 Y180.681 E15.23314
G1 X472.105 Y180.014 E15.27516
G1 X473.018 Y179.399 E15.31878
G1 X474.045 Y178.848 E15.36500
G1 X474.956 Y178.473 E15.40408
G1 X475.902 Y178.191 E15.44321
G1 X476.866 Y178.010 E15.48213
G1 X477.554 Y177.945 E15.50953
G1 X478.508 Y177.942 E15.54733
G1 X479.376 Y178.028 E15.58195
G1 X480.326 Y178.220 E15.62038
G1 X480.692 Y178.320 E15.63539
G1 X481.605 Y178.644 E15.67382
G1 X482.516 Y179.071 E15.71370
G1 X483.395 Y179.588 E15.75415
G1 X483.855 Y179.908 E15.77637
G1 X484.152 Y180.123 E15.79091
G1 X485.011 Y180.843 E15.83537
G1 X485.779 Y181.600 E15.87815
G1 X486.545 Y182.478 E15.92432
G1 X487.346 Y183.558 E15.97764
G1 X488.048 Y184.683 E16.03023
G1 X488.667 Y185.843 E16.08236
G1 X489.261 Y187.155 E16.13946
G1 X489.783 Y188.537 E16.19805
G1 X490.264 Y190.101 E16.26290
G1 X490.629 Y191.614 E16.32466
G1 X490.786 Y192.472 E16.35922
G1 X490.924 Y193.254 E16.39073
G1 X491.117 Y194.842 E16.45415
G1 X491.225 Y196.506 E16.52028
G1 X491.237 Y196.971 E16.53871
G1 X491.211 Y199.011 E16.61961
G1 X491.079 Y200.731 E16.68802
G1 X490.901 Y202.035 E16.74020
G1 X490.831 Y202.524 E16.75979
G1 X490.495 Y204.189 E16.82714
G1 X490.032 Y205.906 E16.89767
G1 X489.744 Y206.787 E16.93442
G1 X489.167 Y208.287 E16.99812
G1 X488.532 Y209.663 E17.05824
G1 X487.793 Y211.009 E17.11914
G1 X486.975 Y212.268 E17.17865
G1 X486.354 Y213.093 E17.21961
G1 X485.559 Y214.014 E17.26785
G1 X484.681 Y214.879 E17.31672
G1 X483.699 Y215.682 E17.36701
G1 X482.919 Y216.209 E17.40434
G1 X482.088 Y216.673 E17.44210
G1 X481.105 Y217.100 E17.48458
G1 X480.794 Y217.208 E17.49765
G1 X479.965 Y217.439 E17.53177
G1 X479.042 Y217.598 E17.56893
G1 X478.102 Y217.656 E17.60624
G1 X477.561 Y217.641 E17.62772
G1 X476.507 Y217.514 E17.66981
G1 X475.540 Y217.278 E17.70927
G1 X474.644 Y216.957 E17.74702
G1 X473.836 Y216.576 E17.78243
G1 X473.557 Y216.422 E17.79509
G1 X473.283 Y216.264 E17.80762
G1 X472.459 Y215.716 E17.84687
G1 X471.616 Y215.043 E17.88962
G1 X470.816 Y214.290 E17.93320
G1 X470.071 Y213.473 E17.97706
G1 X469.278 Y212.464 E18.02793
G1 X468.547 Y211.382 E18.07971
G1 X467.873 Y210.224 E18.13283
G1 X467.150 Y208.756 E18.19774
G1 X466.559 Y207.317 E18.25940
G1 X466.058 Y205.832 E18.32157
G1 X465.644 Y204.300 E18.38448
G1 X465.317 Y202.726 E18.44825
G1 X465.141 Y201.610 E18.49302
G1 X464.955 Y199.871 E18.56240
G1 X464.873 Y198.168 E18.63001
G1 X464.892 Y196.407 E18.69983
G1 X465.015 Y194.641 E18.77002
G1 X465.255 Y192.829 E18.84251
G1 X465.508 Y191.501 E18.89610
G1 X465.912 Y189.873 E18.96263
G1 X466.391 Y188.359 E19.02560
G1 X466.943 Y186.945 E19.08577
G1 X467.270 Y186.977 F6000.000
G1 F1680
G1 X467.954 Y185.540 E19.14886
G1 X468.627 Y184.356 E19.20286
G1 X469.355 Y183.270 E19.25471
G1 X470.194 Y182.223 E19.30791
G1 X471.035 Y181.338 E19.35633
G1 X471.481 Y180.926 E19.38039
G1 X472.304 Y180.259 E19.42241
G1 X473.193 Y179.661 E19.46489
G1 X474.165 Y179.139 E19.50863
G1 X475.076 Y178.765 E19.54770
G1 X475.991 Y178.493 E19.58553
G1 X476.923 Y178.320 E19.62313
G1 X477.557 Y178.260 E19.64838
G1 X478.477 Y178.256 E19.68487
G1 X479.345 Y178.342 E19.71947
G1 X480.262 Y178.528 E19.75658
G1 X480.606 Y178.623 E19.77071
G1 X481.498 Y178.941 E19.80826
G1 X482.380 Y179.355 E19.84690
G1 X483.233 Y179.858 E19.88617
G1 X483.671 Y180.165 E19.90738
G1 X483.950 Y180.366 E19.92101
G1 X484.790 Y181.068 E19.96442
G1 X485.557 Y181.824 E20.00711
G1 X486.305 Y182.683 E20.05230
G1 X487.082 Y183.730 E20.10398
G1 X487.771 Y184.833 E20.15555
G1 X488.388 Y185.991 E20.20760
G1 X488.966 Y187.268 E20.26315
G1 X489.488 Y188.648 E20.32167
G1 X489.957 Y190.175 E20.38502
G1 X490.322 Y191.688 E20.44672
G1 X490.476 Y192.528 E20.48060
G1 X490.611 Y193.293 E20.51139
G1 X490.804 Y194.879 E20.57476
G1 X490.910 Y196.526 E20.64017
G1 X490.922 Y196.978 E20.65811
G1 X490.896 Y198.987 E20.73779
G1 X490.764 Y200.706 E20.80616
G1 X490.589 Y201.992 E20.85762
G1 X490.522 Y202.462 E20.87643
G1 X490.186 Y204.126 E20.94376
G1 X489.732 Y205.809 E21.01287
G1 X489.449 Y206.674 E21.04898
G1 X488.881 Y208.154 E21.11184
G1 X488.245 Y209.531 E21.17195
G1 X487.517 Y210.857 E21.23198
G1 X486.711 Y212.096 E21.29056
G1 X486.115 Y212.887 E21.32984
G1 X485.321 Y213.808 E21.37807
G1 X484.460 Y214.654 E21.42591
G1 X483.522 Y215.421 E21.47398
G1 X482.766 Y215.933 E21.51020
G1 X481.934 Y216.397 E21.54796
G1 X481.000 Y216.803 E21.58833
G1 X480.709 Y216.904 E21.60055
G1 X479.880 Y217.136 E21.63467
G1 X478.990 Y217.287 E21.67050
G1 X478.085 Y217.341 E21.70644
G1 X477.594 Y217.328 E21.72590
G1 X476.562 Y217.204 E21.76714
G1 X475.644 Y216.981 E21.80457
G1 X474.777 Y216.671 E21.84109
G1 X473.972 Y216.292 E21.87639
G1 X473.713 Y216.148 E21.88812
G1 X473.457 Y216.001 E21.89983
G1 X472.635 Y215.454 E21.93898
G1 X471.815 Y214.798 E21.98062
G1 X471.034 Y214.062 E22.02317
G1 X470.318 Y213.277 E22.06530
G1 X469.539 Y212.287 E22.11526
G1 X468.819 Y211.223 E22.16620
G1 X468.156 Y210.085 E22.21844
G1 X467.433 Y208.617 E22.28333
G1 X466.851 Y207.198 E22.34413
G1 X466.357 Y205.731 E22.40551
G1 X465.948 Y204.218 E22.46765
G1 X465.625 Y202.662 E22.53068
G1 X465.454 Y201.577 E22.57424
G1 X465.270 Y199.855 E22.64288
G1 X465.188 Y198.152 E22.71048
G1 X465.207 Y196.410 E22.77956
G1 X465.330 Y194.663 E22.84901
G1 X465.565 Y192.887 E22.92005
G1 X465.814 Y191.577 E22.97295
G1 X466.213 Y189.968 E23.03868
G1 X466.692 Y188.454 E23.10165
G1 X467.237 Y187.060 E23.16098
G1 E21.16098 F2400.00000
G92 E0
G1 X487.785 Y205.428 F6000.000
G1 E2.00000 F2400.00000
G1 F2100
G1 X487.598 Y206.005 E2.02405
G1 X487.074 Y207.373 E2.08213
G1 X486.480 Y208.659 E2.13829
G1 X485.818 Y209.861 E2.19270
G1 X485.089 Y210.979 E2.24566
G1 X484.593 Y211.638 E2.27834
G1 X483.870 Y212.476 E2.32223
G1 X483.129 Y213.202 E2.36337
G1 X482.361 Y213.830 E2.40269
G1 X481.750 Y214.246 E2.43200
G1 X481.039 Y214.642 E2.46430
G1 X480.297 Y214.963 E2.49635
G1 X479.426 Y215.218 E2.53234
G1 X478.744 Y215.332 E2.55975
G1 X478.035 Y215.372 E2.58791
G1 X477.747 Y215.364 E2.59935
G1 X477.058 Y215.290 E2.62682
G1 X476.222 Y215.097 E2.66083
G1 X475.548 Y214.858 E2.68918
G1 X474.860 Y214.534 E2.71933
G1 X474.499 Y214.330 E2.73578
G1 X473.784 Y213.854 E2.76984
G1 X473.095 Y213.301 E2.80487
G1 X472.428 Y212.670 E2.84130
G1 X471.831 Y212.016 E2.87640
G1 X471.139 Y211.139 E2.92071
G1 X470.495 Y210.188 E2.96625
G1 X469.899 Y209.168 E3.01309
G1 X469.221 Y207.792 E3.07392
G1 X468.691 Y206.496 E3.12945
G1 X468.237 Y205.146 E3.18593
G1 X467.860 Y203.747 E3.24335
G1 X467.560 Y202.297 E3.30210
G1 X467.408 Y201.330 E3.34089
