; generated by Slic3r 1.3.0-dev on 2018-06-28 at 15:21:12

; external perimeters extrusion width = 0.69mm (7.51mm^3/s)
; perimeters extrusion width = 0.60mm (8.03mm^3/s)
; infill extrusion width = 0.30mm (3.53mm^3/s)
; solid infill extrusion width = 0.30mm (2.83mm^3/s)
; top infill extrusion width = 0.30mm (2.26mm^3/s)

M107
G28 ; home all axes
G32; probe home individual Z axis
G29 S1; load bed mesh
M109 S205 ; set temperature and wait for it to be reached
M117 Purge extruder
G92 E0 ; reset extruder
G1 X400
G1 Z1.0 F3000.0 ; move z up little to prevent scratching of surface
G1 X400 Y20 Z0.3 F5000.0 ; move to start-line position
G1 X400 Y200.0 Z0.3 F1500.0 E15 ; draw 1st line
G1 X400.5 Y200.0 Z0.3 F5000.0 ; move to side a little
G1 X400.5 Y20 Z0.3 F1500.0 E30 ; draw 2nd line
; G1 E27 F3000 ; retract filament 3mm
G92 E0 ; reset extruder
; done purging extruder
G1 Z1.0 F3000 ; move z up little to prevent scratching of surface
M117 Printing!

; Filament gcode

G21 ; set units to millimeters
G90 ; use absolute coordinates
M82 ; use absolute distances for extrusion
G92 E0
M584 U3 Z2 V4; Actuate motors independently
G92 U10.000 V10.000 Z10.000
G1 U0.270 V0.270 Z0.270 F6000.000
G1 E-2.00000 F2400.00000
G92 E0
G1 X442.463 Y246.514 F6000.000
G1 E2.00000 F2400.00000
G1 F960
G1 X442.947 Y245.861 E2.04156
G1 X443.111 Y245.696 E2.05348
G1 X443.658 Y245.268 E2.08897
G1 X443.928 Y245.113 E2.10493
G1 X444.524 Y244.866 E2.13790
G1 X444.878 Y244.778 E2.15656
G1 X445.425 Y244.708 E2.18475
G1 X474.546 Y243.834 E3.67490
G1 X475.057 Y243.865 E3.70109
G1 X475.277 Y243.899 E3.71247
G1 X476.075 Y244.147 E3.75523
G1 X476.273 Y244.243 E3.76648
G1 X476.906 Y244.664 E3.80536
G1 X477.148 Y244.886 E3.82219
G1 X477.620 Y245.470 E3.86059
G1 X477.742 Y245.672 E3.87263
G1 X477.953 Y246.094 E3.89678
G1 X478.046 Y246.331 E3.90979
G1 X478.226 Y246.953 E3.94293
G1 X478.294 Y247.347 E3.96336
G1 X478.336 Y247.985 E3.99608
G1 X478.324 Y248.410 E4.01782
G1 X475.776 Y287.328 E6.01266
G1 X475.509 Y289.718 E6.13568
G1 X475.088 Y291.940 E6.25134
G1 X474.572 Y293.877 E6.35385
G1 X473.852 Y295.932 E6.46524
G1 X472.980 Y297.873 E6.57409
G1 X471.960 Y299.681 E6.68023
G1 X470.799 Y301.335 E6.78358
G1 X470.608 Y301.575 E6.79927
G1 X469.502 Y302.815 E6.88428
G1 X469.263 Y303.053 E6.90151
G1 X468.074 Y304.101 E6.98260
G1 X467.781 Y304.327 E7.00151
G1 X466.523 Y305.170 E7.07896
G1 X466.173 Y305.371 E7.09961
G1 X464.862 Y305.999 E7.17397
G1 X464.457 Y306.156 E7.19617
G1 X463.109 Y306.562 E7.26819
G1 X462.662 Y306.658 E7.29157
G1 X461.293 Y306.836 E7.36221
G1 X460.825 Y306.858 E7.38616
G1 X459.451 Y306.807 E7.45650
G1 X458.989 Y306.751 E7.48028
G1 X457.627 Y306.471 E7.55141
G1 X457.196 Y306.346 E7.57433
G1 X455.862 Y305.840 E7.64731
G1 X455.481 Y305.662 E7.66883
G1 X454.192 Y304.936 E7.74452
G1 X453.867 Y304.723 E7.76437
G1 X452.638 Y303.787 E7.84340
G1 X452.370 Y303.554 E7.86154
G1 X451.216 Y302.419 E7.94434
G1 X451.000 Y302.179 E7.96086
G1 X449.934 Y300.858 E8.04767
G1 X449.762 Y300.619 E8.06272
G1 X448.664 Y298.895 E8.16732
G1 X447.709 Y297.025 E8.27469
G1 X446.984 Y295.250 E8.37274
G1 X446.253 Y292.931 E8.49710
G1 X445.760 Y290.750 E8.61149
G1 X445.431 Y288.548 E8.72535
G1 X441.860 Y249.310 E10.74061
G1 X441.847 Y248.669 E10.77341
G1 X441.874 Y248.318 E10.79142
G1 X441.931 Y247.941 E10.81090
G1 X442.093 Y247.325 E10.84346
G1 X442.213 Y247.018 E10.86033
G1 X442.420 Y246.593 E10.88453
G1 X442.888 Y246.742 F6000.000
G1 F960
G1 X443.289 Y246.201 E10.91896
G1 X443.453 Y246.036 E10.93088
G1 X443.913 Y245.677 E10.96073
G1 X444.163 Y245.534 E10.97545
G1 X444.656 Y245.330 E11.00276
G1 X444.986 Y245.248 E11.02015
G1 X445.439 Y245.189 E11.04351
G1 X474.560 Y244.316 E12.53365
G1 X474.983 Y244.342 E12.55535
G1 X475.203 Y244.375 E12.56673
G1 X475.865 Y244.581 E12.60216
G1 X476.063 Y244.677 E12.61341
G1 X476.587 Y245.026 E12.64562
G1 X476.817 Y245.237 E12.66158
G1 X477.208 Y245.721 E12.69340
G1 X477.504 Y246.272 E12.72542
G1 X477.598 Y246.509 E12.73843
G1 X477.758 Y247.069 E12.76824
G1 X477.815 Y247.395 E12.78517
G1 X477.855 Y247.973 E12.81483
G1 X477.843 Y248.379 E12.83556
G1 X475.295 Y287.297 E14.83039
G1 X475.060 Y289.460 E14.94168
G1 X474.662 Y291.641 E15.05511
G1 X474.050 Y293.932 E15.17637
G1 X473.323 Y295.955 E15.28635
G1 X472.541 Y297.674 E15.38291
G1 X471.542 Y299.442 E15.48679
G1 X470.407 Y301.055 E15.58768
G1 X469.142 Y302.494 E15.68567
G1 X468.944 Y302.691 E15.69995
G1 X467.755 Y303.739 E15.78103
G1 X467.512 Y303.926 E15.79670
G1 X466.255 Y304.770 E15.87415
G1 X465.965 Y304.936 E15.89126
G1 X464.654 Y305.564 E15.96562
G1 X464.318 Y305.694 E15.98401
G1 X462.970 Y306.100 E16.05603
G1 X462.600 Y306.180 E16.07540
G1 X461.230 Y306.358 E16.14604
G1 X460.843 Y306.376 E16.16588
G1 X459.469 Y306.325 E16.23622
G1 X459.086 Y306.279 E16.25592
G1 X457.724 Y305.999 E16.32705
G1 X457.367 Y305.895 E16.34604
G1 X456.033 Y305.389 E16.41901
G1 X455.718 Y305.242 E16.43684
G1 X454.428 Y304.516 E16.51253
G1 X454.159 Y304.339 E16.52897
G1 X452.930 Y303.403 E16.60800
G1 X452.708 Y303.211 E16.62302
G1 X451.555 Y302.075 E16.70582
G1 X451.375 Y301.877 E16.71952
G1 X450.310 Y300.555 E16.80632
G1 X450.167 Y300.358 E16.81879
G1 X449.092 Y298.673 E16.92102
G1 X448.155 Y296.842 E17.02619
G1 X447.430 Y295.068 E17.12424
G1 X446.723 Y292.823 E17.24461
G1 X446.236 Y290.678 E17.35713
G1 X445.911 Y288.505 E17.46953
G1 X442.347 Y249.366 E19.47969
G1 X442.328 Y248.699 E19.51379
G1 X442.391 Y248.101 E19.54456
G1 X442.546 Y247.491 E19.57675
G1 X442.661 Y247.196 E19.59292
G1 X442.845 Y246.821 E19.61431
G1 X443.312 Y246.970 F6000.000
G1 F960
G1 X443.630 Y246.541 E19.64161
G1 X443.795 Y246.376 E19.65353
G1 X444.168 Y246.085 E19.67774
G1 X444.397 Y245.955 E19.69121
G1 X444.789 Y245.793 E19.71287
G1 X445.094 Y245.718 E19.72899
G1 X445.454 Y245.671 E19.74750
G1 X474.575 Y244.797 E21.23765
G1 X475.130 Y244.852 E21.26621
G1 X475.655 Y245.015 E21.29430
G1 X475.853 Y245.111 E21.30555
G1 X476.268 Y245.387 E21.33109
G1 X476.486 Y245.587 E21.34619
G1 X476.796 Y245.971 E21.37142
G1 X477.056 Y246.450 E21.39930
G1 X477.150 Y246.686 E21.41231
G1 X477.290 Y247.184 E21.43880
G1 X477.335 Y247.443 E21.45222
G1 X477.373 Y247.962 E21.47882
G1 X477.362 Y248.347 E21.49854
G1 X474.814 Y287.265 E23.49337
G1 X474.581 Y289.407 E23.60357
G1 X474.188 Y291.553 E23.71518
G1 X473.640 Y293.628 E23.82494
G1 X472.884 Y295.756 E23.94042
G1 X472.102 Y297.474 E24.03698
G1 X471.123 Y299.203 E24.13859
G1 X470.014 Y300.775 E24.23703
G1 X468.782 Y302.173 E24.33233
G1 X468.625 Y302.329 E24.34365
G1 X467.436 Y303.378 E24.42473
G1 X467.244 Y303.526 E24.43716
G1 X465.986 Y304.370 E24.51461
G1 X465.756 Y304.501 E24.52817
G1 X464.445 Y305.130 E24.60253
G1 X464.179 Y305.233 E24.61711
G1 X462.831 Y305.639 E24.68913
G1 X462.537 Y305.702 E24.70450
G1 X461.168 Y305.880 E24.77514
G1 X460.861 Y305.894 E24.79087
G1 X459.486 Y305.843 E24.86120
G1 X459.183 Y305.807 E24.87683
G1 X457.821 Y305.527 E24.94795
G1 X457.538 Y305.445 E24.96301
G1 X456.204 Y304.939 E25.03598
G1 X455.954 Y304.822 E25.05012
G1 X454.665 Y304.096 E25.12580
G1 X454.452 Y303.956 E25.13884
G1 X453.223 Y303.020 E25.21786
G1 X453.047 Y302.867 E25.22978
G1 X451.750 Y301.574 E25.32342
G1 X450.685 Y300.253 E25.41022
G1 X449.520 Y298.452 E25.51995
G1 X448.602 Y296.660 E25.62293
G1 X447.824 Y294.741 E25.72884
G1 X447.192 Y292.716 E25.83735
G1 X446.739 Y290.743 E25.94087
G1 X446.392 Y288.461 E26.05894
G1 X442.827 Y249.322 E28.06910
G1 X442.810 Y248.730 E28.09941
G1 X442.864 Y248.195 E28.12690
G1 X442.998 Y247.656 E28.15529
G1 X443.109 Y247.374 E28.17078
G1 X443.270 Y247.049 E28.18934
G1 X443.737 Y247.198 F6000.000
G1 F960
G1 X443.972 Y246.881 E28.20951
G1 X444.136 Y246.716 E28.22143
G1 X444.424 Y246.494 E28.24001
G1 X444.632 Y246.377 E28.25223
G1 X444.921 Y246.257 E28.26823
G1 X445.203 Y246.187 E28.28308
G1 X445.468 Y246.153 E28.29676
G1 X474.589 Y245.279 E29.78691
G1 X475.057 Y245.328 E29.81098
G1 X475.444 Y245.449 E29.83173
G1 X475.642 Y245.545 E29.84299
G1 X475.950 Y245.749 E29.86186
G1 X476.155 Y245.937 E29.87609
G1 X476.384 Y246.221 E29.89474
G1 X476.608 Y246.627 E29.91848
G1 X476.702 Y246.864 E29.93149
G1 X476.822 Y247.300 E29.95465
G1 X476.855 Y247.491 E29.96457
G1 X476.891 Y247.950 E29.98810
G1 X476.881 Y248.316 E30.00681
G1 X474.333 Y287.234 E32.00165
G1 X474.102 Y289.354 E32.11076
G1 X473.714 Y291.465 E32.22054
G1 X473.175 Y293.504 E32.32841
G1 X472.445 Y295.556 E32.43979
G1 X471.663 Y297.274 E32.53635
G1 X470.705 Y298.963 E32.63569
G1 X469.622 Y300.496 E32.73166
G1 X468.307 Y301.968 E32.83263
G1 X466.975 Y303.126 E32.92287
G1 X465.548 Y304.067 E33.01032
G1 X464.237 Y304.695 E33.08468
G1 X464.040 Y304.771 E33.09545
G1 X462.692 Y305.177 E33.16747
G1 X462.475 Y305.224 E33.17882
G1 X461.106 Y305.402 E33.24947
G1 X460.879 Y305.413 E33.26109
G1 X459.504 Y305.362 E33.33142
G1 X459.280 Y305.335 E33.34297
G1 X457.918 Y305.054 E33.41409
G1 X457.709 Y304.994 E33.42522
G1 X456.375 Y304.488 E33.49819
G1 X456.190 Y304.401 E33.50863
G1 X454.901 Y303.676 E33.58430
G1 X454.744 Y303.572 E33.59394
G1 X453.385 Y302.523 E33.68175
G1 X452.126 Y301.272 E33.77256
G1 X451.061 Y299.951 E33.85936
G1 X449.948 Y298.230 E33.96414
G1 X449.048 Y296.477 E34.06493
G1 X448.283 Y294.596 E34.16879
G1 X447.662 Y292.608 E34.27535
G1 X447.209 Y290.635 E34.37887
G1 X446.872 Y288.417 E34.49362
G1 X443.307 Y249.278 E36.50377
G1 X443.291 Y248.760 E36.53029
G1 X443.337 Y248.289 E36.55449
G1 X443.451 Y247.822 E36.57910
G1 X443.557 Y247.553 E36.59389
G1 X443.694 Y247.277 E36.60963
G1 X444.162 Y247.426 F6000.000
G1 F960
G1 X444.313 Y247.221 E36.62267
G1 X444.478 Y247.056 E36.63460
G1 X444.679 Y246.903 E36.64754
G1 X444.866 Y246.798 E36.65851
G1 X445.053 Y246.720 E36.66886
G1 X445.482 Y246.635 E36.69125
G1 X474.603 Y245.761 E38.18139
G1 X474.984 Y245.805 E38.20097
G1 X475.234 Y245.883 E38.21439
G1 X475.432 Y245.979 E38.22565
G1 X475.631 Y246.111 E38.23785
G1 X475.824 Y246.287 E38.25122
G1 X475.972 Y246.471 E38.26328
G1 X476.160 Y246.805 E38.28288
G1 X476.254 Y247.041 E38.29589
G1 X476.376 Y247.539 E38.32212
G1 X476.409 Y247.938 E38.34259
G1 X476.400 Y248.284 E38.36030
G1 X473.852 Y287.202 E40.35513
G1 X473.623 Y289.302 E40.46316
G1 X473.240 Y291.377 E40.57111
G1 X472.709 Y293.380 E40.67708
G1 X472.006 Y295.356 E40.78437
G1 X471.224 Y297.075 E40.88092
G1 X470.286 Y298.724 E40.97800
G1 X469.229 Y300.216 E41.07151
G1 X468.063 Y301.532 E41.16144
G1 X466.707 Y302.725 E41.25384
G1 X465.339 Y303.632 E41.33775
G1 X463.901 Y304.310 E41.41906
G1 X462.553 Y304.716 E41.49108
G1 X461.043 Y304.924 E41.56904
G1 X459.522 Y304.880 E41.64687
G1 X457.880 Y304.543 E41.73261
G1 X456.427 Y303.981 E41.81230
G1 X455.138 Y303.256 E41.88797
G1 X453.723 Y302.180 E41.97888
G1 X452.501 Y300.969 E42.06686
G1 X451.436 Y299.648 E42.15366
G1 X450.376 Y298.009 E42.25349
G1 X449.494 Y296.295 E42.35209
G1 X448.743 Y294.451 E42.45390
G1 X448.132 Y292.500 E42.55852
G1 X447.679 Y290.527 E42.66203
G1 X447.352 Y288.373 E42.77345
G1 X443.787 Y249.235 E44.78360
G1 X443.772 Y248.790 E44.80634
G1 X443.809 Y248.383 E44.82725
G1 X443.904 Y247.987 E44.84807
G1 X444.004 Y247.731 E44.86216
G1 X444.119 Y247.505 E44.87509
G1 E42.87509 F2400.00000
G92 E0
G1 X472.768 Y285.328 F6000.000
G1 E2.00000 F2400.00000
G1 F960
G1 X472.703 Y287.125 E2.09195
G1 X472.479 Y289.166 E2.19697
G1 X472.109 Y291.157 E2.30053
G1 X471.598 Y293.072 E2.40194
G1 X470.955 Y294.884 E2.50024
G1 X470.181 Y296.586 E2.59591
G1 X469.293 Y298.141 E2.68751
G1 X468.299 Y299.536 E2.77508
G1 X467.214 Y300.753 E2.85850
G1 X466.054 Y301.775 E2.93756
G1 X464.824 Y302.601 E3.01338
G1 X463.549 Y303.213 E3.08567
G1 X462.242 Y303.606 E3.15549
G1 X460.917 Y303.779 E3.22385
G1 X459.588 Y303.729 E3.29188
G1 X458.269 Y303.458 E3.36076
G1 X456.974 Y302.967 E3.43157
G1 X455.719 Y302.261 E3.50523
G1 X454.519 Y301.347 E3.58241
G1 X453.388 Y300.234 E3.66354
G1 X452.342 Y298.936 E3.74881
G1 X451.394 Y297.468 E3.83820
G1 X450.556 Y295.848 E3.93150
G1 X449.839 Y294.095 E4.02837
G1 X449.252 Y292.231 E4.12831
G1 X448.804 Y290.279 E4.23075
G1 X448.499 Y288.263 E4.33505
G1 X448.341 Y286.207 E4.44049
G1 X448.333 Y284.138 E4.54635
G1 X448.474 Y282.079 E4.65188
G1 X448.763 Y280.058 E4.75634
G1 X449.196 Y278.097 E4.85902
G1 X449.768 Y276.223 E4.95927
G1 X450.470 Y274.456 E5.05650
G1 X451.296 Y272.820 E5.15022
G1 X452.232 Y271.335 E5.24005
G1 X453.268 Y270.017 E5.32578
G1 X454.390 Y268.883 E5.40736
G1 X455.584 Y267.947 E5.48496
G1 X456.833 Y267.217 E5.55898
G1 X458.124 Y266.702 E5.63006
G1 X459.441 Y266.406 E5.69910
G1 X460.770 Y266.332 E5.76717
G1 X462.092 Y266.480 E5.83520
G1 X463.406 Y266.850 E5.90505
G1 X464.685 Y267.437 E5.97702
G1 X465.918 Y268.237 E6.05218
G1 X467.089 Y269.241 E6.13107
G1 X468.184 Y270.438 E6.21404
G1 X469.188 Y271.814 E6.30115
G1 X470.089 Y273.352 E6.39232
G1 X470.874 Y275.034 E6.48726
G1 X471.534 Y276.839 E6.58555
G1 X472.060 Y278.745 E6.68668
G1 X472.445 Y280.728 E6.79001
G1 X472.671 Y282.716 E6.89235
G1 X471.720 Y282.785 E6.94111
G1 X471.661 Y282.130 E6.97475
G1 X471.370 Y280.133 E7.07797
G1 X470.939 Y278.219 E7.17830
G1 X470.379 Y276.419 E7.27476
G1 X469.699 Y274.742 E7.36730
G1 X468.922 Y273.222 E7.45459
G1 X468.075 Y271.883 E7.53563
G1 X467.153 Y270.704 E7.61221
G1 X466.178 Y269.703 E7.68371
G1 X465.164 Y268.877 E7.75059
G1 X464.131 Y268.229 E7.81295
G1 X463.081 Y267.750 E7.87197
G1 X462.035 Y267.442 E7.92773
G1 X460.976 Y267.298 E7.98239
G1 X459.906 Y267.317 E8.03713
G1 X458.837 Y267.498 E8.09260
G1 X457.773 Y267.845 E8.14985
G1 X456.719 Y268.363 E8.20990
G1 X455.671 Y269.066 E8.27447
G1 X454.641 Y269.965 E8.34439
G1 X453.654 Y271.049 E8.41937
G1 X452.733 Y272.306 E8.49908
G1 X451.896 Y273.722 E8.58323
G1 X451.132 Y275.344 E8.67490
G1 X450.485 Y277.104 E8.77084
G1 X449.964 Y278.988 E8.87080
G1 X449.582 Y280.983 E8.97469
G1 X449.353 Y283.035 E9.08032
G1 X449.278 Y285.105 E9.18623
G1 X449.359 Y287.170 E9.29196
G1 X449.594 Y289.207 E9.39685
G1 X449.971 Y291.156 E9.49834
G1 X450.481 Y293.002 E9.59634
G1 X451.116 Y294.733 E9.69062
G1 X451.853 Y296.312 E9.77977
G1 X452.672 Y297.719 E9.86302
G1 X453.225 Y298.518 E9.91275
G1 X454.161 Y299.656 E9.98811
G1 X455.149 Y300.620 E10.05870
G1 X456.164 Y301.403 E10.12424
G1 X457.192 Y302.009 E10.18529
G1 X458.232 Y302.445 E10.24297
G1 X459.286 Y302.717 E10.29864
G1 X460.354 Y302.827 E10.35358
G1 X461.328 Y302.786 E10.40345
G1 X462.391 Y302.586 E10.45878
G1 X463.451 Y302.219 E10.51613
G1 X464.508 Y301.676 E10.57694
G1 X465.560 Y300.942 E10.64252
G1 X466.584 Y300.021 E10.71297
G1 X467.556 Y298.926 E10.78789
G1 X468.471 Y297.645 E10.86839
G1 X469.179 Y296.431 E10.94027
G1 X469.945 Y294.814 E11.03178
G1 X470.596 Y293.059 E11.12753
G1 X471.121 Y291.175 E11.22753
G1 X471.505 Y289.192 E11.33089
G1 X471.739 Y287.136 E11.43671
G1 X471.808 Y285.328 E11.52923
G1 X472.678 Y285.328 E11.57373
G1 X472.650 Y285.917 F6000.000
G1 X472.279 Y285.569 F6000.000
G1 F960
G1 X472.217 Y287.163 E11.64176
G1 X472.001 Y289.096 E11.72471
G1 X471.637 Y291.050 E11.80951
G1 X471.051 Y293.196 E11.90441
G1 X470.378 Y295.007 E11.98684
G1 X469.748 Y296.365 E12.05066
G1 X468.888 Y297.882 E12.12507
G1 X467.923 Y299.236 E12.19596
G1 X466.915 Y300.369 E12.26067
G1 X465.867 Y301.306 E12.32064
G1 X464.765 Y302.072 E12.37789
G1 X464.583 Y302.181 E12.38693
G1 X463.621 Y302.658 E12.43275
G1 X463.373 Y302.759 E12.44415
G1 X462.527 Y303.033 E12.48210
G1 X462.140 Y303.128 E12.49912
G1 X461.397 Y303.247 E12.53118
G1 X460.894 Y303.291 E12.55273
G1 X460.324 Y303.291 E12.57705
G1 X459.646 Y303.244 E12.60604
G1 X459.187 Y303.172 E12.62587
G1 X458.404 Y302.991 E12.66013
G1 X458.098 Y302.894 E12.67385
G1 X457.179 Y302.528 E12.71601
G1 X456.967 Y302.423 E12.72613
G1 X455.885 Y301.789 E12.77963
G1 X454.834 Y300.983 E12.83612
G1 X453.801 Y299.970 E12.89784
G1 X452.733 Y298.654 E12.97015
G1 X452.271 Y297.963 E13.00559
G1 X451.817 Y297.223 E13.04263
G1 X451.442 Y296.539 E13.07590
G1 X451.000 Y295.642 E13.11853
G1 X450.685 Y294.923 E13.15204
G1 X450.299 Y293.929 E13.19753
G1 X450.036 Y293.155 E13.23239
G1 X449.725 Y292.103 E13.27920
G1 X449.515 Y291.272 E13.31576
G1 X449.285 Y290.187 E13.36304
G1 X449.127 Y289.271 E13.40273
