; generated by Slic3r 1.3.0-dev on 2018-05-31 at 17:24:53

; external perimeters extrusion width = 0.66mm (7.15mm^3/s)
; perimeters extrusion width = 0.84mm (11.63mm^3/s)
; infill extrusion width = 0.75mm (10.28mm^3/s)
; solid infill extrusion width = 0.84mm (11.63mm^3/s)
; top infill extrusion width = 0.84mm (11.63mm^3/s)

M107
M104 S205 ; set temperature
G28 ; home all axes
G32; probe home individual Z axis
G29 S1; load bed mesh

M117 Purge extruder
G92 E0 ; reset extruder
G1 Z1.0 F3000 ; move z up little to prevent scratching of surface
G1 X100 Y20 Z0.3 F5000.0 ; move to start-line position
G1 X10 Y200.0 Z0.3 F1500.0 E15 ; draw 1st line
G1 X100.5 Y200.0 Z0.3 F5000.0 ; move to side a little
G1 X100.5 Y20 Z0.3 F1500.0 E30 ; draw 2nd line
; G1 E27 F3000 ; retract filament 3mm
G92 E0 ; reset extruder
; done purging extruder
G1 Z1.0 F3000 ; move z up little to prevent scratching of surface
M117 Printing!

; Filament gcode

M109 S205 ; set temperature and wait for it to be reached
G21 ; set units to millimeters
G90 ; use absolute coordinates
M82 ; use absolute distances for extrusion
G92 E0
G1 Z0.320 F6000.000
G1 E-2.00000 F2400.00000
G92 E0
G1 X453.374 Y241.811 F6000.000
G1 E2.00000 F2400.00000
G1 F1680
G1 X454.013 Y240.682 E2.05147
G1 X454.617 Y239.767 E2.09492
G1 X454.902 Y239.355 E2.11479
G1 X455.693 Y238.366 E2.16502
G1 X456.721 Y237.279 E2.22434
G1 X457.187 Y236.852 E2.24938
G1 X458.146 Y236.082 E2.29817
G1 X459.003 Y235.507 E2.33910
G1 X460.038 Y234.940 E2.38589
G1 X461.277 Y234.430 E2.43900
G1 X462.146 Y234.174 E2.47495
G1 X463.215 Y233.968 E2.51809
G1 X464.044 Y233.889 E2.55113
G1 X464.916 Y233.880 E2.58572
G1 X465.980 Y233.974 E2.62808
G1 X467.037 Y234.181 E2.67076
G1 X467.556 Y234.326 E2.69213
G1 X468.428 Y234.635 E2.72885
G1 X469.573 Y235.173 E2.77898
G1 X470.398 Y235.662 E2.81703
G1 X471.153 Y236.188 E2.85352
G1 X472.079 Y236.951 E2.90109
G1 X472.811 Y237.662 E2.94154
G1 X473.047 Y237.903 E2.95494
G1 X473.858 Y238.842 E3.00412
G1 X474.639 Y239.899 E3.05622
G1 X475.333 Y241.004 E3.10799
G1 X476.064 Y242.370 E3.16942
G1 X476.664 Y243.701 E3.22729
G1 X477.171 Y245.037 E3.28396
G1 X477.692 Y246.717 E3.35371
G1 X478.063 Y248.245 E3.41607
G1 X478.233 Y249.153 E3.45271
G1 X478.382 Y250.001 E3.48684
G1 X478.577 Y251.604 E3.55085
G1 X478.691 Y253.333 E3.61957
G1 X478.705 Y253.791 E3.63775
G1 X478.680 Y255.916 E3.72202
G1 X478.549 Y257.651 E3.79102
G1 X478.367 Y259.014 E3.84552
G1 X478.286 Y259.570 E3.86783
G1 X477.949 Y261.250 E3.93575
G1 X477.456 Y263.082 E4.01099
G1 X477.168 Y263.963 E4.04776
G1 X476.566 Y265.531 E4.11435
G1 X475.929 Y266.916 E4.17478
G1 X475.157 Y268.330 E4.23866
G1 X474.298 Y269.657 E4.30137
G1 X473.618 Y270.563 E4.34630
G1 X472.817 Y271.493 E4.39496
G1 X471.759 Y272.531 E4.45373
G1 X470.885 Y273.246 E4.49851
G1 X470.052 Y273.822 E4.53867
G1 X468.919 Y274.453 E4.59008
G1 X467.946 Y274.869 E4.63204
G1 X467.591 Y274.990 E4.64690
G1 X466.756 Y275.225 E4.68130
G1 X465.727 Y275.408 E4.72276
G1 X464.532 Y275.479 E4.77024
G1 X463.992 Y275.460 E4.79164
G1 X463.041 Y275.354 E4.82959
G1 X461.931 Y275.103 E4.87473
G1 X460.924 Y274.758 E4.91693
G1 X459.847 Y274.257 E4.96404
G1 X459.305 Y273.947 E4.98877
G1 X458.468 Y273.393 E5.02859
G1 X457.549 Y272.667 E5.07502
G1 X456.685 Y271.857 E5.12199
G1 X455.937 Y271.046 E5.16573
G1 X455.091 Y269.984 E5.21957
G1 X454.248 Y268.742 E5.27910
G1 X453.538 Y267.518 E5.33519
G1 X452.836 Y266.097 E5.39805
G1 X452.214 Y264.594 E5.46257
G1 X451.687 Y263.045 E5.52745
G1 X451.253 Y261.450 E5.59298
G1 X450.910 Y259.813 E5.65931
G1 X450.729 Y258.670 E5.70518
G1 X450.534 Y256.862 E5.77729
G1 X450.446 Y255.042 E5.84956
G1 X450.464 Y253.318 E5.91791
G1 X450.589 Y251.483 E5.99084
G1 X450.828 Y249.646 E6.06431
G1 X451.098 Y248.215 E6.12206
G1 X451.488 Y246.625 E6.18697
G1 X452.040 Y244.876 E6.25969
G1 X452.659 Y243.304 E6.32669
G1 X453.332 Y241.891 E6.38875
G1 X453.648 Y241.967 F6000.000
G1 F1680
G1 X454.288 Y240.837 E6.44022
G1 X454.878 Y239.944 E6.48268
G1 X455.148 Y239.552 E6.50155
G1 X455.939 Y238.563 E6.55178
G1 X456.935 Y237.510 E6.60923
G1 X457.386 Y237.097 E6.63347
G1 X458.322 Y236.344 E6.68112
G1 X459.179 Y235.769 E6.72204
G1 X460.188 Y235.218 E6.76762
G1 X461.366 Y234.733 E6.81814
G1 X462.235 Y234.476 E6.85409
G1 X463.271 Y234.278 E6.89591
G1 X464.047 Y234.204 E6.92682
G1 X464.920 Y234.195 E6.96141
G1 X465.950 Y234.287 E7.00243
G1 X466.973 Y234.490 E7.04378
G1 X467.451 Y234.623 E7.06348
G1 X468.322 Y234.932 E7.10013
G1 X469.413 Y235.445 E7.14791
G1 X470.237 Y235.933 E7.18588
G1 X470.970 Y236.445 E7.22136
G1 X471.876 Y237.193 E7.26794
G1 X472.590 Y237.887 E7.30741
G1 X472.810 Y238.110 E7.31983
G1 X473.605 Y239.031 E7.36808
G1 X474.373 Y240.068 E7.41925
G1 X475.066 Y241.172 E7.47094
G1 X475.778 Y242.502 E7.53074
G1 X476.370 Y243.814 E7.58782
G1 X476.876 Y245.148 E7.64441
G1 X477.386 Y246.792 E7.71266
G1 X477.757 Y248.319 E7.77497
G1 X477.923 Y249.210 E7.81092
G1 X478.069 Y250.040 E7.84432
G1 X478.264 Y251.641 E7.90828
G1 X478.377 Y253.352 E7.97629
G1 X478.390 Y253.799 E7.99399
G1 X478.365 Y255.893 E8.07703
G1 X478.235 Y257.627 E8.14599
G1 X478.054 Y258.971 E8.19977
G1 X477.977 Y259.508 E8.22130
G1 X477.640 Y261.187 E8.28919
G1 X477.156 Y262.985 E8.36301
G1 X476.873 Y263.851 E8.39915
G1 X476.280 Y265.399 E8.46490
G1 X475.642 Y266.784 E8.52533
G1 X474.881 Y268.178 E8.58833
G1 X474.034 Y269.485 E8.65010
G1 X473.379 Y270.358 E8.69336
G1 X472.578 Y271.288 E8.74202
G1 X471.559 Y272.287 E8.79862
G1 X470.685 Y273.002 E8.84339
G1 X469.874 Y273.562 E8.88245
G1 X468.794 Y274.163 E8.93150
G1 X467.841 Y274.572 E8.97261
G1 X467.506 Y274.687 E8.98663
G1 X466.671 Y274.921 E9.02103
G1 X465.674 Y275.097 E9.06115
G1 X464.540 Y275.164 E9.10623
G1 X464.025 Y275.146 E9.12665
G1 X463.094 Y275.044 E9.16381
G1 X462.004 Y274.797 E9.20809
G1 X461.030 Y274.461 E9.24898
G1 X460.000 Y273.981 E9.29401
G1 X459.478 Y273.684 E9.31783
G1 X458.643 Y273.131 E9.35755
G1 X457.748 Y272.421 E9.40285
G1 X456.902 Y271.629 E9.44879
G1 X456.170 Y270.834 E9.49163
G1 X455.339 Y269.789 E9.54458
G1 X454.520 Y268.583 E9.60240
G1 X453.821 Y267.379 E9.65762
G1 X453.119 Y265.958 E9.72048
G1 X452.506 Y264.474 E9.78414
G1 X451.986 Y262.944 E9.84821
G1 X451.557 Y261.368 E9.91297
G1 X451.219 Y259.749 E9.97856
G1 X451.042 Y258.636 E10.02324
G1 X450.848 Y256.847 E10.09460
G1 X450.762 Y255.045 E10.16613
G1 X450.779 Y253.321 E10.23448
G1 X450.904 Y251.505 E10.30666
G1 X451.141 Y249.687 E10.37936
G1 X451.404 Y248.290 E10.43574
G1 X451.794 Y246.700 E10.50066
G1 X452.333 Y244.991 E10.57173
G1 X452.902 Y243.535 E10.63371
G1 X453.607 Y242.047 E10.69901
G1 X453.923 Y242.122 F6000.000
G1 F1680
G1 X454.562 Y240.992 E10.75048
G1 X455.139 Y240.120 E10.79194
G1 X455.395 Y239.749 E10.80982
G1 X456.186 Y238.759 E10.86005
G1 X457.149 Y237.742 E10.91562
G1 X457.585 Y237.342 E10.93907
G1 X458.498 Y236.606 E10.98557
G1 X459.355 Y236.031 E11.02649
G1 X460.337 Y235.496 E11.07085
G1 X461.455 Y235.035 E11.11880
G1 X462.325 Y234.779 E11.15475
G1 X463.328 Y234.588 E11.19525
G1 X464.050 Y234.519 E11.22401
G1 X464.923 Y234.511 E11.25861
G1 X465.919 Y234.601 E11.29828
G1 X466.909 Y234.799 E11.33831
G1 X467.347 Y234.921 E11.35633
G1 X468.216 Y235.229 E11.39292
G1 X469.253 Y235.717 E11.43835
G1 X470.075 Y236.204 E11.47624
G1 X470.853 Y236.753 E11.51399
G1 X471.674 Y237.434 E11.55629
G1 X472.369 Y238.112 E11.59479
G1 X472.572 Y238.317 E11.60623
G1 X473.352 Y239.220 E11.65354
G1 X474.107 Y240.238 E11.70379
G1 X474.799 Y241.340 E11.75539
G1 X475.491 Y242.633 E11.81357
G1 X476.075 Y243.927 E11.86985
G1 X476.581 Y245.259 E11.92637
G1 X477.079 Y246.868 E11.99313
G1 X477.450 Y248.393 E12.05537
G1 X477.612 Y249.267 E12.09063
G1 X477.756 Y250.079 E12.12331
G1 X477.951 Y251.678 E12.18722
G1 X478.062 Y253.372 E12.25451
G1 X478.074 Y253.806 E12.27172
G1 X478.051 Y255.869 E12.35355
G1 X477.920 Y257.603 E12.42248
G1 X477.742 Y258.928 E12.47552
G1 X477.668 Y259.446 E12.49627
G1 X477.331 Y261.124 E12.56414
G1 X476.856 Y262.888 E12.63654
G1 X476.578 Y263.739 E12.67206
G1 X475.993 Y265.268 E12.73695
G1 X475.356 Y266.652 E12.79738
G1 X474.604 Y268.026 E12.85950
G1 X473.769 Y269.313 E12.92032
G1 X473.140 Y270.152 E12.96193
G1 X472.339 Y271.082 E13.01058
G1 X471.359 Y272.043 E13.06501
G1 X470.485 Y272.758 E13.10978
G1 X469.697 Y273.301 E13.14775
G1 X468.668 Y273.874 E13.19442
G1 X467.735 Y274.275 E13.23469
G1 X467.421 Y274.383 E13.24787
G1 X466.586 Y274.617 E13.28227
G1 X465.622 Y274.786 E13.32106
G1 X464.548 Y274.849 E13.36374
G1 X464.058 Y274.833 E13.38316
G1 X463.146 Y274.733 E13.41953
G1 X462.078 Y274.490 E13.46297
G1 X461.135 Y274.164 E13.50253
G1 X460.154 Y273.706 E13.54549
G1 X459.651 Y273.420 E13.56840
G1 X458.818 Y272.869 E13.60801
G1 X457.946 Y272.176 E13.65219
G1 X457.120 Y271.401 E13.69710
G1 X456.404 Y270.623 E13.73904
G1 X455.587 Y269.595 E13.79109
G1 X454.793 Y268.424 E13.84721
G1 X454.104 Y267.239 E13.90156
G1 X453.401 Y265.818 E13.96441
G1 X452.797 Y264.354 E14.02721
G1 X452.285 Y262.843 E14.09048
G1 X451.862 Y261.286 E14.15447
G1 X451.528 Y259.685 E14.21932
G1 X451.356 Y258.602 E14.26280
G1 X451.163 Y256.831 E14.33342
G1 X451.077 Y255.048 E14.40421
G1 X451.094 Y253.324 E14.47256
G1 X451.218 Y251.527 E14.54399
G1 X451.454 Y249.729 E14.61592
G1 X451.710 Y248.365 E14.67093
G1 X452.101 Y246.775 E14.73585
G1 X452.627 Y245.106 E14.80527
G1 X453.196 Y243.650 E14.86725
G1 X453.881 Y242.202 E14.93077
G1 X454.197 Y242.277 F6000.000
G1 F1680
G1 X454.837 Y241.148 E14.98225
G1 X455.400 Y240.297 E15.02271
G1 X455.641 Y239.946 E15.03959
G1 X456.432 Y238.956 E15.08982
G1 X457.363 Y237.973 E15.14353
G1 X457.784 Y237.586 E15.16617
G1 X458.673 Y236.868 E15.21153
G1 X459.530 Y236.293 E15.25245
G1 X460.487 Y235.774 E15.29560
G1 X461.544 Y235.338 E15.34096
G1 X462.414 Y235.081 E15.37691
G1 X463.385 Y234.899 E15.41610
G1 X464.053 Y234.835 E15.44272
G1 X464.926 Y234.826 E15.47731
G1 X465.888 Y234.915 E15.51564
G1 X466.845 Y235.107 E15.55434
G1 X467.242 Y235.218 E15.57068
G1 X468.110 Y235.526 E15.60722
G1 X469.093 Y235.989 E15.65029
G1 X469.914 Y236.475 E15.68811
G1 X470.652 Y236.996 E15.72394
G1 X471.471 Y237.676 E15.76615
G1 X472.149 Y238.337 E15.80369
G1 X472.334 Y238.524 E15.81413
G1 X473.100 Y239.408 E15.86051
G1 X473.841 Y240.407 E15.90984
G1 X474.532 Y241.507 E15.96135
G1 X475.183 Y242.720 E16.01594
G1 X475.328 Y243.034 E16.02965
G1 X475.781 Y244.040 E16.07340
G1 X476.286 Y245.371 E16.12984
G1 X476.773 Y246.943 E16.19510
G1 X477.144 Y248.467 E16.25727
G1 X477.302 Y249.324 E16.29186
G1 X477.443 Y250.117 E16.32381
G1 X477.638 Y251.716 E16.38766
G1 X477.759 Y253.813 E16.47096
G1 X477.736 Y255.846 E16.55157
G1 X477.606 Y257.578 E16.62046
G1 X477.429 Y258.886 E16.67278
G1 X477.359 Y259.384 E16.69275
G1 X477.021 Y261.062 E16.76059
G1 X476.556 Y262.790 E16.83157
G1 X476.284 Y263.627 E16.86646
G1 X475.707 Y265.136 E16.93051
G1 X475.070 Y266.520 E16.99093
G1 X474.328 Y267.874 E17.05217
G1 X473.505 Y269.141 E17.11205
G1 X472.901 Y269.946 E17.15199
G1 X472.100 Y270.876 E17.20065
G1 X471.160 Y271.799 E17.25289
G1 X470.228 Y272.558 E17.30055
G1 X469.456 Y273.079 E17.33747
G1 X468.543 Y273.584 E17.37885
G1 X467.630 Y273.977 E17.41827
G1 X467.336 Y274.080 E17.43061
G1 X466.501 Y274.314 E17.46501
G1 X465.570 Y274.475 E17.50246
G1 X464.556 Y274.534 E17.54275
G1 X464.091 Y274.519 E17.56117
G1 X463.199 Y274.422 E17.59675
G1 X462.152 Y274.183 E17.63935
G1 X461.241 Y273.867 E17.67759
G1 X460.307 Y273.430 E17.71847
G1 X459.825 Y273.157 E17.74046
G1 X458.994 Y272.607 E17.77998
G1 X458.144 Y271.931 E17.82304
G1 X457.338 Y271.173 E17.86691
G1 X456.638 Y270.411 E17.90794
G1 X455.836 Y269.400 E17.95911
G1 X455.065 Y268.264 E18.01353
G1 X454.386 Y267.099 E18.06700
G1 X453.684 Y265.678 E18.12985
G1 X453.089 Y264.234 E18.19178
G1 X452.584 Y262.742 E18.25425
G1 X452.166 Y261.203 E18.31747
G1 X451.837 Y259.621 E18.38157
G1 X451.669 Y258.567 E18.42387
G1 X451.478 Y256.815 E18.49374
G1 X451.392 Y255.051 E18.56378
G1 X451.410 Y253.328 E18.63213
G1 X451.533 Y251.549 E18.70281
G1 X451.766 Y249.770 E18.77398
G1 X452.016 Y248.440 E18.82763
G1 X452.407 Y246.851 E18.89254
G1 X452.921 Y245.220 E18.96032
G1 X453.490 Y243.765 E19.02230
G1 X454.157 Y242.358 E19.08404
G1 X454.472 Y242.433 F6000.000
G1 F1680
G1 X455.111 Y241.303 E19.13551
G1 X455.662 Y240.474 E19.17498
G1 X455.887 Y240.143 E19.19087
G1 X456.678 Y239.153 E19.24110
G1 X457.577 Y238.205 E19.29293
G1 X457.983 Y237.831 E19.31478
G1 X458.849 Y237.129 E19.35899
G1 X459.706 Y236.554 E19.39991
G1 X460.636 Y236.051 E19.44184
G1 X461.633 Y235.640 E19.48462
G1 X462.503 Y235.384 E19.52057
G1 X463.442 Y235.209 E19.55844
G1 X464.056 Y235.150 E19.58292
G1 X464.929 Y235.141 E19.61751
G1 X465.858 Y235.229 E19.65451
G1 X466.781 Y235.416 E19.69188
G1 X467.137 Y235.516 E19.70654
G1 X468.004 Y235.823 E19.74302
G1 X468.933 Y236.261 E19.78374
G1 X469.752 Y236.745 E19.82147
G1 X470.451 Y237.239 E19.85539
G1 X471.268 Y237.917 E19.89752
G1 X471.928 Y238.562 E19.93408
G1 X472.096 Y238.731 E19.94354
G1 X472.847 Y239.597 E19.98898
G1 X473.575 Y240.577 E20.03739
G1 X474.265 Y241.675 E20.08882
G1 X474.905 Y242.869 E20.14252
G1 X475.043 Y243.169 E20.15562
G1 X475.487 Y244.153 E20.19844
G1 X475.991 Y245.482 E20.25481
G1 X476.467 Y247.018 E20.31857
G1 X476.837 Y248.540 E20.38069
G1 X476.992 Y249.381 E20.41458
G1 X477.130 Y250.156 E20.44581
G1 X477.325 Y251.753 E20.50961
G1 X477.444 Y253.821 E20.59171
G1 X477.422 Y255.823 E20.67110
G1 X477.292 Y257.554 E20.73996
G1 X477.117 Y258.843 E20.79155
G1 X477.050 Y259.322 E20.81073
G1 X476.712 Y260.999 E20.87854
G1 X476.256 Y262.693 E20.94812
G1 X475.989 Y263.515 E20.98237
G1 X475.421 Y265.004 E21.04557
G1 X474.783 Y266.388 E21.10599
G1 X474.052 Y267.723 E21.16635
G1 X473.241 Y268.969 E21.22529
G1 X472.662 Y269.741 E21.26357
G1 X471.861 Y270.671 E21.31223
G1 X470.995 Y271.524 E21.36044
G1 X470.050 Y272.297 E21.40886
G1 X469.303 Y272.804 E21.44466
G1 X468.418 Y273.295 E21.48478
G1 X467.525 Y273.680 E21.52335
G1 X467.251 Y273.776 E21.53486
G1 X466.416 Y274.010 E21.56926
G1 X465.518 Y274.164 E21.60537
G1 X464.564 Y274.219 E21.64326
G1 X464.125 Y274.205 E21.66069
G1 X463.252 Y274.111 E21.69549
G1 X462.226 Y273.877 E21.73723
G1 X461.347 Y273.570 E21.77416
G1 X460.461 Y273.155 E21.81296
G1 X459.998 Y272.893 E21.83404
G1 X459.169 Y272.344 E21.87345
G1 X458.342 Y271.685 E21.91539
G1 X457.555 Y270.945 E21.95824
G1 X456.871 Y270.199 E21.99836
G1 X456.084 Y269.205 E22.04864
G1 X455.337 Y268.105 E22.10135
G1 X454.669 Y266.959 E22.15395
G1 X453.967 Y265.539 E22.21679
G1 X453.381 Y264.115 E22.27786
G1 X452.882 Y262.641 E22.33953
G1 X452.471 Y261.121 E22.40198
G1 X452.145 Y259.557 E22.46534
G1 X451.983 Y258.533 E22.50645
G1 X451.793 Y256.800 E22.57558
G1 X451.708 Y255.054 E22.64487
G1 X451.725 Y253.331 E22.71322
G1 X451.847 Y251.571 E22.78315
G1 X452.079 Y249.811 E22.85355
G1 X452.323 Y248.516 E22.90583
G1 X452.713 Y246.926 E22.97074
G1 X453.214 Y245.335 E23.03687
G1 X453.783 Y243.879 E23.09885
G1 X454.432 Y242.513 E23.15881
G1 E21.15881 F2400.00000
G92 E0
G1 X473.468 Y264.537 F6000.000
G1 E2.00000 F2400.00000
G1 F2100
G1 X473.017 Y265.518 E2.04282
G1 X472.353 Y266.727 E2.09753
G1 X471.618 Y267.853 E2.15084
G1 X471.138 Y268.493 E2.18257
G1 X470.409 Y269.340 E2.22690
G1 X469.662 Y270.073 E2.26837
G1 X468.889 Y270.706 E2.30801
G1 X468.286 Y271.117 E2.33692
G1 X467.569 Y271.517 E2.36949
G1 X466.821 Y271.841 E2.40181
G1 X465.959 Y272.094 E2.43743
G1 X465.271 Y272.209 E2.46508
G1 X464.555 Y272.249 E2.49351
G1 X464.275 Y272.242 E2.50463
G1 X463.579 Y272.167 E2.53240
G1 X462.752 Y271.978 E2.56605
G1 X462.072 Y271.738 E2.59465
G1 X461.377 Y271.412 E2.62506
G1 X461.037 Y271.220 E2.64056
G1 X460.315 Y270.742 E2.67490
G1 X459.620 Y270.187 E2.71016
G1 X458.947 Y269.552 E2.74685
G1 X458.360 Y268.910 E2.78132
G1 X457.662 Y268.027 E2.82598
G1 X457.012 Y267.070 E2.87186
G1 X456.411 Y266.042 E2.91907
G1 X455.754 Y264.712 E2.97790
G1 X455.219 Y263.410 E3.03370
G1 X454.762 Y262.054 E3.09043
G1 X454.382 Y260.649 E3.14814
G1 X454.080 Y259.190 E3.20722
G1 X453.936 Y258.283 E3.24365
G1 X453.757 Y256.659 E3.30844
G1 X453.677 Y255.031 E3.37308
