; generated by Slic3r 1.3.0-dev on 2018-05-31 at 16:08:37

; external perimeters extrusion width = 0.66mm (7.15mm^3/s)
; perimeters extrusion width = 0.84mm (11.63mm^3/s)
; infill extrusion width = 0.75mm (10.28mm^3/s)
; solid infill extrusion width = 0.84mm (11.63mm^3/s)
; top infill extrusion width = 0.84mm (11.63mm^3/s)

M107
M104 S205 ; set temperature
G28 ; home all axes
G32; probe home individual Z axis
G29 S1; load bed mesh

; Filament gcode

M109 S205 ; set temperature and wait for it to be reached
G21 ; set units to millimeters
G90 ; use absolute coordinates
M82 ; use absolute distances for extrusion
G92 E0
G1 Z0.320 F6000.000
G1 E-2.00000 F2400.00000
G92 E0
G1 X442.986 Y94.633 F6000.000
G1 E2.00000 F2400.00000
G1 F1680
G1 X443.490 Y92.739 E2.07769
G1 X444.080 Y91.028 E2.14946
G1 X444.790 Y89.401 E2.21984
G1 X445.380 Y88.275 E2.27026
G1 X446.202 Y86.941 E2.33239
G1 X447.008 Y85.836 E2.38664
G1 X447.979 Y84.714 E2.44547
G1 X448.379 Y84.308 E2.46806
G1 X449.236 Y83.535 E2.51384
G1 X450.411 Y82.665 E2.57180
G1 X451.493 Y82.031 E2.62151
G1 X452.394 Y81.621 E2.66078
G1 X453.308 Y81.299 E2.69923
G1 X454.431 Y81.026 E2.74504
G1 X454.942 Y80.946 E2.76553
G1 X455.861 Y80.868 E2.80214
G1 X457.185 Y80.905 E2.85465
G1 X458.316 Y81.077 E2.90001
G1 X459.331 Y81.345 E2.94165
G1 X460.583 Y81.831 E2.99489
G1 X461.571 Y82.346 E3.03906
G1 X462.236 Y82.774 E3.07043
G1 X463.118 Y83.423 E3.11383
G1 X463.958 Y84.159 E3.15814
G1 X464.853 Y85.083 E3.20915
G1 X465.417 Y85.750 E3.24380
G1 X466.206 Y86.814 E3.29631
G1 X466.829 Y87.797 E3.34247
G1 X467.055 Y88.169 E3.35973
G1 X467.754 Y89.502 E3.41938
G1 X468.478 Y91.176 E3.49173
G1 X469.020 Y92.750 E3.55772
G1 X469.446 Y94.307 E3.62173
G1 X469.804 Y96.011 E3.69080
G1 X469.895 Y96.607 E3.71470
G1 X470.071 Y97.857 E3.76474
G1 X470.213 Y99.547 E3.83200
G1 X470.239 Y100.104 E3.85409
G1 X470.253 Y101.963 E3.92781
G1 X470.148 Y103.924 E4.00569
G1 X469.903 Y105.985 E4.08799
G1 X469.566 Y107.817 E4.16187
G1 X469.087 Y109.729 E4.24001
G1 X468.940 Y110.222 E4.26040
G1 X468.384 Y111.851 E4.32868
G1 X467.697 Y113.498 E4.39944
G1 X466.848 Y115.165 E4.47363
G1 X466.041 Y116.481 E4.53484
G1 X465.550 Y117.181 E4.56874
G1 X464.746 Y118.190 E4.61989
G1 X463.796 Y119.200 E4.67488
G1 X462.651 Y120.194 E4.73501
G1 X461.818 Y120.784 E4.77547
G1 X460.758 Y121.388 E4.82386
G1 X459.737 Y121.837 E4.86808
G1 X459.436 Y121.943 E4.88075
G1 X458.548 Y122.201 E4.91739
G1 X457.456 Y122.402 E4.96143
G1 X456.340 Y122.476 E5.00577
G1 X456.008 Y122.473 E5.01897
G1 X454.909 Y122.381 E5.06270
G1 X453.825 Y122.164 E5.10650
G1 X452.764 Y121.826 E5.15067
G1 X451.891 Y121.450 E5.18835
G1 X451.579 Y121.294 E5.20219
G1 X450.546 Y120.671 E5.25004
G1 X449.567 Y119.940 E5.29846
G1 X448.653 Y119.116 E5.34730
G1 X448.150 Y118.596 E5.37597
G1 X447.252 Y117.534 E5.43111
G1 X446.433 Y116.390 E5.48690
G1 X445.742 Y115.266 E5.53923
G1 X445.192 Y114.237 E5.58549
G1 X444.534 Y112.813 E5.64771
G1 X443.920 Y111.218 E5.71546
G1 X443.401 Y109.565 E5.78416
G1 X442.976 Y107.856 E5.85399
G1 X442.860 Y107.300 E5.87650
G1 X442.545 Y105.397 E5.95302
G1 X442.344 Y103.435 E6.03121
G1 X442.264 Y101.347 E6.11406
G1 X442.311 Y99.480 E6.18814
G1 X442.487 Y97.506 E6.26670
G1 X442.651 Y96.353 E6.31289
G1 X442.969 Y94.721 E6.37882
G1 X443.296 Y94.693 F6000.000
G1 F1680
G1 X443.758 Y92.939 E6.45074
G1 X444.370 Y91.152 E6.52564
G1 X445.070 Y89.547 E6.59508
G1 X445.650 Y88.440 E6.64464
G1 X446.457 Y87.127 E6.70575
G1 X447.263 Y86.021 E6.75999
G1 X448.216 Y84.922 E6.81772
G1 X448.590 Y84.542 E6.83883
G1 X449.448 Y83.769 E6.88461
G1 X450.572 Y82.936 E6.94011
G1 X451.627 Y82.317 E6.98861
G1 X452.498 Y81.918 E7.02662
G1 X453.413 Y81.596 E7.06507
G1 X454.503 Y81.333 E7.10950
G1 X454.968 Y81.260 E7.12820
G1 X455.888 Y81.182 E7.16481
G1 X457.141 Y81.217 E7.21450
G1 X458.236 Y81.382 E7.25840
G1 X459.250 Y81.650 E7.30000
G1 X460.439 Y82.112 E7.35059
G1 X461.407 Y82.616 E7.39384
G1 X462.051 Y83.030 E7.42421
G1 X462.911 Y83.661 E7.46651
G1 X463.750 Y84.396 E7.51074
G1 X464.625 Y85.301 E7.56067
G1 X465.165 Y85.939 E7.59379
G1 X465.952 Y87.001 E7.64622
G1 X466.561 Y87.963 E7.69138
G1 X466.776 Y88.317 E7.70781
G1 X467.465 Y89.628 E7.76652
G1 X468.181 Y91.281 E7.83795
G1 X468.716 Y92.835 E7.90311
G1 X469.142 Y94.390 E7.96706
G1 X469.495 Y96.075 E8.03533
G1 X469.583 Y96.653 E8.05852
G1 X469.757 Y97.884 E8.10781
G1 X469.899 Y99.573 E8.17501
G1 X469.924 Y100.107 E8.19620
G1 X469.938 Y101.965 E8.26987
G1 X469.833 Y103.906 E8.34696
G1 X469.606 Y105.839 E8.42416
G1 X469.392 Y107.025 E8.47195
G1 X469.236 Y107.852 E8.50531
G1 X468.781 Y109.651 E8.57890
G1 X468.642 Y110.120 E8.59828
G1 X468.086 Y111.750 E8.66656
G1 X467.407 Y113.376 E8.73646
G1 X466.579 Y115.000 E8.80874
G1 X465.772 Y116.316 E8.86995
G1 X465.303 Y116.985 E8.90233
G1 X464.500 Y117.994 E8.95348
G1 X463.567 Y118.983 E9.00737
G1 X462.467 Y119.938 E9.06517
G1 X461.659 Y120.513 E9.10448
G1 X460.630 Y121.100 E9.15144
G1 X459.629 Y121.541 E9.19482
G1 X459.347 Y121.640 E9.20666
G1 X458.460 Y121.899 E9.24330
G1 X457.402 Y122.091 E9.28594
G1 X456.323 Y122.161 E9.32884
G1 X456.031 Y122.159 E9.34042
G1 X454.967 Y122.071 E9.38273
G1 X453.918 Y121.863 E9.42514
G1 X452.889 Y121.537 E9.46797
G1 X452.018 Y121.162 E9.50556
G1 X451.725 Y121.015 E9.51854
G1 X450.711 Y120.402 E9.56554
G1 X449.758 Y119.689 E9.61271
G1 X448.866 Y118.883 E9.66040
G1 X448.389 Y118.390 E9.68760
G1 X447.507 Y117.349 E9.74171
G1 X446.701 Y116.225 E9.79656
G1 X446.012 Y115.102 E9.84881
G1 X445.478 Y114.104 E9.89366
G1 X444.820 Y112.681 E9.95583
G1 X444.215 Y111.106 E10.02275
G1 X443.702 Y109.472 E10.09067
G1 X443.282 Y107.781 E10.15976
G1 X443.169 Y107.237 E10.18179
G1 X442.856 Y105.345 E10.25780
G1 X442.657 Y103.403 E10.33522
G1 X442.579 Y101.355 E10.41648
G1 X442.627 Y99.488 E10.49057
G1 X442.801 Y97.535 E10.56831
G1 X442.960 Y96.413 E10.61322
G1 X443.278 Y94.781 E10.67916
G1 X443.605 Y94.753 F6000.000
G1 F1680
G1 X444.063 Y93.020 E10.75024
G1 X444.660 Y91.276 E10.82333
G1 X445.350 Y89.692 E10.89184
G1 X445.919 Y88.604 E10.94054
G1 X446.712 Y87.313 E11.00062
G1 X447.517 Y86.207 E11.05487
G1 X448.454 Y85.129 E11.11149
G1 X448.801 Y84.777 E11.13112
G1 X449.659 Y84.003 E11.17690
G1 X450.733 Y83.207 E11.22993
G1 X451.761 Y82.602 E11.27723
G1 X452.603 Y82.216 E11.31397
G1 X453.518 Y81.893 E11.35243
G1 X454.574 Y81.640 E11.39548
G1 X454.995 Y81.574 E11.41238
G1 X455.915 Y81.496 E11.44899
G1 X457.097 Y81.529 E11.49587
G1 X458.155 Y81.687 E11.53831
G1 X459.169 Y81.955 E11.57987
G1 X460.193 Y82.346 E11.62333
G1 X461.174 Y82.846 E11.66703
G1 X461.741 Y83.196 E11.69346
G1 X462.626 Y83.836 E11.73674
G1 X463.608 Y84.696 E11.78851
G1 X464.397 Y85.518 E11.83370
G1 X464.912 Y86.127 E11.86531
G1 X465.698 Y87.188 E11.91765
G1 X466.289 Y88.123 E11.96153
G1 X466.498 Y88.465 E11.97741
G1 X467.176 Y89.754 E12.03519
G1 X467.884 Y91.386 E12.10571
G1 X468.412 Y92.919 E12.17003
G1 X468.838 Y94.473 E12.23390
G1 X469.186 Y96.139 E12.30139
G1 X469.271 Y96.700 E12.32388
G1 X469.443 Y97.912 E12.37241
G1 X469.584 Y99.599 E12.43955
G1 X469.608 Y100.110 E12.45984
G1 X469.623 Y101.966 E12.53346
G1 X469.518 Y103.888 E12.60976
G1 X469.293 Y105.802 E12.68618
G1 X469.082 Y106.968 E12.73320
G1 X468.930 Y107.775 E12.76573
G1 X468.475 Y109.574 E12.83931
G1 X468.343 Y110.018 E12.85769
G1 X467.787 Y111.648 E12.92597
G1 X467.116 Y113.254 E12.99501
G1 X466.310 Y114.836 E13.06538
G1 X465.503 Y116.151 E13.12659
G1 X465.056 Y116.788 E13.15745
G1 X464.253 Y117.798 E13.20859
G1 X463.339 Y118.765 E13.26138
G1 X462.282 Y119.683 E13.31685
G1 X461.499 Y120.241 E13.35501
G1 X460.502 Y120.812 E13.40055
G1 X459.521 Y121.244 E13.44309
G1 X458.372 Y121.596 E13.49072
G1 X457.348 Y121.780 E13.53196
G1 X456.305 Y121.847 E13.57342
G1 X456.054 Y121.844 E13.58339
G1 X455.026 Y121.761 E13.62427
G1 X454.011 Y121.561 E13.66529
G1 X453.013 Y121.247 E13.70677
G1 X452.144 Y120.873 E13.74428
G1 X451.871 Y120.735 E13.75640
G1 X450.875 Y120.133 E13.80256
G1 X449.949 Y119.438 E13.84848
G1 X449.079 Y118.650 E13.89502
G1 X448.628 Y118.184 E13.92074
G1 X447.762 Y117.164 E13.97382
G1 X446.969 Y116.059 E14.02774
G1 X446.281 Y114.938 E14.07991
G1 X445.764 Y113.972 E14.12335
G1 X445.107 Y112.550 E14.18546
G1 X444.509 Y110.994 E14.25155
G1 X444.003 Y109.378 E14.31869
G1 X443.589 Y107.705 E14.38704
G1 X443.478 Y107.173 E14.40859
G1 X443.167 Y105.294 E14.48410
G1 X442.971 Y103.372 E14.56073
G1 X442.895 Y101.363 E14.64042
G1 X442.942 Y99.496 E14.71451
G1 X443.115 Y97.563 E14.79144
G1 X443.270 Y96.474 E14.83507
G1 X443.588 Y94.842 E14.90101
G1 X443.915 Y94.814 F6000.000
G1 F1680
G1 X444.368 Y93.101 E14.97125
G1 X444.950 Y91.400 E15.04253
G1 X445.630 Y89.838 E15.11010
G1 X446.188 Y88.768 E15.15794
G1 X446.966 Y87.498 E15.21701
G1 X447.772 Y86.393 E15.27125
G1 X448.691 Y85.337 E15.32677
G1 X449.012 Y85.011 E15.34491
G1 X449.870 Y84.238 E15.39069
G1 X450.894 Y83.478 E15.44126
G1 X451.825 Y82.925 E15.48420
G1 X452.708 Y82.513 E15.52283
G1 X453.623 Y82.191 E15.56129
G1 X454.645 Y81.948 E15.60297
G1 X455.022 Y81.888 E15.61807
G1 X455.941 Y81.810 E15.65468
G1 X456.959 Y81.833 E15.69506
G1 X457.981 Y81.973 E15.73595
G1 X459.174 Y82.288 E15.78486
G1 X460.077 Y82.639 E15.82328
G1 X461.029 Y83.126 E15.86568
G1 X461.558 Y83.453 E15.89034
G1 X462.441 Y84.092 E15.93354
G1 X463.333 Y84.869 E15.98049
G1 X464.169 Y85.736 E16.02824
G1 X464.629 Y86.278 E16.05643
G1 X465.159 Y86.986 E16.09150
G1 X465.478 Y87.424 E16.11299
G1 X466.191 Y88.564 E16.16630
G1 X466.887 Y89.881 E16.22536
G1 X467.586 Y91.491 E16.29496
G1 X468.109 Y93.004 E16.35844
G1 X468.545 Y94.603 E16.42416
G1 X468.877 Y96.203 E16.48894
G1 X468.960 Y96.750 E16.51090
G1 X469.128 Y97.939 E16.55851
G1 X469.270 Y99.625 E16.62559
G1 X469.293 Y100.113 E16.64497
G1 X469.307 Y101.968 E16.71854
G1 X469.199 Y103.919 E16.79603
G1 X468.980 Y105.764 E16.86969
G1 X468.771 Y106.913 E16.91601
G1 X468.624 Y107.698 E16.94765
G1 X468.169 Y109.496 E17.02123
G1 X468.045 Y109.916 E17.03860
G1 X467.489 Y111.546 E17.10687
G1 X466.825 Y113.132 E17.17505
G1 X466.041 Y114.671 E17.24352
G1 X465.234 Y115.986 E17.30472
G1 X464.810 Y116.592 E17.33406
G1 X464.006 Y117.601 E17.38521
G1 X463.110 Y118.548 E17.43690
G1 X462.098 Y119.427 E17.49004
G1 X461.339 Y119.969 E17.52704
G1 X460.374 Y120.524 E17.57116
G1 X459.412 Y120.948 E17.61285
G1 X458.284 Y121.293 E17.65966
G1 X457.295 Y121.470 E17.69949
G1 X456.287 Y121.532 E17.73951
G1 X455.084 Y121.451 E17.78731
G1 X454.104 Y121.260 E17.82694
G1 X453.138 Y120.957 E17.86708
G1 X452.271 Y120.584 E17.90450
G1 X452.017 Y120.456 E17.91577
G1 X451.040 Y119.864 E17.96107
G1 X450.086 Y119.143 E18.00848
G1 X449.292 Y118.418 E18.05114
G1 X448.866 Y117.979 E18.07539
G1 X448.017 Y116.978 E18.12743
G1 X447.237 Y115.893 E18.18041
G1 X446.550 Y114.773 E18.23250
G1 X446.050 Y113.839 E18.27453
G1 X445.394 Y112.418 E18.33659
G1 X444.804 Y110.882 E18.40185
G1 X444.304 Y109.284 E18.46822
G1 X443.895 Y107.630 E18.53581
G1 X443.787 Y107.109 E18.55689
G1 X443.479 Y105.243 E18.63189
G1 X443.285 Y103.340 E18.70774
G1 X443.210 Y101.371 E18.78586
G1 X443.257 Y99.503 E18.85995
G1 X443.429 Y97.592 E18.93606
G1 X443.579 Y96.534 E18.97842
G1 X443.897 Y94.902 E19.04436
G1 X444.224 Y94.874 F6000.000
G1 F1680
G1 X444.672 Y93.182 E19.11376
G1 X445.226 Y91.561 E19.18170
G1 X445.894 Y90.015 E19.24847
G1 X446.457 Y88.933 E19.29685
G1 X447.198 Y87.719 E19.35322
G1 X448.027 Y86.579 E19.40913
G1 X448.929 Y85.544 E19.46356
G1 X449.224 Y85.245 E19.48021
G1 X450.081 Y84.472 E19.52599
G1 X451.012 Y83.778 E19.57202
G1 X452.030 Y83.172 E19.61900
G1 X452.813 Y82.810 E19.65320
G1 X453.728 Y82.488 E19.69166
G1 X454.717 Y82.255 E19.73196
G1 X455.048 Y82.202 E19.74527
G1 X456.026 Y82.123 E19.78417
G1 X456.951 Y82.149 E19.82084
G1 X457.994 Y82.297 E19.86265
G1 X459.006 Y82.564 E19.90413
G1 X459.961 Y82.933 E19.94474
G1 X460.883 Y83.406 E19.98584
G1 X461.374 Y83.709 E20.00872
G1 X462.291 Y84.375 E20.05364
G1 X463.125 Y85.106 E20.09761
G1 X463.941 Y85.954 E20.14428
G1 X464.189 Y86.244 E20.15944
G1 X464.406 Y86.504 E20.17285
G1 X465.190 Y87.561 E20.22502
G1 X465.923 Y88.730 E20.27975
G1 X466.583 Y89.975 E20.33563
G1 X467.276 Y91.560 E20.40422
G1 X467.855 Y93.268 E20.47571
G1 X468.237 Y94.668 E20.53328
G1 X468.568 Y96.266 E20.59800
G1 X468.814 Y97.966 E20.66610
G1 X468.956 Y99.651 E20.73313
G1 X468.978 Y100.116 E20.75161
G1 X468.992 Y101.970 E20.82512
G1 X468.939 Y102.971 E20.86487
G1 X468.886 Y103.882 E20.90107
G1 X468.667 Y105.726 E20.97471
G1 X468.319 Y107.620 E21.05107
G1 X467.864 Y109.419 E21.12464
G1 X467.746 Y109.815 E21.14100
G1 X467.178 Y111.477 E21.21068
G1 X466.534 Y113.010 E21.27659
G1 X465.793 Y114.470 E21.34153
G1 X464.948 Y115.848 E21.40561
G1 X464.563 Y116.396 E21.43217
G1 X463.730 Y117.439 E21.48512
G1 X462.846 Y118.365 E21.53586
G1 X461.950 Y119.142 E21.58288
G1 X461.219 Y119.671 E21.61869
G1 X460.296 Y120.210 E21.66108
G1 X459.336 Y120.639 E21.70274
G1 X459.083 Y120.732 E21.71346
G1 X458.139 Y121.004 E21.75240
G1 X457.182 Y121.166 E21.79089
G1 X456.132 Y121.217 E21.83256
G1 X455.143 Y121.142 E21.87189
G1 X454.197 Y120.959 E21.91012
G1 X453.262 Y120.668 E21.94892
G1 X452.397 Y120.295 E21.98626
G1 X452.109 Y120.148 E21.99912
G1 X451.166 Y119.569 E22.04298
G1 X450.330 Y118.936 E22.08456
G1 X449.505 Y118.185 E22.12880
G1 X449.105 Y117.773 E22.15157
G1 X448.272 Y116.793 E22.20258
G1 X447.525 Y115.756 E22.25325
G1 X446.820 Y114.609 E22.30663
G1 X446.336 Y113.706 E22.34725
G1 X445.680 Y112.287 E22.40926
G1 X445.099 Y110.769 E22.47369
G1 X444.606 Y109.191 E22.53928
G1 X444.201 Y107.554 E22.60613
G1 X444.092 Y107.025 E22.62756
G1 X443.790 Y105.192 E22.70123
G1 X443.596 Y103.276 E22.77757
G1 X443.525 Y101.412 E22.85154
G1 X443.572 Y99.511 E22.92693
G1 X443.746 Y97.594 E23.00328
G1 X443.889 Y96.594 E23.04331
G1 X444.207 Y94.962 E23.10925
G1 E21.10925 F2400.00000
G92 E0
G1 X466.718 Y105.448 F6000.000
G1 E2.00000 F2400.00000
G1 F2100
G1 X466.398 Y107.184 E2.07002
G1 X465.968 Y108.884 E2.13955
G1 X465.342 Y110.766 E2.21821
G1 X464.740 Y112.199 E2.27982
G1 X464.065 Y113.525 E2.33885
G1 X463.311 Y114.754 E2.39600
G1 X462.995 Y115.204 E2.41781
G1 X462.259 Y116.129 E2.46467
G1 X461.503 Y116.923 E2.50815
G1 X460.710 Y117.612 E2.54980
G1 X460.126 Y118.032 E2.57833
G1 X459.383 Y118.464 E2.61240
G1 X458.446 Y118.867 E2.65286
G1 X457.723 Y119.078 E2.68273
G1 X456.992 Y119.204 E2.71212
G1 X456.155 Y119.245 E2.74537
G1 X455.428 Y119.192 E2.77427
G1 X454.813 Y119.076 E2.79907
G1 X453.969 Y118.827 E2.83396
G1 X453.078 Y118.430 E2.87266
G1 X452.292 Y117.953 E2.90911
G1 X451.573 Y117.407 E2.94492
G1 X450.865 Y116.762 E2.98287
G1 X450.572 Y116.459 E2.99962
G1 X449.833 Y115.592 E3.04478
G1 X449.155 Y114.650 E3.09080
G1 X448.521 Y113.618 E3.13885
G1 X448.105 Y112.841 E3.17378
G1 X447.489 Y111.507 E3.23205
G1 X446.954 Y110.110 E3.29137
G1 X446.498 Y108.647 E3.35213
G1 X446.119 Y107.109 E3.41492
G1 X446.029 Y106.676 E3.43248
G1 X445.740 Y104.917 E3.50317
G1 X445.562 Y103.156 E3.57336
G1 X445.494 Y101.383 E3.64370
G1 X445.539 Y99.609 E3.71408
G1 X445.700 Y97.835 E3.78471
G1 X445.828 Y96.935 E3.82076
G1 X446.147 Y95.298 E3.88687
G1 X446.562 Y93.737 E3.95094
G1 X447.070 Y92.252 E4.01315
G1 X447.680 Y90.846 E4.07394
G1 X448.163 Y89.916 E4.11551
G1 X448.847 Y88.796 E4.16754
G1 X449.580 Y87.790 E4.21687
G1 X450.382 Y86.872 E4.26522
G1 X450.574 Y86.678 E4.27602
G1 X451.348 Y85.980 E4.31736
G1 X452.125 Y85.403 E4.35575
G1 X452.930 Y84.925 E4.39285
G1 X453.534 Y84.644 E4.41928
G1 X454.306 Y84.372 E4.45176
G1 X455.112 Y84.184 E4.48456
G1 X456.053 Y84.093 E4.52206
G1 X456.813 Y84.114 E4.55220
G1 X457.575 Y84.222 E4.58270
G1 X458.423 Y84.446 E4.61748
G1 X459.174 Y84.738 E4.64945
G1 X459.919 Y85.124 E4.68273
G1 X460.374 Y85.414 E4.70412
G1 X461.045 Y85.901 E4.73700
G1 X461.779 Y86.544 E4.77570
G1 X462.488 Y87.283 E4.81629
G1 X462.853 Y87.715 E4.83871
G1 X463.573 Y88.686 E4.88665
G1 X464.225 Y89.728 E4.93539
G1 X464.817 Y90.846 E4.98554
G1 X465.436 Y92.261 E5.04681
G1 X465.920 Y93.658 E5.10541
G1 X466.319 Y95.115 E5.16533
G1 X466.632 Y96.622 E5.22637
G1 X466.856 Y98.176 E5.28861
G1 X467.009 Y100.161 E5.36755
G1 X467.023 Y101.938 E5.43804
