; generated by Slic3r 1.3.0-dev on 2018-06-02 at 17:08:51

; external perimeters extrusion width = 0.66mm (7.15mm^3/s)
; perimeters extrusion width = 0.84mm (11.63mm^3/s)
; infill extrusion width = 0.75mm (10.28mm^3/s)
; solid infill extrusion width = 0.84mm (11.63mm^3/s)
; top infill extrusion width = 0.84mm (11.63mm^3/s)
; support material extrusion width = 0.66mm (7.15mm^3/s)

M107
G28 ; home all axes
G32; probe home individual Z axis
G29 S1; load bed mesh
M109 S205 ; set temperature and wait for it to be reached
M117 Purge extruder
G92 E0 ; reset extruder
G1 X100
G1 Z1.0 F3000.0 ; move z up little to prevent scratching of surface
G1 X100 Y20 Z0.3 F5000.0 ; move to start-line position
G1 X100 Y200.0 Z0.3 F1500.0 E15 ; draw 1st line
G1 X100.5 Y200.0 Z0.3 F5000.0 ; move to side a little
G1 X100.5 Y20 Z0.3 F1500.0 E30 ; draw 2nd line
; G1 E27 F3000 ; retract filament 3mm
G92 E0 ; reset extruder
; done purging extruder
G1 Z1.0 F3000 ; move z up little to prevent scratching of surface
G1 Z10
G1 X200
M117 Printing!

; Filament gcode

G21 ; set units to millimeters
G90 ; use absolute coordinates
M82 ; use absolute distances for extrusion
G92 E0
G1 Z0.320 F6000.000
G1 E-2.00000 F2400.00000
G92 E0
G1 X464.577 Y189.165 F6000.000
G1 E2.00000 F2400.00000
G1 F1680
G1 X465.280 Y187.680 E2.06517
G1 X465.992 Y186.415 E2.12273
G1 X466.793 Y185.211 E2.18007
G1 X467.663 Y184.117 E2.23550
G1 X468.602 Y183.118 E2.28986
G1 X469.169 Y182.595 E2.32043
G1 X469.992 Y181.928 E2.36245
G1 X470.973 Y181.262 E2.40948
G1 X472.002 Y180.700 E2.45594
G1 X473.078 Y180.247 E2.50226
G1 X474.117 Y179.932 E2.54531
G1 X475.178 Y179.728 E2.58815
G1 X476.029 Y179.648 E2.62204
G1 X477.082 Y179.650 E2.66378
G1 X478.132 Y179.763 E2.70567
G1 X479.116 Y179.970 E2.74553
G1 X479.541 Y180.094 E2.76308
G1 X480.407 Y180.403 E2.79954
G1 X481.404 Y180.865 E2.84314
G1 X482.362 Y181.424 E2.88711
G1 X483.135 Y181.965 E2.92454
G1 X484.055 Y182.726 E2.97186
G1 X484.929 Y183.580 E3.02032
G1 X485.745 Y184.512 E3.06943
G1 X486.550 Y185.588 E3.12273
G1 X487.362 Y186.882 E3.18332
G1 X488.030 Y188.142 E3.23986
G1 X488.626 Y189.466 E3.29743
G1 X489.151 Y190.853 E3.35624
G1 X489.638 Y192.429 E3.42163
G1 X489.835 Y193.224 E3.45413
G1 X490.051 Y194.138 E3.49137
G1 X490.345 Y195.788 E3.55782
G1 X490.538 Y197.380 E3.62140
G1 X490.651 Y199.097 E3.68964
G1 X490.670 Y199.894 E3.72124
G1 X490.639 Y201.689 E3.79246
G1 X487.997 Y252.408 E5.80633
G1 X485.807 Y283.359 E7.03671
G1 X485.645 Y284.573 E7.08526
G1 X485.580 Y284.864 E7.09707
G1 X485.200 Y286.091 E7.14802
G1 X485.064 Y286.413 E7.16190
G1 X484.241 Y287.927 E7.23020
G1 X484.029 Y288.235 E7.24506
G1 X482.936 Y289.509 E7.31161
G1 X482.473 Y289.892 E7.33543
G1 X479.951 Y291.342 E7.45082
G1 X479.369 Y291.553 E7.47534
G1 X477.969 Y291.790 E7.53162
G1 X477.339 Y291.849 E7.55674
G1 X476.637 Y291.886 E7.58462
G1 X475.658 Y291.854 E7.62347
G1 X473.766 Y291.635 E7.69899
G1 X473.006 Y291.359 E7.73104
G1 X471.157 Y290.153 E7.81857
G1 X470.880 Y289.930 E7.83268
G1 X469.619 Y288.685 E7.90293
G1 X469.410 Y288.438 E7.91579
G1 X468.148 Y286.631 E8.00317
G1 X467.837 Y285.787 E8.03882
G1 X467.204 Y279.332 E8.29603
G1 X464.755 Y249.706 E9.47477
G1 X462.410 Y200.862 E11.41384
G1 X462.428 Y199.045 E11.48587
G1 X462.554 Y197.223 E11.55829
G1 X462.808 Y195.302 E11.63514
G1 X463.071 Y193.923 E11.69081
G1 X463.492 Y192.236 E11.75975
G1 X463.971 Y190.722 E11.82272
G1 X464.544 Y189.249 E11.88539
G1 X464.871 Y189.280 F6000.000
G1 F1680
G1 X465.564 Y187.815 E11.94968
G1 X466.266 Y186.570 E12.00634
G1 X467.054 Y185.388 E12.06268
G1 X467.909 Y184.314 E12.11713
G1 X468.831 Y183.335 E12.17043
G1 X469.367 Y182.840 E12.19937
G1 X470.190 Y182.173 E12.24139
G1 X471.149 Y181.524 E12.28728
G1 X472.151 Y180.978 E12.33254
G1 X473.198 Y180.539 E12.37757
G1 X474.206 Y180.235 E12.41932
G1 X475.235 Y180.038 E12.46085
G1 X476.032 Y179.963 E12.49258
G1 X477.051 Y179.964 E12.53300
G1 X478.069 Y180.072 E12.57360
G1 X479.031 Y180.274 E12.61258
G1 X479.435 Y180.391 E12.62927
G1 X480.300 Y180.700 E12.66567
G1 X481.269 Y181.150 E12.70803
G1 X482.200 Y181.695 E12.75083
G1 X482.952 Y182.222 E12.78724
G1 X483.852 Y182.967 E12.83356
G1 X484.707 Y183.803 E12.88097
G1 X485.505 Y184.717 E12.92910
G1 X486.296 Y185.774 E12.98145
G1 X487.085 Y187.032 E13.04033
G1 X487.743 Y188.273 E13.09604
G1 X488.332 Y189.579 E13.15281
G1 X488.855 Y190.964 E13.21155
G1 X489.336 Y192.521 E13.27614
G1 X489.529 Y193.299 E13.30793
G1 X489.741 Y194.195 E13.34443
G1 X490.032 Y195.826 E13.41016
G1 X490.225 Y197.417 E13.47369
G1 X490.336 Y199.116 E13.54122
G1 X490.355 Y199.889 E13.57186
G1 X490.324 Y201.673 E13.64263
G1 X487.682 Y252.391 E15.65649
G1 X485.494 Y283.317 E16.88586
G1 X485.332 Y284.531 E16.93441
G1 X485.279 Y284.770 E16.94413
G1 X484.899 Y285.997 E16.99508
G1 X484.787 Y286.263 E17.00649
G1 X483.964 Y287.776 E17.07480
G1 X483.789 Y288.030 E17.08702
G1 X482.697 Y289.303 E17.15357
G1 X482.316 Y289.619 E17.17316
G1 X479.793 Y291.069 E17.28855
G1 X479.315 Y291.242 E17.30871
G1 X477.940 Y291.476 E17.36402
G1 X477.309 Y291.535 E17.38914
G1 X476.621 Y291.571 E17.41647
G1 X475.690 Y291.541 E17.45341
G1 X473.803 Y291.322 E17.52873
G1 X473.178 Y291.095 E17.55509
G1 X471.329 Y289.889 E17.64263
G1 X471.102 Y289.705 E17.65423
G1 X469.840 Y288.461 E17.72448
G1 X469.668 Y288.257 E17.73506
G1 X468.407 Y286.450 E17.82243
G1 X468.151 Y285.756 E17.85176
G1 X467.518 Y279.306 E18.10878
G1 X465.070 Y249.691 E19.28709
G1 X462.725 Y200.847 E21.22615
G1 X462.743 Y199.049 E21.29745
G1 X462.868 Y197.246 E21.36913
G1 X463.118 Y195.361 E21.44452
G1 X463.377 Y193.999 E21.49950
G1 X463.793 Y192.331 E21.56764
G1 X464.272 Y190.817 E21.63060
G1 X464.838 Y189.364 E21.69244
G1 X465.164 Y189.396 F6000.000
G1 F1680
G1 X465.849 Y187.951 E21.75584
G1 X466.540 Y186.726 E21.81161
G1 X467.315 Y185.565 E21.86695
G1 X468.155 Y184.511 E21.92041
G1 X469.060 Y183.553 E21.97266
G1 X469.566 Y183.085 E21.99997
G1 X470.389 Y182.418 E22.04199
G1 X471.324 Y181.786 E22.08675
G1 X472.300 Y181.256 E22.13079
G1 X473.318 Y180.830 E22.17454
G1 X474.295 Y180.537 E22.21498
G1 X475.292 Y180.349 E22.25520
G1 X476.034 Y180.279 E22.28477
G1 X477.020 Y180.277 E22.32388
G1 X478.006 Y180.381 E22.36317
G1 X478.947 Y180.578 E22.40129
G1 X479.330 Y180.688 E22.41712
G1 X480.193 Y180.997 E22.45346
G1 X481.133 Y181.435 E22.49458
G1 X482.039 Y181.966 E22.53620
G1 X482.769 Y182.479 E22.57159
G1 X483.649 Y183.208 E22.61691
G1 X484.484 Y184.026 E22.66327
G1 X485.266 Y184.922 E22.71042
G1 X486.042 Y185.961 E22.76184
G1 X486.807 Y187.182 E22.81900
G1 X487.457 Y188.405 E22.87389
G1 X488.037 Y189.691 E22.92985
G1 X488.560 Y191.075 E22.98852
G1 X489.035 Y192.613 E23.05231
G1 X489.223 Y193.374 E23.08340
G1 X489.430 Y194.251 E23.11916
G1 X489.719 Y195.865 E23.18416
G1 X489.912 Y197.454 E23.24764
G1 X490.021 Y199.136 E23.31447
G1 X490.039 Y199.884 E23.34413
G1 X490.009 Y201.657 E23.41445
G1 X487.367 Y252.375 E25.42831
G1 X485.181 Y283.276 E26.65667
G1 X485.019 Y284.489 E26.70523
G1 X484.978 Y284.677 E26.71284
G1 X484.598 Y285.904 E26.76379
G1 X484.510 Y286.112 E26.77274
G1 X483.687 Y287.626 E26.84105
G1 X483.550 Y287.825 E26.85063
G1 X482.457 Y289.098 E26.91718
G1 X482.159 Y289.345 E26.93255
G1 X479.636 Y290.796 E27.04793
G1 X479.261 Y290.931 E27.06375
G1 X477.911 Y291.162 E27.11807
G1 X477.280 Y291.221 E27.14319
G1 X476.605 Y291.256 E27.16998
G1 X475.722 Y291.227 E27.20502
G1 X473.841 Y291.009 E27.28013
G1 X473.351 Y290.831 E27.30080
G1 X471.502 Y289.625 E27.38834
G1 X471.323 Y289.481 E27.39744
G1 X470.062 Y288.236 E27.46769
G1 X469.927 Y288.077 E27.47598
G1 X468.665 Y286.270 E27.56336
G1 X468.465 Y285.726 E27.58636
G1 X467.832 Y279.280 E27.84318
G1 X465.384 Y249.676 E29.02106
G1 X463.040 Y200.832 E30.96012
G1 X463.058 Y199.052 E31.03068
G1 X463.183 Y197.268 E31.10162
G1 X463.427 Y195.419 E31.17556
G1 X463.684 Y194.074 E31.22984
G1 X464.094 Y192.427 E31.29718
G1 X464.573 Y190.913 E31.36015
G1 X465.132 Y189.479 E31.42115
G1 X465.458 Y189.511 F6000.000
G1 F1680
G1 X466.134 Y188.086 E31.48366
G1 X466.815 Y186.881 E31.53854
G1 X467.576 Y185.742 E31.59288
G1 X468.401 Y184.708 E31.64534
G1 X469.288 Y183.770 E31.69654
G1 X469.764 Y183.330 E31.72223
G1 X470.587 Y182.663 E31.76425
G1 X471.500 Y182.048 E31.80786
G1 X472.449 Y181.533 E31.85070
G1 X473.438 Y181.122 E31.89316
G1 X474.384 Y180.840 E31.93230
G1 X475.348 Y180.659 E31.97121
G1 X476.036 Y180.594 E31.99862
G1 X476.990 Y180.591 E32.03642
G1 X477.943 Y180.690 E32.07441
G1 X478.808 Y180.869 E32.10947
G1 X479.174 Y180.969 E32.12448
G1 X480.087 Y181.293 E32.16291
G1 X480.998 Y181.720 E32.20278
G1 X481.877 Y182.237 E32.24323
G1 X482.634 Y182.772 E32.28000
G1 X483.493 Y183.492 E32.32446
G1 X484.302 Y184.293 E32.36957
G1 X485.062 Y185.172 E32.41566
G1 X485.819 Y186.193 E32.46607
G1 X486.530 Y187.332 E32.51932
G1 X487.170 Y188.536 E32.57339
G1 X487.743 Y189.804 E32.62855
G1 X488.265 Y191.186 E32.68714
G1 X488.733 Y192.704 E32.75014
G1 X489.111 Y194.264 E32.81375
G1 X489.399 Y195.860 E32.87808
G1 X489.519 Y196.820 E32.91646
G1 X489.603 Y197.535 E32.94498
G1 X489.708 Y199.185 E33.01054
G1 X489.724 Y199.879 E33.03806
G1 X489.694 Y201.640 E33.10792
G1 X487.052 Y252.358 E35.12178
G1 X484.869 Y283.234 E36.34914
G1 X484.677 Y284.583 E36.40320
G1 X484.297 Y285.811 E36.45415
G1 X484.233 Y285.961 E36.46063
G1 X483.410 Y287.475 E36.52894
G1 X483.311 Y287.619 E36.53589
G1 X482.218 Y288.893 E36.60243
G1 X482.002 Y289.072 E36.61357
G1 X479.479 Y290.522 E36.72896
G1 X479.207 Y290.621 E36.74042
G1 X477.881 Y290.848 E36.79377
G1 X477.251 Y290.907 E36.81888
G1 X476.590 Y290.941 E36.84512
G1 X475.811 Y290.917 E36.87601
G1 X473.878 Y290.696 E36.95317
G1 X473.523 Y290.567 E36.96815
G1 X471.674 Y289.360 E37.05569
G1 X471.544 Y289.256 E37.06228
G1 X470.283 Y288.012 E37.13253
G1 X470.185 Y287.896 E37.13855
G1 X468.924 Y286.089 E37.22592
G1 X468.778 Y285.695 E37.24259
G1 X468.147 Y279.254 E37.49923
G1 X465.699 Y249.661 E38.67668
G1 X463.355 Y200.817 E40.61573
G1 X463.374 Y199.056 E40.68555
G1 X463.497 Y197.290 E40.75574
G1 X463.737 Y195.478 E40.82823
G1 X463.990 Y194.150 E40.88183
G1 X464.394 Y192.522 E40.94836
G1 X464.873 Y191.008 E41.01133
G1 X465.425 Y189.594 E41.07150
G1 X465.752 Y189.626 F6000.000
G1 F1680
G1 X466.418 Y188.222 E41.13312
G1 X467.089 Y187.037 E41.18710
G1 X467.837 Y185.919 E41.24044
G1 X468.647 Y184.905 E41.29192
G1 X469.517 Y183.987 E41.34206
G1 X469.963 Y183.575 E41.36612
G1 X470.786 Y182.908 E41.40814
G1 X471.675 Y182.310 E41.45062
G1 X472.599 Y181.811 E41.49225
G1 X473.558 Y181.414 E41.53343
G1 X474.473 Y181.142 E41.57125
G1 X475.405 Y180.969 E41.60886
G1 X476.039 Y180.909 E41.63410
G1 X476.959 Y180.905 E41.67059
G1 X477.880 Y180.999 E41.70729
G1 X478.744 Y181.177 E41.74230
G1 X479.088 Y181.273 E41.75644
G1 X479.980 Y181.590 E41.79399
G1 X480.862 Y182.004 E41.83263
G1 X481.715 Y182.507 E41.87190
G1 X482.432 Y183.015 E41.90673
G1 X483.243 Y183.690 E41.94858
G1 X484.064 Y184.500 E41.99428
G1 X484.809 Y185.360 E42.03943
G1 X485.553 Y186.362 E42.08891
G1 X486.253 Y187.482 E42.14128
G1 X486.884 Y188.668 E42.19453
G1 X487.448 Y189.917 E42.24888
G1 X487.970 Y191.297 E42.30740
G1 X488.431 Y192.796 E42.36960
G1 X488.804 Y194.337 E42.43245
G1 X489.089 Y195.915 E42.49604
G1 X489.206 Y196.861 E42.53384
G1 X489.288 Y197.555 E42.56156
G1 X489.393 Y199.193 E42.62663
G1 X489.409 Y199.874 E42.65364
G1 X489.379 Y201.624 E42.72304
G1 X486.737 Y252.342 E44.73690
G1 X484.556 Y283.192 E45.96325
G1 X484.376 Y284.490 E46.01522
G1 X483.956 Y285.811 E46.07017
G1 X483.133 Y287.324 E46.13848
G1 X481.979 Y288.687 E46.20931
G1 X481.844 Y288.799 E46.21622
G1 X479.322 Y290.249 E46.33161
G1 X479.153 Y290.310 E46.33872
G1 X477.852 Y290.534 E46.39109
G1 X477.221 Y290.594 E46.41620
G1 X476.574 Y290.626 E46.44189
G1 X475.822 Y290.602 E46.47173
G1 X473.915 Y290.383 E46.54783
G1 X473.695 Y290.302 E46.55713
G1 X471.846 Y289.096 E46.64466
G1 X470.505 Y287.787 E46.71899
G1 X469.183 Y285.909 E46.81007
G1 X469.092 Y285.664 E46.82042
G1 X468.461 Y279.228 E47.07686
G1 X466.014 Y249.646 E48.25388
G1 X463.670 Y200.802 E50.19294
G1 X463.689 Y199.060 E50.26202
G1 X463.812 Y197.312 E50.33146
G1 X464.047 Y195.537 E50.40250
G1 X464.296 Y194.226 E50.45540
G1 X464.695 Y192.617 E50.52114
G1 X465.174 Y191.103 E50.58410
G1 X465.719 Y189.709 E50.64343
G1 E48.64343 F2400.00000
G92 E0
G1 X486.079 Y208.654 F6000.000
G1 E2.00000 F2400.00000
G1 F2100
G1 X485.556 Y210.022 E2.05809
G1 X484.962 Y211.308 E2.11425
G1 X484.300 Y212.510 E2.16866
G1 X483.571 Y213.628 E2.22162
G1 X483.075 Y214.287 E2.25429
G1 X482.352 Y215.125 E2.29818
G1 X481.611 Y215.851 E2.33932
G1 X480.843 Y216.479 E2.37865
G1 X480.232 Y216.895 E2.40795
G1 X479.521 Y217.292 E2.44025
G1 X478.779 Y217.612 E2.47230
G1 X477.908 Y217.868 E2.50829
G1 X477.226 Y217.981 E2.53571
G1 X476.517 Y218.021 E2.56386
G1 X476.229 Y218.013 E2.57531
G1 X475.540 Y217.939 E2.60278
G1 X474.704 Y217.746 E2.63679
G1 X474.030 Y217.507 E2.66513
G1 X473.342 Y217.183 E2.69529
G1 X472.981 Y216.979 E2.71173
G1 X472.266 Y216.503 E2.74579
G1 X471.577 Y215.950 E2.78083
G1 X470.910 Y215.319 E2.81725
G1 X470.313 Y214.665 E2.85236
G1 X469.621 Y213.788 E2.89666
G1 X468.977 Y212.837 E2.94220
G1 X468.381 Y211.817 E2.98904
G1 X467.703 Y210.441 E3.04988
G1 X467.173 Y209.145 E3.10540
G1 X466.719 Y207.795 E3.16188
G1 X466.342 Y206.396 E3.21931
G1 X466.042 Y204.946 E3.27805
G1 X465.890 Y203.979 E3.31684
G1 X465.716 Y202.367 E3.38114
G1 X465.639 Y200.750 E3.44533
G1 X465.657 Y199.125 E3.50979
G1 X465.772 Y197.496 E3.57454
G1 X465.989 Y195.863 E3.63986
G1 X466.217 Y194.659 E3.68843
G1 X466.586 Y193.166 E3.74942
G1 X467.036 Y191.743 E3.80861
G1 X467.566 Y190.392 E3.86616
G1 X468.174 Y189.115 E3.92224
G1 X468.774 Y188.056 E3.97053
G1 X469.436 Y187.069 E4.01764
G1 X470.146 Y186.183 E4.06264
G1 X470.911 Y185.377 E4.10673
G1 X471.239 Y185.075 E4.12439
G1 X471.974 Y184.479 E4.16192
G1 X472.712 Y183.985 E4.19712
G1 X473.465 Y183.581 E4.23102
G1 X474.236 Y183.263 E4.26410
G1 X474.954 Y183.053 E4.29375
G1 X475.697 Y182.917 E4.32370
G1 X476.117 Y182.877 E4.34042
G1 X476.844 Y182.872 E4.36925
G1 X477.557 Y182.942 E4.39768
G1 X478.506 Y183.154 E4.43625
G1 X479.250 Y183.420 E4.46754
G1 X479.958 Y183.755 E4.49862
G1 X480.660 Y184.170 E4.53095
G1 X481.217 Y184.564 E4.55801
G1 X481.935 Y185.163 E4.59507
G1 X482.481 Y185.700 E4.62545
G1 X483.267 Y186.586 E4.67242
G1 X483.917 Y187.459 E4.71558
G1 X484.541 Y188.456 E4.76221
G1 X485.111 Y189.525 E4.81025
G1 X485.624 Y190.658 E4.85958
G1 X486.112 Y191.949 E4.91431
G1 X486.536 Y193.331 E4.97162
G1 X486.880 Y194.756 E5.02975
G1 X487.144 Y196.221 E5.08879
G1 X487.326 Y197.723 E5.14879
G1 X487.425 Y199.271 E5.21027
G1 X487.440 Y199.872 E5.23412
G1 X487.412 Y201.527 E5.29978
G1 X487.287 Y203.159 E5.36468
G1 X487.065 Y204.765 E5.42897
G1 X486.747 Y206.338 E5.49260
G1 X486.330 Y207.884 E5.55606
G1 X486.107 Y208.568 E5.58462
G1 X486.379 Y208.752 F6000.000
G1 F2100
G1 X485.846 Y210.145 E5.64376
G1 X485.243 Y211.450 E5.70078
G1 X484.571 Y212.672 E5.75610
G1 X483.829 Y213.810 E5.80994
G1 X483.321 Y214.485 E5.84346
G1 X482.582 Y215.341 E5.88829
G1 X481.822 Y216.086 E5.93052
G1 X481.032 Y216.732 E5.97095
G1 X480.398 Y217.163 E6.00136
G1 X479.661 Y217.575 E6.03485
G1 X478.894 Y217.906 E6.06795
G1 X477.977 Y218.176 E6.10589
G1 X477.261 Y218.295 E6.13466
G1 X476.522 Y218.336 E6.16402
G1 X476.207 Y218.328 E6.17648
G1 X475.487 Y218.250 E6.20520
G1 X474.616 Y218.049 E6.24067
G1 X473.910 Y217.799 E6.27035
G1 X473.198 Y217.464 E6.30159
G1 X472.817 Y217.248 E6.31893
G1 X472.079 Y216.758 E6.35405
G1 X471.370 Y216.188 E6.39013
G1 X470.685 Y215.540 E6.42752
G1 X470.072 Y214.869 E6.46354
G1 X469.366 Y213.974 E6.50875
G1 X468.710 Y213.005 E6.55516
G1 X468.103 Y211.966 E6.60285
G1 X467.415 Y210.571 E6.66457
G1 X466.877 Y209.255 E6.72093
G1 X466.417 Y207.886 E6.77819
G1 X466.036 Y206.469 E6.83637
G1 X465.732 Y205.002 E6.89578
G1 X465.577 Y204.021 E6.93518
G1 X465.402 Y202.392 E7.00015
G1 X465.323 Y200.756 E7.06509
G1 X465.342 Y199.112 E7.13028
G1 X465.459 Y197.464 E7.19579
G1 X465.677 Y195.813 E7.26183
G1 X465.908 Y194.592 E7.31110
G1 X466.282 Y193.081 E7.37283
