; generated by Slic3r 1.3.0-dev on 2018-06-21 at 18:28:43

; external perimeters extrusion width = 0.66mm (4.94mm^3/s)
; perimeters extrusion width = 0.84mm (7.97mm^3/s)
; infill extrusion width = 0.75mm (7.07mm^3/s)
; solid infill extrusion width = 0.84mm (7.97mm^3/s)
; top infill extrusion width = 0.84mm (7.97mm^3/s)

M107
G28 ; home all axes
G32; probe home individual Z axis
G29 S1; load bed mesh
M109 S205 ; set temperature and wait for it to be reached
M117 Purge extruder
G92 E0 ; reset extruder
G1 X400
G1 Z1.0 F3000.0 ; move z up little to prevent scratching of surface
G1 X400 Y20 Z0.3 F5000.0 ; move to start-line position
G1 X400 Y200.0 Z0.3 F1500.0 E15 ; draw 1st line
G1 X400.5 Y200.0 Z0.3 F5000.0 ; move to side a little
G1 X400.5 Y20 Z0.3 F1500.0 E30 ; draw 2nd line
; G1 E27 F3000 ; retract filament 3mm
G92 E0 ; reset extruder
; done purging extruder
G1 Z1.0 F3000 ; move z up little to prevent scratching of surface
M117 Printing!

; Filament gcode

G21 ; set units to millimeters
G90 ; use absolute coordinates
M82 ; use absolute distances for extrusion
G92 E0
G1 Z0.180 F6000.000
G1 E-2.00000 F2400.00000
G92 E0
G1 X262.467 Y177.777 F6000.000
G1 E2.00000 F2400.00000
G1 F1680
G1 X262.863 Y177.210 E2.00867
G1 X263.375 Y176.602 E2.01865
G1 X309.177 Y123.324 E2.90016
G1 X309.886 Y122.680 E2.91217
G1 X310.161 Y122.496 E2.91632
G1 X311.321 Y121.998 E2.93216
G1 X311.532 Y121.949 E2.93488
G1 X312.378 Y121.856 E2.94556
G1 X312.622 Y121.856 E2.94862
G1 X313.468 Y121.949 E2.95930
G1 X313.679 Y121.998 E2.96201
G1 X314.839 Y122.496 E2.97785
G1 X315.114 Y122.680 E2.98201
G1 X315.823 Y123.324 E2.99402
G1 X362.137 Y177.210 E3.88550
G1 X362.533 Y177.777 E3.89418
G1 X362.859 Y178.343 E3.90238
G1 X363.172 Y179.039 E3.91195
G1 X363.367 Y179.617 E3.91960
G1 X363.526 Y180.272 E3.92806
G1 X363.619 Y180.883 E3.93582
G1 X363.662 Y181.346 E3.94164
G1 X363.683 Y182.248 E3.95296
G1 X363.662 Y182.993 E3.96231
G1 X363.545 Y184.134 E3.97670
G1 X363.471 Y184.558 E3.98211
G1 X363.277 Y185.404 E3.99300
G1 X363.129 Y185.895 E3.99943
G1 X362.803 Y186.765 E4.01108
G1 X362.561 Y187.289 E4.01833
G1 X362.075 Y188.164 E4.03088
G1 X361.736 Y188.674 E4.03857
G1 X361.061 Y189.536 E4.05231
G1 X360.647 Y189.986 E4.05998
G1 X359.752 Y190.817 E4.07530
G1 X359.301 Y191.177 E4.08254
G1 X358.120 Y191.985 E4.10049
G1 X320.070 Y217.371 E4.67439
G1 X317.912 Y218.024 E4.70267
G1 X307.088 Y218.024 E4.83848
G1 X304.930 Y217.371 E4.86676
G1 X266.880 Y191.985 E5.44066
G1 X265.699 Y191.177 E5.45861
G1 X265.248 Y190.817 E5.46585
G1 X264.353 Y189.986 E5.48117
G1 X263.939 Y189.536 E5.48884
G1 X263.264 Y188.674 E5.50258
G1 X262.925 Y188.163 E5.51027
G1 X262.439 Y187.289 E5.52282
G1 X262.197 Y186.765 E5.53007
G1 X261.871 Y185.895 E5.54172
G1 X261.723 Y185.404 E5.54815
G1 X261.529 Y184.558 E5.55905
G1 X261.455 Y184.134 E5.56445
G1 X261.338 Y182.993 E5.57884
G1 X261.317 Y182.013 E5.59114
G1 X261.338 Y181.346 E5.59951
G1 X261.381 Y180.883 E5.60533
G1 X261.474 Y180.272 E5.61309
G1 X261.633 Y179.617 E5.62155
G1 X261.828 Y179.039 E5.62920
G1 X262.141 Y178.343 E5.63878
G1 X262.422 Y177.855 E5.64585
G1 X262.621 Y177.865 F6000.000
G1 F1680
G1 X262.999 Y177.324 E5.65412
G1 X263.510 Y176.718 E5.66407
G1 X309.312 Y123.439 E6.54559
G1 X309.988 Y122.825 E6.55705
G1 X310.257 Y122.646 E6.56110
G1 X311.364 Y122.170 E6.57622
G1 X311.571 Y122.122 E6.57889
G1 X312.378 Y122.033 E6.58908
G1 X312.622 Y122.033 E6.59214
G1 X313.429 Y122.122 E6.60232
G1 X313.636 Y122.170 E6.60499
G1 X314.743 Y122.646 E6.62011
G1 X315.012 Y122.825 E6.62416
G1 X315.688 Y123.439 E6.63562
G1 X362.001 Y177.324 E7.52709
G1 X362.379 Y177.865 E7.53536
G1 X362.705 Y178.432 E7.54356
G1 X363.004 Y179.096 E7.55270
G1 X363.199 Y179.674 E7.56035
G1 X363.351 Y180.299 E7.56842
G1 X363.444 Y180.910 E7.57618
G1 X363.484 Y181.351 E7.58174
G1 X363.506 Y182.243 E7.59293
G1 X363.485 Y182.987 E7.60228
G1 X363.368 Y184.113 E7.61648
G1 X363.298 Y184.518 E7.62163
G1 X363.104 Y185.364 E7.63252
G1 X362.963 Y185.833 E7.63867
G1 X362.637 Y186.702 E7.65031
G1 X362.406 Y187.203 E7.65723
G1 X361.920 Y188.077 E7.66978
G1 X361.597 Y188.564 E7.67712
G1 X360.921 Y189.426 E7.69086
G1 X360.526 Y189.856 E7.69818
G1 X359.631 Y190.687 E7.71350
G1 X359.201 Y191.031 E7.72041
G1 X358.022 Y191.837 E7.73833
G1 X319.971 Y217.223 E8.31223
G1 X317.912 Y217.847 E8.33922
G1 X307.088 Y217.847 E8.47504
G1 X305.029 Y217.223 E8.50202
G1 X266.978 Y191.837 E9.07593
G1 X265.799 Y191.031 E9.09385
G1 X265.369 Y190.687 E9.10076
G1 X264.474 Y189.856 E9.11608
G1 X264.079 Y189.426 E9.12340
G1 X263.403 Y188.564 E9.13714
G1 X263.080 Y188.077 E9.14448
G1 X262.594 Y187.203 E9.15703
G1 X262.363 Y186.702 E9.16394
G1 X262.037 Y185.833 E9.17559
G1 X261.896 Y185.364 E9.18174
G1 X261.702 Y184.518 E9.19263
G1 X261.632 Y184.113 E9.19778
G1 X261.515 Y182.987 E9.21198
G1 X261.494 Y182.018 E9.22414
G1 X261.516 Y181.351 E9.23252
G1 X261.556 Y180.910 E9.23808
G1 X261.649 Y180.299 E9.24584
G1 X261.801 Y179.674 E9.25390
G1 X261.996 Y179.096 E9.26156
G1 X262.295 Y178.432 E9.27070
G1 X262.576 Y177.943 E9.27777
G1 X262.774 Y177.953 F6000.000
G1 F1680
G1 X263.135 Y177.439 E9.28565
G1 X263.644 Y176.834 E9.29557
G1 X309.446 Y123.555 E10.17709
G1 X310.090 Y122.970 E10.18800
G1 X310.352 Y122.795 E10.19195
G1 X311.406 Y122.342 E10.20635
G1 X311.609 Y122.295 E10.20896
G1 X312.378 Y122.210 E10.21867
G1 X312.622 Y122.210 E10.22173
G1 X313.391 Y122.295 E10.23143
G1 X313.594 Y122.342 E10.23404
G1 X314.648 Y122.795 E10.24844
G1 X314.910 Y122.970 E10.25239
G1 X315.554 Y123.555 E10.26331
G1 X361.865 Y177.439 E11.15474
G1 X362.226 Y177.953 E11.16263
G1 X362.551 Y178.520 E11.17083
G1 X362.836 Y179.152 E11.17953
G1 X363.031 Y179.730 E11.18718
G1 X363.175 Y180.325 E11.19486
G1 X363.269 Y180.937 E11.20262
G1 X363.307 Y181.357 E11.20791
G1 X363.329 Y182.238 E11.21897
G1 X363.308 Y182.982 E11.22832
G1 X363.192 Y184.093 E11.24232
G1 X363.126 Y184.478 E11.24723
G1 X362.931 Y185.324 E11.25812
G1 X362.797 Y185.771 E11.26397
G1 X362.471 Y186.640 E11.27562
G1 X362.251 Y187.117 E11.28220
G1 X361.765 Y187.991 E11.29476
G1 X361.457 Y188.455 E11.30174
G1 X360.781 Y189.317 E11.31548
G1 X360.405 Y189.726 E11.32245
G1 X359.511 Y190.557 E11.33778
G1 X359.101 Y190.884 E11.34435
G1 X357.924 Y191.690 E11.36225
G1 X319.873 Y217.076 E11.93615
G1 X317.912 Y217.670 E11.96185
G1 X307.088 Y217.670 E12.09766
G1 X305.127 Y217.076 E12.12336
G1 X267.076 Y191.690 E12.69726
G1 X265.899 Y190.884 E12.71516
G1 X265.489 Y190.557 E12.72174
G1 X264.595 Y189.726 E12.73706
G1 X264.219 Y189.317 E12.74403
G1 X263.543 Y188.455 E12.75777
G1 X263.235 Y187.991 E12.76476
G1 X262.749 Y187.116 E12.77731
G1 X262.529 Y186.640 E12.78389
G1 X262.203 Y185.771 E12.79554
G1 X262.069 Y185.324 E12.80139
G1 X261.874 Y184.478 E12.81228
G1 X261.808 Y184.093 E12.81719
G1 X261.692 Y182.982 E12.83120
G1 X261.672 Y182.024 E12.84322
G1 X261.693 Y181.357 E12.85160
G1 X261.731 Y180.937 E12.85689
G1 X261.825 Y180.325 E12.86465
G1 X261.969 Y179.730 E12.87233
G1 X262.164 Y179.152 E12.87999
G1 X262.449 Y178.520 E12.88869
G1 X262.730 Y178.031 E12.89576
G1 X262.928 Y178.042 F6000.000
G1 F1680
G1 X263.270 Y177.553 E12.90325
G1 X263.779 Y176.949 E12.91315
G1 X309.581 Y123.670 E13.79466
G1 X310.192 Y123.115 E13.80503
G1 X310.448 Y122.945 E13.80888
G1 X311.449 Y122.515 E13.82255
G1 X311.648 Y122.468 E13.82512
G1 X312.378 Y122.388 E13.83433
G1 X312.622 Y122.388 E13.83739
G1 X313.352 Y122.468 E13.84660
G1 X313.551 Y122.515 E13.84917
G1 X314.552 Y122.945 E13.86284
G1 X314.808 Y123.115 E13.86669
G1 X315.419 Y123.670 E13.87706
G1 X361.730 Y177.553 E14.76847
G1 X362.072 Y178.042 E14.77596
G1 X362.397 Y178.608 E14.78416
G1 X362.668 Y179.209 E14.79243
G1 X362.863 Y179.787 E14.80008
G1 X363.000 Y180.352 E14.80737
G1 X363.093 Y180.964 E14.81514
G1 X363.130 Y181.363 E14.82016
G1 X363.151 Y182.233 E14.83108
G1 X363.130 Y182.977 E14.84043
G1 X363.016 Y184.072 E14.85424
G1 X362.953 Y184.438 E14.85890
G1 X362.758 Y185.284 E14.86979
G1 X362.630 Y185.709 E14.87535
G1 X362.305 Y186.578 E14.88700
G1 X362.096 Y187.030 E14.89325
G1 X361.610 Y187.905 E14.90581
G1 X361.318 Y188.346 E14.91244
G1 X360.642 Y189.208 E14.92618
G1 X360.285 Y189.596 E14.93280
G1 X359.390 Y190.427 E14.94812
G1 X359.001 Y190.738 E14.95437
G1 X357.825 Y191.542 E14.97224
G1 X319.774 Y216.928 E15.54614
G1 X317.912 Y217.492 E15.57055
G1 X307.088 Y217.492 E15.70636
G1 X305.226 Y216.928 E15.73077
G1 X267.175 Y191.542 E16.30467
G1 X265.999 Y190.738 E16.32255
G1 X265.610 Y190.427 E16.32879
G1 X264.715 Y189.596 E16.34411
G1 X264.358 Y189.208 E16.35074
G1 X263.682 Y188.346 E16.36448
G1 X263.390 Y187.905 E16.37111
G1 X262.904 Y187.030 E16.38366
G1 X262.695 Y186.578 E16.38992
G1 X262.370 Y185.709 E16.40157
G1 X262.242 Y185.284 E16.40712
G1 X262.047 Y184.438 E16.41801
G1 X261.984 Y184.072 E16.42267
G1 X261.870 Y182.977 E16.43649
G1 X261.849 Y182.030 E16.44838
G1 X261.870 Y181.363 E16.45675
G1 X261.907 Y180.964 E16.46178
G1 X262.000 Y180.352 E16.46954
G1 X262.137 Y179.787 E16.47684
G1 X262.332 Y179.209 E16.48449
G1 X262.603 Y178.608 E16.49276
G1 X262.883 Y178.120 E16.49983
G1 X263.082 Y178.130 F6000.000
G1 F1680
G1 X263.406 Y177.667 E16.50692
G1 X263.913 Y177.065 E16.51680
G1 X309.715 Y123.786 E17.39831
G1 X310.294 Y123.260 E17.40813
G1 X310.543 Y123.094 E17.41188
G1 X311.491 Y122.687 E17.42483
G1 X311.687 Y122.641 E17.42734
G1 X312.378 Y122.565 E17.43607
G1 X312.622 Y122.565 E17.43913
G1 X313.313 Y122.641 E17.44786
G1 X313.509 Y122.687 E17.45037
G1 X314.457 Y123.094 E17.46332
G1 X314.706 Y123.260 E17.46707
G1 X315.285 Y123.786 E17.47689
G1 X361.594 Y177.667 E18.36828
G1 X361.918 Y178.130 E18.37537
G1 X362.244 Y178.697 E18.38357
G1 X362.500 Y179.266 E18.39140
G1 X362.695 Y179.844 E18.39905
G1 X362.825 Y180.379 E18.40596
G1 X362.918 Y180.990 E18.41372
G1 X362.953 Y181.368 E18.41848
G1 X362.974 Y182.227 E18.42927
G1 X362.953 Y182.972 E18.43862
G1 X362.840 Y184.052 E18.45224
G1 X362.780 Y184.399 E18.45665
G1 X362.585 Y185.245 E18.46754
G1 X362.464 Y185.646 E18.47280
G1 X362.139 Y186.516 E18.48445
G1 X361.941 Y186.944 E18.49037
G1 X361.455 Y187.819 E18.50293
G1 X361.178 Y188.236 E18.50921
G1 X360.502 Y189.098 E18.52295
G1 X360.164 Y189.466 E18.52922
G1 X359.269 Y190.297 E18.54455
G1 X358.901 Y190.592 E18.55046
G1 X357.727 Y191.394 E18.56831
G1 X319.676 Y216.781 E19.14221
G1 X317.912 Y217.315 E19.16533
G1 X307.088 Y217.315 E19.30114
G1 X305.324 Y216.781 E19.32426
G1 X267.273 Y191.394 E19.89816
G1 X266.099 Y190.592 E19.91600
G1 X265.731 Y190.297 E19.92192
G1 X264.836 Y189.466 E19.93724
G1 X264.498 Y189.098 E19.94351
G1 X263.822 Y188.236 E19.95726
G1 X263.545 Y187.819 E19.96354
G1 X263.059 Y186.944 E19.97609
G1 X262.861 Y186.516 E19.98201
G1 X262.536 Y185.646 E19.99366
G1 X262.415 Y185.245 E19.99893
G1 X262.220 Y184.399 E20.00982
G1 X262.160 Y184.052 E20.01423
G1 X262.047 Y182.972 E20.02785
G1 X262.026 Y182.035 E20.03961
G1 X262.047 Y181.368 E20.04798
G1 X262.082 Y180.990 E20.05274
G1 X262.175 Y180.379 E20.06051
G1 X262.305 Y179.844 E20.06742
G1 X262.500 Y179.266 E20.07507
G1 X262.756 Y178.697 E20.08290
G1 X263.037 Y178.208 E20.08997
G1 E18.08997 F2400.00000
G92 E0
G1 X317.647 Y213.852 F6000.000
G1 E2.00000 F2400.00000
G1 F2100
G1 X307.353 Y213.852 E2.12916
G1 X307.054 Y209.782 E2.18036
G1 X306.857 Y207.689 E2.20674
G1 X306.614 Y205.689 E2.23201
G1 X306.391 Y204.298 E2.24969
G1 X306.308 Y203.811 E2.25589
G1 X305.922 Y202.090 E2.27802
G1 X305.439 Y200.551 E2.29825
G1 X304.838 Y199.225 E2.31651
G1 X304.101 Y198.151 E2.33286
G1 X303.247 Y197.306 E2.34794
G1 X302.296 Y196.663 E2.36234
G1 X301.270 Y196.191 E2.37651
G1 X300.190 Y195.854 E2.39071
G1 X299.071 Y195.618 E2.40505
G1 X297.931 Y195.448 E2.41951
G1 X296.795 Y195.314 E2.43387
G1 X282.937 Y192.540 E2.61118
G1 X280.580 Y192.052 E2.64138
G1 X278.294 Y191.547 E2.67075
G1 X276.115 Y191.018 E2.69888
G1 X274.078 Y190.456 E2.72539
G1 X272.219 Y189.854 E2.74991
G1 X270.575 Y189.206 E2.77209
G1 X269.182 Y188.505 E2.79165
G1 X268.072 Y187.746 E2.80853
G1 X267.209 Y186.944 E2.82330
G1 X266.561 Y186.118 E2.83648
G1 X266.097 Y185.281 E2.84848
G1 X265.785 Y184.449 E2.85963
G1 X265.598 Y183.637 E2.87008
G1 X265.508 Y182.861 E2.87989
G1 X265.487 Y182.137 E2.88897
G1 X265.508 Y181.496 E2.89702
G1 X265.595 Y180.926 E2.90426
G1 X265.773 Y180.398 E2.91125
G1 X266.072 Y179.878 E2.91877
G1 X266.528 Y179.335 E2.92768
G1 X267.179 Y178.747 E2.93868
G1 X268.056 Y178.096 E2.95238
G1 X269.187 Y177.363 E2.96929
G1 X270.600 Y176.527 E2.98989
G1 X272.244 Y175.612 E3.01350
G1 X274.069 Y174.642 E3.03942
G1 X276.022 Y173.638 E3.06697
G1 X280.119 Y171.617 E3.12429
G1 X284.134 Y169.728 E3.17996
G1 X287.728 Y168.117 E3.22938
G1 X290.925 Y166.765 E3.27292
G1 X293.807 Y165.626 E3.31181
G1 X296.461 Y164.652 E3.34728
G1 X298.951 Y163.785 E3.38036
G1 X300.116 Y163.354 E3.39594
G1 X301.211 Y162.905 E3.41079
G1 X302.224 Y162.421 E3.42488
G1 X303.142 Y161.884 E3.43822
G1 X303.953 Y161.277 E3.45093
G1 X304.641 Y160.581 E3.46321
G1 X305.184 Y159.786 E3.47529
G1 X305.600 Y158.906 E3.48750
G1 X305.915 Y157.949 E3.50014
G1 X306.155 Y156.921 E3.51338
G1 X306.344 Y155.826 E3.52733
G1 X306.842 Y152.169 E3.57364
G1 X307.063 Y150.836 E3.59059
G1 X307.319 Y149.445 E3.60833
G1 X307.671 Y147.687 E3.63082
G1 X309.277 Y140.074 E3.72844
G1 X309.939 Y136.659 E3.77208
G1 X311.100 Y130.463 E3.85118
G1 X311.568 Y128.214 E3.88000
G1 X311.766 Y127.424 E3.89022
G1 X311.942 Y126.838 E3.89789
G1 X312.096 Y126.434 E3.90333
G1 X312.226 Y126.187 E3.90682
G1 X312.319 Y126.071 E3.90869
G1 X312.411 Y126.028 E3.90997
G1 X312.556 Y126.028 E3.91178
G1 X312.638 Y126.042 E3.91282
G1 X312.681 Y126.071 E3.91348
G1 X312.774 Y126.187 E3.91534
G1 X312.904 Y126.434 E3.91884
G1 X313.058 Y126.838 E3.92428
G1 X313.234 Y127.424 E3.93195
G1 X313.433 Y128.215 E3.94218
G1 X313.655 Y129.238 E3.95532
G1 X315.723 Y140.074 E4.09372
G1 X317.329 Y147.687 E4.19135
G1 X317.681 Y149.445 E4.21384
G1 X317.937 Y150.836 E4.23158
G1 X318.158 Y152.169 E4.24853
G1 X318.656 Y155.826 E4.29483
G1 X318.845 Y156.921 E4.30879
G1 X319.085 Y157.949 E4.32203
G1 X319.400 Y158.906 E4.33467
G1 X319.816 Y159.786 E4.34688
G1 X320.359 Y160.581 E4.35896
G1 X321.047 Y161.277 E4.37123
G1 X321.858 Y161.884 E4.38394
G1 X322.776 Y162.421 E4.39729
G1 X323.789 Y162.905 E4.41138
G1 X324.884 Y163.354 E4.42623
G1 X326.049 Y163.785 E4.44180
G1 X329.843 Y165.122 E4.49227
G1 X332.600 Y166.172 E4.52929
G1 X335.629 Y167.412 E4.57036
G1 X339.014 Y168.887 E4.61669
G1 X342.839 Y170.645 E4.66950
G1 X346.945 Y172.623 E4.72668
G1 X348.977 Y173.638 E4.75519
G1 X350.931 Y174.642 E4.78275
G1 X352.756 Y175.612 E4.80867
G1 X354.400 Y176.527 E4.83228
G1 X355.813 Y177.363 E4.85287
G1 X356.944 Y178.096 E4.86979
G1 X357.821 Y178.747 E4.88349
G1 X358.472 Y179.335 E4.89449
G1 X358.928 Y179.878 E4.90339
G1 X359.227 Y180.398 E4.91092
G1 X359.405 Y180.926 E4.91791
G1 X359.492 Y181.496 E4.92514
G1 X359.513 Y182.137 E4.93320
G1 X359.492 Y182.861 E4.94228
G1 X359.402 Y183.637 E4.95209
G1 X359.215 Y184.449 E4.96254
G1 X358.903 Y185.281 E4.97369
G1 X358.439 Y186.118 E4.98569
G1 X357.791 Y186.944 E4.99887
G1 X356.928 Y187.746 E5.01364
G1 X355.818 Y188.505 E5.03052
G1 X354.425 Y189.206 E5.05008
G1 X352.781 Y189.854 E5.07226
G1 X350.922 Y190.456 E5.09677
G1 X348.885 Y191.018 E5.12328
G1 X346.706 Y191.547 E5.15142
G1 X344.420 Y192.052 E5.18079
G1 X342.063 Y192.540 E5.21099
G1 X328.205 Y195.314 E5.38830
G1 X327.069 Y195.448 E5.40266
G1 X325.929 Y195.618 E5.41712
G1 X324.810 Y195.854 E5.43146
G1 X323.730 Y196.191 E5.44566
G1 X322.704 Y196.663 E5.45983
G1 X321.753 Y197.306 E5.47423
G1 X320.899 Y198.151 E5.48931
G1 X320.162 Y199.225 E5.50566
G1 X319.561 Y200.551 E5.52391
G1 X319.078 Y202.090 E5.54415
G1 X318.692 Y203.811 E5.56628
G1 X318.386 Y205.689 E5.59015
G1 X318.143 Y207.689 E5.61543
G1 X317.946 Y209.782 E5.64180
G1 X317.654 Y213.762 E5.69188
G1 X317.812 Y214.030 F6000.000
G1 F1680
G1 X307.188 Y214.030 E5.82518
G1 X306.878 Y209.797 E5.87843
G1 X306.681 Y207.708 E5.90475
G1 X306.438 Y205.714 E5.92995
G1 X306.216 Y204.327 E5.94758
G1 X306.134 Y203.846 E5.95370
G1 X305.751 Y202.136 E5.97568
G1 X305.273 Y200.614 E5.99569
G1 X304.683 Y199.313 E6.01362
