; generated by Slic3r 1.3.0-dev on 2018-04-23 at 16:50:20

; external perimeters extrusion width = 0.44mm (2.54mm^3/s)
; perimeters extrusion width = 0.56mm (4.14mm^3/s)
; infill extrusion width = 0.50mm (3.66mm^3/s)
; solid infill extrusion width = 0.56mm (4.14mm^3/s)
; top infill extrusion width = 0.56mm (4.14mm^3/s)

M107
M104 S210 ; set temperature
G28 ; home all axes
G32; probe home individual Z axis
G29 S1; load bed mesh

; Filament gcode

M109 S210 ; set temperature and wait for it to be reached
G21 ; set units to millimeters
G90 ; use absolute coordinates
M82 ; use absolute distances for extrusion
G92 E0
G1 Z0.320 F6000.000
G1 E-2.00000 F2400.00000
G92 E0
G1 X101.331 Y75.370 F6000.000
G1 E2.00000 F2400.00000
G1 F1680
G1 X102.261 Y74.985 E2.04226
G1 X197.629 Y74.985 E6.04305
G1 X198.558 Y75.369 E6.08526
G1 X198.944 Y76.300 E6.12752
G1 X198.944 Y98.300 E7.05045
G1 X198.559 Y99.230 E7.09265
G1 X197.629 Y99.615 E7.13491
G1 X102.261 Y99.615 E11.13571
G1 X101.332 Y99.231 E11.17791
G1 X100.946 Y98.300 E11.22017
G1 X100.946 Y76.300 E12.14310
G1 X101.308 Y75.426 E12.18279
G1 E10.18279 F2400.00000
G92 E0
G1 X197.121 Y97.793 F6000.000
G1 E2.00000 F2400.00000
G1 F1680
G1 X102.769 Y97.793 E5.95823
G1 X102.769 Y76.807 E6.83859
G1 X197.121 Y76.807 E10.79682
G1 X197.121 Y97.733 E11.67467
G1 X197.437 Y98.108 F6000.000
G1 F1344
G1 X102.453 Y98.108 E15.65935
G1 X102.453 Y76.492 E16.56617
G1 X197.437 Y76.492 E20.55086
G1 X197.437 Y98.048 E21.45516
G1 X197.038 Y98.078 F6000.000
G1 X196.761 Y97.522 F6000.000
G1 F1680
G1 X196.851 Y97.433 E21.46048
G1 X196.851 Y96.985 E21.47930
G1 X196.314 Y97.522 E21.51125
G1 X195.867 Y97.522 E21.53007
G1 X196.851 Y96.538 E21.58864
G1 X196.851 Y96.091 E21.60747
G1 X195.419 Y97.522 E21.69266
G1 X194.972 Y97.522 E21.71149
G1 X196.851 Y95.643 E21.82331
G1 X196.851 Y95.196 E21.84213
G1 X194.525 Y97.522 E21.98058
G1 X194.077 Y97.522 E21.99940
G1 X196.851 Y94.748 E22.16447
G1 X196.851 Y94.301 E22.18330
G1 X193.630 Y97.522 E22.37500
G1 X193.183 Y97.522 E22.39382
G1 X196.851 Y93.854 E22.61214
G1 X196.851 Y93.406 E22.63097
G1 X192.735 Y97.522 E22.87592
G1 X192.288 Y97.522 E22.89474
G1 X196.851 Y92.959 E23.16631
G1 X196.851 Y92.512 E23.18514
G1 X191.841 Y97.522 E23.48334
G1 X191.393 Y97.522 E23.50217
G1 X196.851 Y92.064 E23.82699
G1 X196.851 Y91.617 E23.84581
G1 X190.946 Y97.522 E24.19726
G1 X190.498 Y97.522 E24.21609
G1 X196.851 Y91.170 E24.59416
G1 X196.851 Y90.722 E24.61299
G1 X190.051 Y97.522 E25.01769
G1 X189.604 Y97.522 E25.03652
G1 X196.851 Y90.275 E25.46784
G1 X196.851 Y89.828 E25.48667
G1 X189.156 Y97.522 E25.94462
G1 X188.709 Y97.522 E25.96344
G1 X196.851 Y89.380 E26.44802
G1 X196.851 Y88.933 E26.46685
G1 X188.262 Y97.522 E26.97805
G1 X187.814 Y97.522 E26.99687
G1 X196.851 Y88.485 E27.53470
G1 X196.851 Y88.038 E27.55353
G1 X187.367 Y97.522 E28.11798
G1 X186.920 Y97.522 E28.13681
G1 X196.851 Y87.591 E28.72788
G1 X196.851 Y87.143 E28.74671
G1 X186.472 Y97.522 E29.36441
G1 X186.025 Y97.522 E29.38324
G1 X196.851 Y86.696 E30.02757
G1 X196.851 Y86.249 E30.04639
G1 X185.577 Y97.522 E30.71735
G1 X185.130 Y97.522 E30.73617
G1 X196.851 Y85.801 E31.43375
G1 X196.851 Y85.354 E31.45258
G1 X184.683 Y97.522 E32.17679
G1 X184.235 Y97.522 E32.19561
G1 X196.851 Y84.907 E32.94644
G1 X196.851 Y84.459 E32.96527
G1 X183.788 Y97.522 E33.74273
G1 X183.341 Y97.522 E33.76155
G1 X196.851 Y84.012 E34.56563
G1 X196.851 Y83.564 E34.58446
G1 X182.893 Y97.522 E35.41517
G1 X182.446 Y97.522 E35.43399
G1 X196.851 Y83.117 E36.29133
G1 X196.851 Y82.670 E36.31015
G1 X181.999 Y97.522 E37.19411
G1 X181.551 Y97.522 E37.21294
G1 X196.851 Y82.222 E38.12352
G1 X196.851 Y81.775 E38.14235
G1 X181.104 Y97.522 E39.07956
G1 X180.657 Y97.522 E39.09838
G1 X196.851 Y81.328 E40.06222
G1 X196.851 Y80.880 E40.08104
G1 X180.209 Y97.522 E41.07150
G1 X179.762 Y97.522 E41.09033
G1 X196.851 Y80.433 E42.10742
G1 X196.851 Y79.986 E42.12624
G1 X179.314 Y97.522 E43.16995
G1 X178.867 Y97.522 E43.18878
G1 X196.851 Y79.538 E44.25912
G1 X196.851 Y79.091 E44.27794
G1 X178.420 Y97.522 E45.37490
G1 X177.972 Y97.522 E45.39373
G1 X196.851 Y78.644 E46.51732
G1 X196.851 Y78.196 E46.53614
G1 X177.525 Y97.522 E47.68636
G1 X177.078 Y97.522 E47.70518
G1 X196.851 Y77.749 E48.88202
G1 X196.851 Y77.301 E48.90085
G1 X176.630 Y97.522 E50.10431
G1 X176.183 Y97.522 E50.12314
G1 X196.627 Y77.078 E51.33990
G1 X196.179 Y77.078 E51.35873
G1 X175.736 Y97.522 E52.57549
G1 X175.288 Y97.522 E52.59431
G1 X195.732 Y77.078 E53.81107
G1 X195.285 Y77.078 E53.82990
G1 X174.841 Y97.522 E55.04666
G1 X174.393 Y97.522 E55.06549
G1 X194.837 Y77.078 E56.28225
G1 X194.390 Y77.078 E56.30108
G1 X173.946 Y97.522 E57.51784
G1 X173.499 Y97.522 E57.53667
G1 X193.943 Y77.078 E58.75343
G1 X193.495 Y77.078 E58.77225
G1 X173.051 Y97.522 E59.98901
G1 X172.604 Y97.522 E60.00784
G1 X193.048 Y77.078 E61.22460
G1 X192.601 Y77.078 E61.24343
G1 X172.157 Y97.522 E62.46019
G1 X171.709 Y97.522 E62.47902
G1 X192.153 Y77.078 E63.69578
G1 X191.706 Y77.078 E63.71460
G1 X171.262 Y97.522 E64.93136
G1 X170.815 Y97.522 E64.95019
G1 X191.259 Y77.078 E66.16695
G1 X190.811 Y77.078 E66.18578
G1 X170.367 Y97.522 E67.40254
G1 X169.920 Y97.522 E67.42137
G1 X190.364 Y77.078 E68.63813
G1 X189.916 Y77.078 E68.65695
G1 X169.473 Y97.522 E69.87372
G1 X169.025 Y97.522 E69.89254
G1 X189.469 Y77.078 E71.10930
G1 X189.022 Y77.078 E71.12813
G1 X168.578 Y97.522 E72.34489
G1 X168.130 Y97.522 E72.36372
G1 X188.574 Y77.078 E73.58048
G1 X188.127 Y77.078 E73.59931
G1 X167.683 Y97.522 E74.81607
G1 X167.236 Y97.522 E74.83489
G1 X187.680 Y77.078 E76.05165
G1 X187.232 Y77.078 E76.07048
G1 X166.788 Y97.522 E77.28724
G1 X166.341 Y97.522 E77.30607
G1 X186.785 Y77.078 E78.52283
G1 X186.338 Y77.078 E78.54166
G1 X165.894 Y97.522 E79.75842
G1 X165.446 Y97.522 E79.77724
G1 X185.890 Y77.078 E80.99401
G1 X185.443 Y77.078 E81.01283
G1 X164.999 Y97.522 E82.22959
G1 X164.552 Y97.522 E82.24842
G1 X184.995 Y77.078 E83.46518
G1 X184.548 Y77.078 E83.48401
G1 X164.104 Y97.522 E84.70077
G1 X163.657 Y97.522 E84.71960
G1 X184.101 Y77.078 E85.93636
G1 X183.653 Y77.078 E85.95518
G1 X163.209 Y97.522 E87.17194
G1 X162.762 Y97.522 E87.19077
G1 X183.206 Y77.078 E88.40753
G1 X182.759 Y77.078 E88.42636
G1 X162.315 Y97.522 E89.64312
G1 X161.867 Y97.522 E89.66195
G1 X182.311 Y77.078 E90.87871
G1 X181.864 Y77.078 E90.89753
G1 X161.420 Y97.522 E92.11430
G1 X160.973 Y97.522 E92.13312
G1 X181.417 Y77.078 E93.34988
G1 X180.969 Y77.078 E93.36871
G1 X160.525 Y97.522 E94.58547
G1 X160.078 Y97.522 E94.60430
G1 X180.522 Y77.078 E95.82106
G1 X180.075 Y77.078 E95.83989
G1 X159.631 Y97.522 E97.05665
G1 X159.183 Y97.522 E97.07547
G1 X179.627 Y77.078 E98.29223
G1 X179.180 Y77.078 E98.31106
G1 X158.736 Y97.522 E99.52782
G1 X158.289 Y97.522 E99.54665
G1 X178.732 Y77.078 E100.76341
G1 X178.285 Y77.078 E100.78224
G1 X157.841 Y97.522 E101.99900
G1 X157.394 Y97.522 E102.01782
G1 X177.838 Y77.078 E103.23459
G1 X177.390 Y77.078 E103.25341
G1 X156.946 Y97.522 E104.47017
G1 X156.499 Y97.522 E104.48900
G1 X176.943 Y77.078 E105.70576
G1 X176.496 Y77.078 E105.72459
G1 X156.052 Y97.522 E106.94135
G1 X155.604 Y97.522 E106.96018
G1 X176.048 Y77.078 E108.17694
G1 X175.601 Y77.078 E108.19576
G1 X155.157 Y97.522 E109.41252
G1 X154.710 Y97.522 E109.43135
G1 X175.154 Y77.078 E110.64811
G1 X174.706 Y77.078 E110.66694
G1 X154.262 Y97.522 E111.88370
G1 X153.815 Y97.522 E111.90253
G1 X174.259 Y77.078 E113.11929
G1 X173.812 Y77.078 E113.13811
G1 X153.368 Y97.522 E114.35487
G1 X152.920 Y97.522 E114.37370
G1 X173.364 Y77.078 E115.59046
G1 X172.917 Y77.078 E115.60929
G1 X152.473 Y97.522 E116.82605
G1 X152.025 Y97.522 E116.84488
G1 X172.469 Y77.078 E118.06164
G1 X172.022 Y77.078 E118.08047
G1 X151.578 Y97.522 E119.29723
G1 X151.131 Y97.522 E119.31605
G1 X171.575 Y77.078 E120.53281
G1 X171.127 Y77.078 E120.55164
G1 X150.683 Y97.522 E121.76840
G1 X150.236 Y97.522 E121.78723
G1 X170.680 Y77.078 E123.00399
G1 X170.233 Y77.078 E123.02282
G1 X149.789 Y97.522 E124.23958
G1 X149.341 Y97.522 E124.25840
G1 X169.785 Y77.078 E125.47516
G1 X169.338 Y77.078 E125.49399
G1 X148.894 Y97.522 E126.71075
G1 X148.447 Y97.522 E126.72958
G1 X168.891 Y77.078 E127.94634
G1 X168.443 Y77.078 E127.96517
G1 X147.999 Y97.522 E129.18193
G1 X147.552 Y97.522 E129.20076
G1 X167.996 Y77.078 E130.41752
G1 X167.548 Y77.078 E130.43634
G1 X147.105 Y97.522 E131.65310
G1 X146.657 Y97.522 E131.67193
G1 X167.101 Y77.078 E132.88869
G1 X166.654 Y77.078 E132.90752
G1 X146.210 Y97.522 E134.12428
G1 X145.762 Y97.522 E134.14311
G1 X166.206 Y77.078 E135.35987
G1 X165.759 Y77.078 E135.37869
G1 X145.315 Y97.522 E136.59545
G1 X144.868 Y97.522 E136.61428
G1 X165.312 Y77.078 E137.83104
G1 X164.864 Y77.078 E137.84987
G1 X144.420 Y97.522 E139.06663
G1 X143.973 Y97.522 E139.08546
G1 X164.417 Y77.078 E140.30222
G1 X163.970 Y77.078 E140.32104
G1 X143.526 Y97.522 E141.53781
G1 X143.078 Y97.522 E141.55663
G1 X163.522 Y77.078 E142.77339
G1 X163.075 Y77.078 E142.79222
G1 X142.631 Y97.522 E144.00898
G1 X142.184 Y97.522 E144.02781
G1 X162.628 Y77.078 E145.24457
G1 X162.180 Y77.078 E145.26340
G1 X141.736 Y97.522 E146.48016
G1 X141.289 Y97.522 E146.49898
G1 X161.733 Y77.078 E147.71574
G1 X161.285 Y77.078 E147.73457
G1 X140.841 Y97.522 E148.95133
G1 X140.394 Y97.522 E148.97016
G1 X160.838 Y77.078 E150.18692
G1 X160.391 Y77.078 E150.20575
G1 X139.947 Y97.522 E151.42251
G1 X139.499 Y97.522 E151.44133
G1 X159.943 Y77.078 E152.65809
G1 X159.496 Y77.078 E152.67692
G1 X139.052 Y97.522 E153.89368
G1 X138.605 Y97.522 E153.91251
G1 X159.049 Y77.078 E155.12927
G1 X158.601 Y77.078 E155.14810
G1 X138.157 Y97.522 E156.36486
G1 X137.710 Y97.522 E156.38369
G1 X158.154 Y77.078 E157.60045
G1 X157.707 Y77.078 E157.61927
G1 X137.263 Y97.522 E158.83603
G1 X136.815 Y97.522 E158.85486
G1 X157.259 Y77.078 E160.07162
G1 X156.812 Y77.078 E160.09045
G1 X136.368 Y97.522 E161.30721
G1 X135.921 Y97.522 E161.32604
G1 X156.364 Y77.078 E162.54280
G1 X155.917 Y77.078 E162.56162
G1 X135.473 Y97.522 E163.77838
G1 X135.026 Y97.522 E163.79721
G1 X155.470 Y77.078 E165.01397
G1 X155.022 Y77.078 E165.03280
G1 X134.578 Y97.522 E166.24956
G1 X134.131 Y97.522 E166.26839
G1 X154.575 Y77.078 E167.48515
G1 X154.128 Y77.078 E167.50397
G1 X133.684 Y97.522 E168.72074
G1 X133.236 Y97.522 E168.73956
G1 X153.680 Y77.078 E169.95632
G1 X153.233 Y77.078 E169.97515
G1 X132.789 Y97.522 E171.19191
G1 X132.342 Y97.522 E171.21074
G1 X152.786 Y77.078 E172.42750
G1 X152.338 Y77.078 E172.44633
G1 X131.894 Y97.522 E173.66309
G1 X131.447 Y97.522 E173.68191
G1 X151.891 Y77.078 E174.89867
G1 X151.444 Y77.078 E174.91750
G1 X131.000 Y97.522 E176.13426
G1 X130.552 Y97.522 E176.15309
G1 X150.996 Y77.078 E177.36985
G1 X150.549 Y77.078 E177.38868
G1 X130.105 Y97.522 E178.60544
G1 X129.658 Y97.522 E178.62426
G1 X150.101 Y77.078 E179.84103
G1 X149.654 Y77.078 E179.85985
G1 X129.210 Y97.522 E181.07661
G1 X128.763 Y97.522 E181.09544
G1 X149.207 Y77.078 E182.31220
G1 X148.759 Y77.078 E182.33103
G1 X128.315 Y97.522 E183.54779
G1 X127.868 Y97.522 E183.56662
G1 X148.312 Y77.078 E184.78338
G1 X147.865 Y77.078 E184.80220
G1 X127.421 Y97.522 E186.01896
G1 X126.973 Y97.522 E186.03779
G1 X147.417 Y77.078 E187.25455
G1 X146.970 Y77.078 E187.27338
G1 X126.526 Y97.522 E188.49014
G1 X126.079 Y97.522 E188.50897
G1 X146.523 Y77.078 E189.72573
G1 X146.075 Y77.078 E189.74456
G1 X125.631 Y97.522 E190.96132
G1 X125.184 Y97.522 E190.98014
G1 X145.628 Y77.078 E192.19690
G1 X145.180 Y77.078 E192.21573
G1 X124.737 Y97.522 E193.43249
G1 X124.289 Y97.522 E193.45132
G1 X144.733 Y77.078 E194.66808
G1 X144.286 Y77.078 E194.68691
G1 X123.842 Y97.522 E195.90367
G1 X123.394 Y97.522 E195.92249
G1 X143.838 Y77.078 E197.13926
G1 X143.391 Y77.078 E197.15808
G1 X122.947 Y97.522 E198.37484
G1 X122.500 Y97.522 E198.39367
G1 X142.944 Y77.078 E199.61043
G1 X142.496 Y77.078 E199.62926
G1 X122.052 Y97.522 E200.84602
G1 X121.605 Y97.522 E200.86485
G1 X142.049 Y77.078 E202.08161
G1 X141.602 Y77.078 E202.10043
G1 X121.158 Y97.522 E203.31719
G1 X120.710 Y97.522 E203.33602
G1 X141.154 Y77.078 E204.55278
G1 X140.707 Y77.078 E204.57161
G1 X120.263 Y97.522 E205.78837
G1 X119.816 Y97.522 E205.80720
G1 X140.260 Y77.078 E207.02396
G1 X139.812 Y77.078 E207.04278
G1 X119.368 Y97.522 E208.25954
G1 X118.921 Y97.522 E208.27837
G1 X139.365 Y77.078 E209.49513
G1 X138.917 Y77.078 E209.51396
G1 X118.474 Y97.522 E210.73072
G1 X118.026 Y97.522 E210.74955
G1 X138.470 Y77.078 E211.96631
G1 X138.023 Y77.078 E211.98514
G1 X117.579 Y97.522 E213.20190
G1 X117.131 Y97.522 E213.22072
G1 X137.575 Y77.078 E214.43748
G1 X137.128 Y77.078 E214.45631
G1 X116.684 Y97.522 E215.67307
G1 X116.237 Y97.522 E215.69190
G1 X136.681 Y77.078 E216.90866
G1 X136.233 Y77.078 E216.92749
G1 X115.789 Y97.522 E218.14425
G1 X115.342 Y97.522 E218.16307
G1 X135.786 Y77.078 E219.37983
G1 X135.339 Y77.078 E219.39866
G1 X114.895 Y97.522 E220.61542
G1 X114.447 Y97.522 E220.63425
G1 X134.891 Y77.078 E221.85101
G1 X134.444 Y77.078 E221.86984
G1 X114.000 Y97.522 E223.08660
G1 X113.553 Y97.522 E223.10543
G1 X133.996 Y77.078 E224.32219
G1 X133.549 Y77.078 E224.34101
G1 X113.105 Y97.522 E225.55777
G1 X112.658 Y97.522 E225.57660
G1 X133.102 Y77.078 E226.79336
G1 X132.654 Y77.078 E226.81219
G1 X112.210 Y97.522 E228.02895
G1 X111.763 Y97.522 E228.04778
G1 X132.207 Y77.078 E229.26454
G1 X131.760 Y77.078 E229.28336
G1 X111.316 Y97.522 E230.50012
G1 X110.868 Y97.522 E230.51895
G1 X131.312 Y77.078 E231.73571
G1 X130.865 Y77.078 E231.75454
G1 X110.421 Y97.522 E232.97130
G1 X109.974 Y97.522 E232.99013
G1 X130.418 Y77.078 E234.20689
G1 X129.970 Y77.078 E234.22572
G1 X109.526 Y97.522 E235.44248
G1 X109.079 Y97.522 E235.46130
G1 X129.523 Y77.078 E236.67806
G1 X129.076 Y77.078 E236.69689
G1 X108.632 Y97.522 E237.91365
G1 X108.184 Y97.522 E237.93248
G1 X128.628 Y77.078 E239.14924
G1 X128.181 Y77.078 E239.16807
G1 X107.737 Y97.522 E240.38483
G1 X107.290 Y97.522 E240.40365
G1 X127.733 Y77.078 E241.62041
G1 X127.286 Y77.078 E241.63924
G1 X106.842 Y97.522 E242.85600
G1 X106.395 Y97.522 E242.87483
G1 X126.839 Y77.078 E244.09159
G1 X126.391 Y77.078 E244.11042
G1 X105.947 Y97.522 E245.32718
G1 X105.500 Y97.522 E245.34600
G1 X125.944 Y77.078 E246.56277
G1 X125.497 Y77.078 E246.58159
G1 X105.053 Y97.522 E247.79835
G1 X104.605 Y97.522 E247.81718
G1 X125.049 Y77.078 E249.03394
G1 X124.602 Y77.078 E249.05277
G1 X104.158 Y97.522 E250.26953
G1 X103.711 Y97.522 E250.28836
G1 X124.155 Y77.078 E251.50512
G1 X123.707 Y77.078 E251.52394
G1 X103.263 Y97.522 E252.74070
G1 X103.039 Y97.522 E252.75013
G1 X103.039 Y97.299 E252.75953
G1 X123.260 Y77.078 E253.96300
G1 X122.813 Y77.078 E253.98182
G1 X103.039 Y96.851 E255.15866
G1 X103.039 Y96.404 E255.17749
G1 X122.365 Y77.078 E256.32770
G1 X121.918 Y77.078 E256.34653
G1 X103.039 Y95.956 E257.47012
G1 X103.039 Y95.509 E257.48894
G1 X121.470 Y77.078 E258.58590
G1 X121.023 Y77.078 E258.60473
G1 X103.039 Y95.062 E259.67507
G1 X103.039 Y94.614 E259.69390
G1 X120.576 Y77.078 E260.73761
G1 X120.128 Y77.078 E260.75643
G1 X103.039 Y94.167 E261.77352
G1 X103.039 Y93.720 E261.79235
G1 X119.681 Y77.078 E262.78281
G1 X119.234 Y77.078 E262.80163
G1 X103.039 Y93.272 E263.76547
G1 X103.039 Y92.825 E263.78430
G1 X118.786 Y77.078 E264.72150
G1 X118.339 Y77.078 E264.74033
G1 X103.039 Y92.378 E265.65092
G1 X103.039 Y91.930 E265.66974
G1 X117.892 Y77.078 E266.55370
G1 X117.444 Y77.078 E266.57253
G1 X103.039 Y91.483 E267.42986
G1 X103.039 Y91.036 E267.44869
G1 X116.997 Y77.078 E268.27939
G1 X116.549 Y77.078 E268.29822
G1 X103.039 Y90.588 E269.10230
G1 X103.039 Y90.141 E269.12113
G1 X116.102 Y77.078 E269.89859
G1 X115.655 Y77.078 E269.91741
G1 X103.039 Y89.693 E270.66824
G1 X103.039 Y89.246 E270.68707
G1 X115.207 Y77.078 E271.41128
G1 X114.760 Y77.078 E271.43010
G1 X103.039 Y88.799 E272.12768
G1 X103.039 Y88.351 E272.14651
G1 X114.313 Y77.078 E272.81747
G1 X113.865 Y77.078 E272.83629
G1 X103.039 Y87.904 E273.48062
G1 X103.039 Y87.457 E273.49945
G1 X113.418 Y77.078 E274.11715
G1 X112.971 Y77.078 E274.13598
G1 X103.039 Y87.009 E274.72706
G1 X103.039 Y86.562 E274.74588
G1 X112.523 Y77.078 E275.31034
G1 X112.076 Y77.078 E275.32916
G1 X103.039 Y86.115 E275.86699
