; generated by Slic3r 1.3.0-dev on 2018-03-21 at 11:03:23

; external perimeters extrusion width = 0.55mm (4.37mm^3/s)
; perimeters extrusion width = 0.70mm (11.44mm^3/s)
; infill extrusion width = 0.62mm (13.45mm^3/s)
; solid infill extrusion width = 0.70mm (3.81mm^3/s)
; top infill extrusion width = 0.70mm (2.86mm^3/s)

M107
M104 S200 ; set temperature
G28 ; home all axes
G1 Z5 F5000 ; lift nozzle

; Filament gcode

M109 S200 ; set temperature and wait for it to be reached
G21 ; set units to millimeters
G90 ; use absolute coordinates
M82 ; use absolute distances for extrusion
G92 E0
G1 Z0.350 F7800.000
G1 E-2.00000 F2400.00000
G92 E0
G1 X68.593 Y88.774 F7800.000
G1 E2.00000 F2400.00000
G1 F1800
G1 X70.745 Y87.981 E2.07096
G1 X71.925 Y87.875 E2.10761
G1 X119.711 Y87.875 E3.58616
G1 X121.969 Y88.272 E3.65712
G1 X123.958 Y89.415 E3.72808
G1 X125.437 Y91.168 E3.79905
G1 X126.230 Y93.320 E3.87001
G1 X126.336 Y94.500 E3.90666
G1 X126.336 Y105.500 E4.24701
G1 X125.939 Y107.759 E4.31798
G1 X124.795 Y109.747 E4.38894
G1 X123.042 Y111.226 E4.45990
G1 X120.890 Y112.019 E4.53086
G1 X119.711 Y112.125 E4.56752
G1 X71.925 Y112.125 E6.04606
G1 X69.666 Y111.728 E6.11702
G1 X67.678 Y110.585 E6.18799
G1 X66.199 Y108.832 E6.25895
G1 X65.406 Y106.680 E6.32991
G1 X65.300 Y105.500 E6.36656
G1 X65.300 Y94.500 E6.70692
G1 X65.697 Y92.241 E6.77788
G1 X66.841 Y90.253 E6.84884
G1 X68.536 Y88.822 E6.91748
G1 E4.91748 F2400.00000
G92 E0
G1 X118.736 Y104.525 F7800.000
G1 E2.00000 F2400.00000
G1 F1800
G1 X72.900 Y104.525 E3.41822
G1 X72.900 Y95.475 E3.69824
G1 X118.736 Y95.475 E5.11646
G1 X118.736 Y104.450 E5.39417
G1 X119.361 Y105.150 F7800.000
G1 F1800
G1 X72.275 Y105.150 E6.85106
G1 X72.275 Y94.850 E7.16975
G1 X119.361 Y94.850 E8.62664
G1 X119.361 Y105.075 E8.94301
G1 X118.862 Y105.114 F7800.000
G1 X117.868 Y104.143 F7800.000
G1 F1800
G1 X118.354 Y103.657 E8.96439
G1 X118.354 Y102.769 E8.99199
G1 X116.980 Y104.143 E9.05240
G1 X116.092 Y104.143 E9.08000
G1 X118.354 Y101.881 E9.17945
G1 X118.354 Y100.993 E9.20705
G1 X115.204 Y104.143 E9.34554
G1 X114.316 Y104.143 E9.37314
G1 X118.354 Y100.105 E9.55066
G1 X118.354 Y99.218 E9.57826
G1 X113.428 Y104.143 E9.79482
G1 X112.540 Y104.143 E9.82242
G1 X118.354 Y98.330 E10.07801
G1 X118.354 Y97.442 E10.10561
G1 X111.652 Y104.143 E10.40024
G1 X110.765 Y104.143 E10.42784
G1 X118.354 Y96.554 E10.76150
G1 X118.354 Y95.857 E10.78318
G1 X118.163 Y95.857 E10.78911
G1 X109.877 Y104.143 E11.15342
G1 X108.989 Y104.143 E11.18102
G1 X117.275 Y95.857 E11.54533
G1 X116.387 Y95.857 E11.57294
G1 X108.101 Y104.143 E11.93725
G1 X107.213 Y104.143 E11.96485
G1 X115.499 Y95.857 E12.32916
G1 X114.612 Y95.857 E12.35676
G1 X106.325 Y104.143 E12.72108
G1 X105.437 Y104.143 E12.74868
G1 X113.724 Y95.857 E13.11299
G1 X112.836 Y95.857 E13.14059
G1 X104.549 Y104.143 E13.50491
G1 X103.661 Y104.143 E13.53251
G1 X111.948 Y95.857 E13.89682
G1 X111.060 Y95.857 E13.92442
G1 X102.773 Y104.143 E14.28874
G1 X101.885 Y104.143 E14.31634
G1 X110.172 Y95.857 E14.68065
G1 X109.284 Y95.857 E14.70825
G1 X100.998 Y104.143 E15.07256
G1 X100.110 Y104.143 E15.10017
G1 X108.396 Y95.857 E15.46448
G1 X107.508 Y95.857 E15.49208
G1 X99.222 Y104.143 E15.85639
G1 X98.334 Y104.143 E15.88400
G1 X106.620 Y95.857 E16.24831
G1 X105.733 Y95.857 E16.27591
G1 X97.446 Y104.143 E16.64022
G1 X96.558 Y104.143 E16.66783
G1 X104.845 Y95.857 E17.03214
G1 X103.957 Y95.857 E17.05974
G1 X95.670 Y104.143 E17.42405
G1 X94.782 Y104.143 E17.45165
G1 X103.069 Y95.857 E17.81597
G1 X102.181 Y95.857 E17.84357
G1 X93.894 Y104.143 E18.20788
G1 X93.006 Y104.143 E18.23548
G1 X101.293 Y95.857 E18.59980
G1 X100.405 Y95.857 E18.62740
G1 X92.119 Y104.143 E18.99171
G1 X91.231 Y104.143 E19.01931
G1 X99.517 Y95.857 E19.38362
G1 X98.629 Y95.857 E19.41123
G1 X90.343 Y104.143 E19.77554
G1 X89.455 Y104.143 E19.80314
G1 X97.741 Y95.857 E20.16745
G1 X96.854 Y95.857 E20.19506
G1 X88.567 Y104.143 E20.55937
G1 X87.679 Y104.143 E20.58697
G1 X95.966 Y95.857 E20.95128
G1 X95.078 Y95.857 E20.97889
G1 X86.791 Y104.143 E21.34320
G1 X85.903 Y104.143 E21.37080
G1 X94.190 Y95.857 E21.73511
G1 X93.302 Y95.857 E21.76271
G1 X85.015 Y104.143 E22.12703
G1 X84.127 Y104.143 E22.15463
G1 X92.414 Y95.857 E22.51894
G1 X91.526 Y95.857 E22.54654
G1 X83.240 Y104.143 E22.91086
G1 X82.352 Y104.143 E22.93846
G1 X90.638 Y95.857 E23.30277
G1 X89.750 Y95.857 E23.33037
G1 X81.464 Y104.143 E23.69468
G1 X80.576 Y104.143 E23.72229
G1 X88.862 Y95.857 E24.08660
G1 X87.974 Y95.857 E24.11420
G1 X79.688 Y104.143 E24.47851
G1 X78.800 Y104.143 E24.50612
G1 X87.087 Y95.857 E24.87043
G1 X86.199 Y95.857 E24.89803
G1 X77.912 Y104.143 E25.26234
G1 X77.024 Y104.143 E25.28995
G1 X85.311 Y95.857 E25.65426
G1 X84.423 Y95.857 E25.68186
G1 X76.136 Y104.143 E26.04617
G1 X75.248 Y104.143 E26.07377
G1 X83.535 Y95.857 E26.43809
G1 X82.647 Y95.857 E26.46569
G1 X74.361 Y104.143 E26.83000
G1 X73.473 Y104.143 E26.85760
G1 X81.759 Y95.857 E27.22192
G1 X80.871 Y95.857 E27.24952
G1 X73.282 Y103.446 E27.58318
G1 X73.282 Y102.558 E27.61078
G1 X79.983 Y95.857 E27.90541
G1 X79.095 Y95.857 E27.93302
G1 X73.282 Y101.670 E28.18861
G1 X73.282 Y100.782 E28.21621
G1 X78.208 Y95.857 E28.43277
G1 X77.320 Y95.857 E28.46037
G1 X73.282 Y99.895 E28.63789
G1 X73.282 Y99.007 E28.66549
G1 X76.432 Y95.857 E28.80398
G1 X75.544 Y95.857 E28.83158
G1 X73.282 Y98.119 E28.93103
G1 X73.282 Y97.231 E28.95863
G1 X74.656 Y95.857 E29.01904
G1 X73.768 Y95.857 E29.04664
G1 X73.282 Y96.343 E29.06801
G1 Z0.650 F7800.000
G1 X118.875 Y104.664 F7800.000
G1 F3600
G1 X72.413 Y104.664 E30.32141
G1 X72.413 Y95.336 E30.57306
G1 X118.875 Y95.336 E31.82646
G1 X118.875 Y104.589 E32.07609
G1 X119.436 Y105.225 F7800.000
G1 F1800
G1 X71.852 Y105.225 E33.05681
G1 X71.852 Y94.775 E33.27218
G1 X119.436 Y94.775 E34.25290
G1 X119.436 Y105.150 E34.46673
G1 X118.937 Y105.189 F7800.000
G1 X118.487 Y96.219 F7800.000
G1 F1200
G1 X117.992 Y95.724 E34.48567
G1 X117.090 Y95.724 E34.51012
G1 X118.487 Y97.121 E34.56363
G1 X118.487 Y98.024 E34.58808
G1 X116.187 Y95.724 E34.67616
G1 X115.285 Y95.724 E34.70060
G1 X118.487 Y98.926 E34.82326
G1 X118.487 Y99.829 E34.84770
G1 X114.382 Y95.724 E35.00492
G1 X113.480 Y95.724 E35.02937
G1 X118.487 Y100.731 E35.22116
G1 X118.487 Y101.634 E35.24560
G1 X112.577 Y95.724 E35.47197
G1 X111.674 Y95.724 E35.49641
G1 X118.487 Y102.536 E35.75734
G1 X118.487 Y103.439 E35.78179
G1 X110.772 Y95.724 E36.07729
G1 X109.869 Y95.724 E36.10174
G1 X118.421 Y104.276 E36.42931
G1 X117.519 Y104.276 E36.45375
G1 X108.967 Y95.724 E36.78133
G1 X108.064 Y95.724 E36.80577
G1 X116.616 Y104.276 E37.13335
G1 X115.714 Y104.276 E37.15779
G1 X107.162 Y95.724 E37.48537
G1 X106.259 Y95.724 E37.50981
G1 X114.811 Y104.276 E37.83738
G1 X113.909 Y104.276 E37.86183
G1 X105.357 Y95.724 E38.18940
G1 X104.454 Y95.724 E38.21385
G1 X113.006 Y104.276 E38.54142
G1 X112.104 Y104.276 E38.56587
G1 X103.552 Y95.724 E38.89344
G1 X102.649 Y95.724 E38.91788
G1 X111.201 Y104.276 E39.24546
G1 X110.299 Y104.276 E39.26990
G1 X101.747 Y95.724 E39.59748
G1 X100.844 Y95.724 E39.62192
G1 X109.396 Y104.276 E39.94950
G1 X108.494 Y104.276 E39.97394
G1 X99.942 Y95.724 E40.30151
G1 X99.039 Y95.724 E40.32596
G1 X107.591 Y104.276 E40.65353
G1 X106.689 Y104.276 E40.67798
G1 X98.137 Y95.724 E41.00555
G1 X97.234 Y95.724 E41.03000
G1 X105.786 Y104.276 E41.35757
G1 X104.884 Y104.276 E41.38202
G1 X96.332 Y95.724 E41.70959
G1 X95.429 Y95.724 E41.73403
G1 X103.981 Y104.276 E42.06161
G1 X103.079 Y104.276 E42.08605
G1 X94.527 Y95.724 E42.41363
G1 X93.624 Y95.724 E42.43807
G1 X102.176 Y104.276 E42.76565
G1 X101.274 Y104.276 E42.79009
G1 X92.722 Y95.724 E43.11766
G1 X91.819 Y95.724 E43.14211
G1 X100.371 Y104.276 E43.46968
G1 X99.469 Y104.276 E43.49413
G1 X90.917 Y95.724 E43.82170
G1 X90.014 Y95.724 E43.84615
G1 X98.566 Y104.276 E44.17372
G1 X97.664 Y104.276 E44.19816
G1 X89.112 Y95.724 E44.52574
G1 X88.209 Y95.724 E44.55018
G1 X96.761 Y104.276 E44.87776
G1 X95.859 Y104.276 E44.90220
G1 X87.307 Y95.724 E45.22978
G1 X86.404 Y95.724 E45.25422
G1 X94.956 Y104.276 E45.58179
G1 X94.053 Y104.276 E45.60624
G1 X85.502 Y95.724 E45.93381
G1 X84.599 Y95.724 E45.95826
G1 X93.151 Y104.276 E46.28583
G1 X92.248 Y104.276 E46.31028
G1 X83.696 Y95.724 E46.63785
G1 X82.794 Y95.724 E46.66229
G1 X91.346 Y104.276 E46.98987
G1 X90.443 Y104.276 E47.01431
G1 X81.891 Y95.724 E47.34189
G1 X80.989 Y95.724 E47.36633
G1 X89.541 Y104.276 E47.69391
G1 X88.638 Y104.276 E47.71835
G1 X80.086 Y95.724 E48.04592
G1 X79.184 Y95.724 E48.07037
G1 X87.736 Y104.276 E48.39794
G1 X86.833 Y104.276 E48.42239
G1 X78.281 Y95.724 E48.74996
G1 X77.379 Y95.724 E48.77441
G1 X85.931 Y104.276 E49.10198
G1 X85.028 Y104.276 E49.12642
G1 X76.476 Y95.724 E49.45400
G1 X75.574 Y95.724 E49.47844
G1 X84.126 Y104.276 E49.80602
G1 X83.223 Y104.276 E49.83046
G1 X74.671 Y95.724 E50.15804
G1 X73.769 Y95.724 E50.18248
G1 X82.321 Y104.276 E50.51005
G1 X81.418 Y104.276 E50.53450
G1 X72.866 Y95.724 E50.86207
G1 X72.801 Y95.724 E50.86384
G1 X72.801 Y96.561 E50.88652
G1 X80.516 Y104.276 E51.18202
G1 X79.613 Y104.276 E51.20647
G1 X72.801 Y97.464 E51.46740
G1 X72.801 Y98.366 E51.49185
G1 X78.711 Y104.276 E51.71821
G1 X77.808 Y104.276 E51.74265
G1 X72.801 Y99.269 E51.93445
G1 X72.801 Y100.171 E51.95889
G1 X76.906 Y104.276 E52.11612
G1 X76.003 Y104.276 E52.14056
G1 X72.801 Y101.074 E52.26321
G1 X72.801 Y101.976 E52.28766
G1 X75.101 Y104.276 E52.37574
G1 X74.198 Y104.276 E52.40019
G1 X72.801 Y102.879 E52.45370
G1 X72.801 Y103.781 E52.47815
G1 X73.295 Y104.276 E52.49708
G1 Z0.950 F7800.000
G1 X118.875 Y104.664 F7800.000
G1 F3600
G1 X72.091 Y104.664 E53.75915
G1 X72.091 Y95.336 E54.01080
G1 X118.875 Y95.336 E55.27287
G1 X118.875 Y104.589 E55.52250
G1 X119.436 Y105.225 F7800.000
G1 F1800
G1 X71.531 Y105.225 E56.50984
G1 X71.531 Y94.775 E56.72522
G1 X119.436 Y94.775 E57.71255
G1 X119.436 Y105.150 E57.92638
G1 X118.937 Y105.189 F7800.000
G1 X117.992 Y104.276 F7800.000
G1 F1200
G1 X118.487 Y103.781 E57.94544
G1 X118.487 Y102.873 E57.97018
G1 X117.084 Y104.276 E58.02423
G1 X116.176 Y104.276 E58.04897
G1 X118.487 Y101.966 E58.13800
G1 X118.487 Y101.058 E58.16274
G1 X115.268 Y104.276 E58.28676
G1 X114.360 Y104.276 E58.31150
G1 X118.487 Y100.150 E58.47052
G1 X118.487 Y99.242 E58.49526
G1 X113.452 Y104.276 E58.68925
G1 X112.544 Y104.276 E58.71400
G1 X118.487 Y98.334 E58.94298
G1 X118.487 Y97.426 E58.96772
G1 X111.636 Y104.276 E59.23170
G1 X110.728 Y104.276 E59.25644
G1 X118.487 Y96.518 E59.55540
G1 X118.487 Y95.724 E59.57703
G1 X118.372 Y95.724 E59.58014
G1 X109.820 Y104.276 E59.90970
G1 X108.912 Y104.276 E59.93444
G1 X117.464 Y95.724 E60.26399
G1 X116.556 Y95.724 E60.28873
G1 X108.005 Y104.276 E60.61828
G1 X107.097 Y104.276 E60.64302
G1 X115.649 Y95.724 E60.97257
G1 X114.741 Y95.724 E60.99731
G1 X106.189 Y104.276 E61.32686
G1 X105.281 Y104.276 E61.35160
G1 X113.833 Y95.724 E61.68115
G1 X112.925 Y95.724 E61.70589
G1 X104.373 Y104.276 E62.03544
G1 X103.465 Y104.276 E62.06018
G1 X112.017 Y95.724 E62.38973
G1 X111.109 Y95.724 E62.41447
G1 X102.557 Y104.276 E62.74403
G1 X101.649 Y104.276 E62.76877
G1 X110.201 Y95.724 E63.09832
G1 X109.293 Y95.724 E63.12306
G1 X100.741 Y104.276 E63.45261
G1 X99.833 Y104.276 E63.47735
G1 X108.385 Y95.724 E63.80690
G1 X107.477 Y95.724 E63.83164
G1 X98.925 Y104.276 E64.16119
G1 X98.017 Y104.276 E64.18593
G1 X106.569 Y95.724 E64.51548
G1 X105.661 Y95.724 E64.54022
G1 X97.109 Y104.276 E64.86977
G1 X96.201 Y104.276 E64.89451
G1 X104.753 Y95.724 E65.22406
G1 X103.845 Y95.724 E65.24880
G1 X95.293 Y104.276 E65.57836
G1 X94.385 Y104.276 E65.60310
G1 X102.937 Y95.724 E65.93265
G1 X102.029 Y95.724 E65.95739
G1 X93.477 Y104.276 E66.28694
G1 X92.569 Y104.276 E66.31168
G1 X101.121 Y95.724 E66.64123
G1 X100.213 Y95.724 E66.66597
G1 X91.661 Y104.276 E66.99552
G1 X90.753 Y104.276 E67.02026
G1 X99.305 Y95.724 E67.34981
G1 X98.397 Y95.724 E67.37455
G1 X89.845 Y104.276 E67.70410
G1 X88.937 Y104.276 E67.72884
G1 X97.489 Y95.724 E68.05839
G1 X96.581 Y95.724 E68.08313
G1 X88.029 Y104.276 E68.41269
G1 X87.121 Y104.276 E68.43743
G1 X95.673 Y95.724 E68.76698
G1 X94.765 Y95.724 E68.79172
G1 X86.213 Y104.276 E69.12127
G1 X85.305 Y104.276 E69.14601
G1 X93.857 Y95.724 E69.47556
G1 X92.949 Y95.724 E69.50030
G1 X84.397 Y104.276 E69.82985
G1 X83.490 Y104.276 E69.85459
G1 X92.041 Y95.724 E70.18414
G1 X91.134 Y95.724 E70.20888
G1 X82.582 Y104.276 E70.53843
G1 X81.674 Y104.276 E70.56317
G1 X90.226 Y95.724 E70.89272
G1 X89.318 Y95.724 E70.91746
G1 X80.766 Y104.276 E71.24702
G1 X79.858 Y104.276 E71.27176
G1 X88.410 Y95.724 E71.60131
G1 X87.502 Y95.724 E71.62605
G1 X78.950 Y104.276 E71.95560
G1 X78.042 Y104.276 E71.98034
G1 X86.594 Y95.724 E72.30989
G1 X85.686 Y95.724 E72.33463
G1 X77.134 Y104.276 E72.66418
G1 X76.226 Y104.276 E72.68892
G1 X84.778 Y95.724 E73.01847
G1 X83.870 Y95.724 E73.04321
G1 X75.318 Y104.276 E73.37276
G1 X74.410 Y104.276 E73.39750
G1 X82.962 Y95.724 E73.72705
G1 X82.054 Y95.724 E73.75179
G1 X73.502 Y104.276 E74.08135
G1 X72.594 Y104.276 E74.10609
G1 X81.146 Y95.724 E74.43564
G1 X80.238 Y95.724 E74.46038
G1 X72.480 Y103.482 E74.75934
G1 X72.480 Y102.574 E74.78408
G1 X79.330 Y95.724 E75.04806
G1 X78.422 Y95.724 E75.07280
G1 X72.480 Y101.666 E75.30179
G1 X72.480 Y100.758 E75.32653
G1 X77.514 Y95.724 E75.52053
G1 X76.606 Y95.724 E75.54527
G1 X72.480 Y99.850 E75.70428
G1 X72.480 Y98.942 E75.72902
G1 X75.698 Y95.724 E75.85305
G1 X74.790 Y95.724 E75.87779
G1 X72.480 Y98.035 E75.96682
G1 X72.480 Y97.127 E75.99156
G1 X73.882 Y95.724 E76.04561
G1 X72.974 Y95.724 E76.07035
G1 X72.480 Y96.218 E76.08940
M106 S244.8
G1 Z1.250 F7800.000
G1 X118.875 Y104.664 F7800.000
G1 F3600
G1 X71.770 Y104.664 E77.36013
G1 X71.770 Y95.336 E77.61179
G1 X118.875 Y95.336 E78.88252
G1 X118.875 Y104.589 E79.13216
G1 X119.436 Y105.225 F7800.000
G1 F1800
G1 X71.209 Y105.225 E80.12612
G1 X71.209 Y94.775 E80.34149
G1 X119.436 Y94.775 E81.33545
G1 X119.436 Y105.150 E81.54929
G1 X118.937 Y105.189 F7800.000
G1 X118.510 Y100.471 F7800.000
G1 F4800
G1 X113.739 Y95.701 E81.70979
G1 X101.847 Y95.701 E81.99276
G1 X110.445 Y104.299 E82.28206
G1 X98.552 Y104.299 E82.56503
G1 X89.954 Y95.701 E82.85433
G1 X78.062 Y95.701 E83.13730
G1 X86.660 Y104.299 E83.42660
G1 X74.767 Y104.299 E83.70957
G1 X72.135 Y101.667 E83.79812
G1 X72.050 Y101.596 F7800.000
G1 F4800
G1 X93.501 Y95.849 E84.32651
G1 X95.428 Y95.616 F7800.000
G1 F4800
G1 X93.079 Y104.384 E84.54249
G1 X95.006 Y104.151 F7800.000
G1 F4800
G1 X118.595 Y97.831 E85.12356
G1 X112.840 Y95.616 F7800.000
G1 F4800
G1 X110.490 Y104.384 E85.33954
G1 X101.785 Y104.384 F7800.000
G1 F4800
G1 X104.134 Y95.616 E85.55552
G1 X86.722 Y95.616 F7800.000
G1 F4800
G1 X84.373 Y104.384 E85.77151
G1 X75.667 Y104.384 F7800.000
G1 F4800
G1 X78.016 Y95.616 E85.98749
M106 S239.7
G1 Z1.550 F7800.000
G1 X118.875 Y104.664 F7800.000
G1 F3600
G1 X71.449 Y104.664 E87.26689
G1 X71.449 Y95.336 E87.51854
G1 X118.875 Y95.336 E88.79794
G1 X118.875 Y104.589 E89.04758
G1 X119.436 Y105.225 F7800.000
G1 F1800
G1 X70.888 Y105.225 E90.04816
G1 X70.888 Y94.775 E90.26354
G1 X119.436 Y94.775 E91.26412
G1 X119.436 Y105.150 E91.47795
G1 X118.937 Y105.190 F7800.000
G1 X118.052 Y104.302 F7800.000
M106 S255

G1 F3600
G1 X118.513 Y103.841 E91.49774
G1 X118.513 Y103.031 E91.52231
G1 X117.242 Y104.302 E91.57685
G1 X116.432 Y104.302 E91.60142
G1 X118.513 Y102.221 E91.69070
G1 X118.513 Y101.412 E91.71527
G1 X115.622 Y104.302 E91.83930
G1 X114.813 Y104.302 E91.86386
G1 X118.513 Y100.602 E92.02264
G1 X118.513 Y99.792 E92.04721
G1 X114.003 Y104.302 E92.24073
G1 X113.193 Y104.302 E92.26529
G1 X118.513 Y98.983 E92.49356
G1 X118.513 Y98.173 E92.51813
G1 X112.383 Y104.302 E92.78114
G1 X111.574 Y104.302 E92.80570
G1 X118.513 Y97.363 E93.10346
G1 X118.513 Y96.553 E93.12803
G1 X110.810 Y104.256 E93.45857
G1 X110.810 Y103.447 E93.48314
G1 X118.513 Y95.744 E93.81368
G1 X118.513 Y95.698 E93.81506
G1 X117.749 Y95.698 E93.83825
G1 X110.810 Y102.637 E94.13600
G1 X110.810 Y101.827 E94.16057
G1 X116.939 Y95.698 E94.42358
G1 X116.129 Y95.698 E94.44815
G1 X110.810 Y101.018 E94.67642
G1 X110.810 Y100.208 E94.70098
G1 X115.320 Y95.698 E94.89450
G1 X114.510 Y95.698 E94.91907
