; generated by Slic3r 1.3.0-dev on 2018-04-26 at 15:56:38

; external perimeters extrusion width = 0.44mm (2.54mm^3/s)
; perimeters extrusion width = 0.56mm (4.14mm^3/s)
; infill extrusion width = 0.50mm (3.66mm^3/s)
; solid infill extrusion width = 0.56mm (4.14mm^3/s)
; top infill extrusion width = 0.56mm (4.14mm^3/s)

M107
M104 S210 ; set temperature
G28 ; home all axes
G32; probe home individual Z axis
G29 S1; load bed mesh

; Filament gcode

M109 S210 ; set temperature and wait for it to be reached
G21 ; set units to millimeters
G90 ; use absolute coordinates
M82 ; use absolute distances for extrusion
G92 E0
M584 U3 Z2 V4 ; Axes motors will act independently
G92 U9.9 Z9.9 V9.9; Initialise their position
G1 U0.320 V0.320 Z0.320 F6000.000
G1 E-2.00000 F2400.00000
G92 E0
G1 X572.782 Y79.050 F6000.000
G1 E2.00000 F2400.00000
G1 F1680
G1 X573.167 Y78.120 E2.04221
G1 X574.097 Y77.735 E2.08447
G1 X645.666 Y77.735 E5.08686
G1 X646.596 Y78.119 E5.12907
G1 X646.981 Y79.050 E5.17133
G1 X646.981 Y95.550 E5.86352
G1 X646.597 Y96.480 E5.90573
G1 X645.733 Y96.864 E5.94538
G1 X603.543 Y99.014 E7.71760
G1 X595.069 Y99.007 E8.07308
G1 X573.964 Y96.859 E8.96304
G1 X573.078 Y96.382 E9.00525
G1 X572.782 Y95.550 E9.04229
G1 X572.782 Y79.110 E9.73197
G1 E7.73197 F2400.00000
G92 E0
G1 X645.159 Y95.043 F6000.000
G1 E2.00000 F2400.00000
G1 F1680
G1 X574.605 Y95.043 E4.95983
G1 X574.605 Y79.557 E5.60946
G1 X645.159 Y79.557 E8.56929
G1 X645.159 Y94.983 E9.21640
G1 X645.474 Y95.358 F6000.000
G1 F1344
G1 X574.289 Y95.358 E12.20269
G1 X574.289 Y79.242 E12.87878
G1 X645.474 Y79.242 E15.86506
G1 X645.474 Y95.298 E16.53863
G1 X645.075 Y95.328 F6000.000
G1 X644.799 Y94.772 F6000.000
G1 F1680
G1 X644.888 Y94.683 E16.54393
G1 X644.888 Y94.236 E16.56266
G1 X644.352 Y94.772 E16.59445
G1 X643.906 Y94.772 E16.61318
G1 X644.888 Y93.790 E16.67146
G1 X644.888 Y93.344 E16.69019
G1 X643.460 Y94.772 E16.77495
G1 X643.014 Y94.772 E16.79368
G1 X644.888 Y92.898 E16.90494
G1 X644.888 Y92.452 E16.92367
G1 X642.568 Y94.772 E17.06140
G1 X642.121 Y94.772 E17.08013
G1 X644.888 Y92.005 E17.24436
G1 X644.888 Y91.559 E17.26309
G1 X641.675 Y94.772 E17.45380
G1 X641.229 Y94.772 E17.47253
G1 X644.888 Y91.113 E17.68973
G1 X644.888 Y90.667 E17.70846
G1 X640.783 Y94.772 E17.95215
G1 X640.337 Y94.772 E17.97088
G1 X644.888 Y90.221 E18.24106
G1 X644.888 Y89.774 E18.25978
G1 X639.890 Y94.772 E18.55645
G1 X639.444 Y94.772 E18.57518
G1 X644.888 Y89.328 E18.89833
G1 X644.888 Y88.882 E18.91706
G1 X638.998 Y94.772 E19.26669
G1 X638.552 Y94.772 E19.28542
G1 X644.888 Y88.436 E19.66155
G1 X644.888 Y87.990 E19.68028
G1 X638.106 Y94.772 E20.08289
G1 X637.659 Y94.772 E20.10162
G1 X644.888 Y87.543 E20.53072
G1 X644.888 Y87.097 E20.54945
G1 X637.213 Y94.772 E21.00503
G1 X636.767 Y94.772 E21.02376
G1 X644.888 Y86.651 E21.50584
G1 X644.888 Y86.205 E21.52457
G1 X636.321 Y94.772 E22.03313
G1 X635.875 Y94.772 E22.05186
G1 X644.888 Y85.759 E22.58691
G1 X644.888 Y85.313 E22.60563
G1 X635.428 Y94.772 E23.16717
G1 X634.982 Y94.772 E23.18590
G1 X644.888 Y84.866 E23.77392
G1 X644.888 Y84.420 E23.79265
G1 X634.536 Y94.772 E24.40716
G1 X634.090 Y94.772 E24.42589
G1 X644.888 Y83.974 E25.06689
G1 X644.888 Y83.528 E25.08562
G1 X633.644 Y94.772 E25.75310
G1 X633.197 Y94.772 E25.77183
G1 X644.888 Y83.082 E26.46580
G1 X644.888 Y82.635 E26.48453
G1 X632.751 Y94.772 E27.20499
G1 X632.305 Y94.772 E27.22372
G1 X644.888 Y82.189 E27.97067
G1 X644.888 Y81.743 E27.98940
G1 X631.859 Y94.772 E28.76283
G1 X631.413 Y94.772 E28.78156
G1 X644.888 Y81.297 E29.58148
G1 X644.888 Y80.851 E29.60021
G1 X630.967 Y94.772 E30.42662
G1 X630.520 Y94.772 E30.44535
G1 X644.888 Y80.404 E31.29825
G1 X644.888 Y79.958 E31.31698
G1 X630.074 Y94.772 E32.19636
G1 X629.628 Y94.772 E32.21509
G1 X644.572 Y79.828 E33.10220
G1 X644.126 Y79.828 E33.12092
G1 X629.182 Y94.772 E34.00803
G1 X628.736 Y94.772 E34.02676
G1 X643.679 Y79.828 E34.91387
G1 X643.233 Y79.828 E34.93260
G1 X628.289 Y94.772 E35.81970
G1 X627.843 Y94.772 E35.83843
G1 X642.787 Y79.828 E36.72554
G1 X642.341 Y79.828 E36.74427
G1 X627.397 Y94.772 E37.63137
G1 X626.951 Y94.772 E37.65010
G1 X641.895 Y79.828 E38.53721
G1 X641.448 Y79.828 E38.55594
G1 X626.505 Y94.772 E39.44304
G1 X626.058 Y94.772 E39.46177
G1 X641.002 Y79.828 E40.34888
G1 X640.556 Y79.828 E40.36761
G1 X625.612 Y94.772 E41.25472
G1 X625.166 Y94.772 E41.27344
G1 X640.110 Y79.828 E42.16055
G1 X639.664 Y79.828 E42.17928
G1 X624.720 Y94.772 E43.06639
G1 X624.274 Y94.772 E43.08512
G1 X639.217 Y79.828 E43.97222
G1 X638.771 Y79.828 E43.99095
G1 X623.827 Y94.772 E44.87806
G1 X623.381 Y94.772 E44.89679
G1 X638.325 Y79.828 E45.78389
G1 X637.879 Y79.828 E45.80262
G1 X622.935 Y94.772 E46.68973
G1 X622.489 Y94.772 E46.70846
G1 X637.433 Y79.828 E47.59556
G1 X636.986 Y79.828 E47.61429
G1 X622.043 Y94.772 E48.50140
G1 X621.596 Y94.772 E48.52013
G1 X636.540 Y79.828 E49.40724
G1 X636.094 Y79.828 E49.42596
G1 X621.150 Y94.772 E50.31307
G1 X620.704 Y94.772 E50.33180
G1 X635.648 Y79.828 E51.21891
G1 X635.202 Y79.828 E51.23764
G1 X620.258 Y94.772 E52.12474
G1 X619.812 Y94.772 E52.14347
G1 X634.756 Y79.828 E53.03058
G1 X634.309 Y79.828 E53.04931
G1 X619.365 Y94.772 E53.93641
G1 X618.919 Y94.772 E53.95514
G1 X633.863 Y79.828 E54.84225
G1 X633.417 Y79.828 E54.86098
G1 X618.473 Y94.772 E55.74808
G1 X618.027 Y94.772 E55.76681
G1 X632.971 Y79.828 E56.65392
G1 X632.525 Y79.828 E56.67265
G1 X617.581 Y94.772 E57.55976
G1 X617.134 Y94.772 E57.57849
G1 X632.078 Y79.828 E58.46559
G1 X631.632 Y79.828 E58.48432
G1 X616.688 Y94.772 E59.37143
G1 X616.242 Y94.772 E59.39016
G1 X631.186 Y79.828 E60.27726
G1 X630.740 Y79.828 E60.29599
G1 X615.796 Y94.772 E61.18310
G1 X615.350 Y94.772 E61.20183
G1 X630.294 Y79.828 E62.08893
G1 X629.847 Y79.828 E62.10766
G1 X614.903 Y94.772 E62.99477
G1 X614.457 Y94.772 E63.01350
G1 X629.401 Y79.828 E63.90060
G1 X628.955 Y79.828 E63.91933
G1 X614.011 Y94.772 E64.80644
G1 X613.565 Y94.772 E64.82517
G1 X628.509 Y79.828 E65.71228
G1 X628.063 Y79.828 E65.73101
G1 X613.119 Y94.772 E66.61811
G1 X612.672 Y94.772 E66.63684
G1 X627.616 Y79.828 E67.52395
G1 X627.170 Y79.828 E67.54268
G1 X612.226 Y94.772 E68.42978
G1 X611.780 Y94.772 E68.44851
G1 X626.724 Y79.828 E69.33562
G1 X626.278 Y79.828 E69.35435
G1 X611.334 Y94.772 E70.24145
G1 X610.888 Y94.772 E70.26018
G1 X625.832 Y79.828 E71.14729
G1 X625.385 Y79.828 E71.16602
G1 X610.441 Y94.772 E72.05312
G1 X609.995 Y94.772 E72.07185
G1 X624.939 Y79.828 E72.95896
G1 X624.493 Y79.828 E72.97769
G1 X609.549 Y94.772 E73.86480
G1 X609.103 Y94.772 E73.88353
G1 X624.047 Y79.828 E74.77063
G1 X623.601 Y79.828 E74.78936
G1 X608.657 Y94.772 E75.67647
G1 X608.210 Y94.772 E75.69520
G1 X623.154 Y79.828 E76.58230
G1 X622.708 Y79.828 E76.60103
G1 X607.764 Y94.772 E77.48814
G1 X607.318 Y94.772 E77.50687
G1 X622.262 Y79.828 E78.39397
G1 X621.816 Y79.828 E78.41270
G1 X606.872 Y94.772 E79.29981
G1 X606.426 Y94.772 E79.31854
G1 X621.370 Y79.828 E80.20564
G1 X620.923 Y79.828 E80.22437
G1 X605.979 Y94.772 E81.11148
G1 X605.533 Y94.772 E81.13021
G1 X620.477 Y79.828 E82.01732
G1 X620.031 Y79.828 E82.03605
G1 X605.087 Y94.772 E82.92315
G1 X604.641 Y94.772 E82.94188
G1 X619.585 Y79.828 E83.82899
G1 X619.139 Y79.828 E83.84772
G1 X604.195 Y94.772 E84.73482
G1 X603.748 Y94.772 E84.75355
G1 X618.692 Y79.828 E85.64066
G1 X618.246 Y79.828 E85.65939
G1 X603.302 Y94.772 E86.54649
G1 X602.856 Y94.772 E86.56522
G1 X617.800 Y79.828 E87.45233
G1 X617.354 Y79.828 E87.47106
G1 X602.410 Y94.772 E88.35816
G1 X601.964 Y94.772 E88.37689
G1 X616.908 Y79.828 E89.26400
G1 X616.461 Y79.828 E89.28273
G1 X601.517 Y94.772 E90.16984
G1 X601.071 Y94.772 E90.18857
G1 X616.015 Y79.828 E91.07567
G1 X615.569 Y79.828 E91.09440
G1 X600.625 Y94.772 E91.98151
G1 X600.179 Y94.772 E92.00024
G1 X615.123 Y79.828 E92.88734
G1 X614.677 Y79.828 E92.90607
G1 X599.733 Y94.772 E93.79318
G1 X599.287 Y94.772 E93.81191
G1 X614.230 Y79.828 E94.69901
G1 X613.784 Y79.828 E94.71774
G1 X598.840 Y94.772 E95.60485
G1 X598.394 Y94.772 E95.62358
G1 X613.338 Y79.828 E96.51069
G1 X612.892 Y79.828 E96.52941
G1 X597.948 Y94.772 E97.41652
G1 X597.502 Y94.772 E97.43525
G1 X612.446 Y79.828 E98.32236
G1 X611.999 Y79.828 E98.34109
G1 X597.056 Y94.772 E99.22819
G1 X596.609 Y94.772 E99.24692
G1 X611.553 Y79.828 E100.13403
G1 X611.107 Y79.828 E100.15276
G1 X596.163 Y94.772 E101.03986
G1 X595.717 Y94.772 E101.05859
G1 X610.661 Y79.828 E101.94570
G1 X610.215 Y79.828 E101.96443
G1 X595.271 Y94.772 E102.85153
G1 X594.825 Y94.772 E102.87026
G1 X609.768 Y79.828 E103.75737
G1 X609.322 Y79.828 E103.77610
G1 X594.378 Y94.772 E104.66321
G1 X593.932 Y94.772 E104.68194
G1 X608.876 Y79.828 E105.56904
G1 X608.430 Y79.828 E105.58777
G1 X593.486 Y94.772 E106.47488
G1 X593.040 Y94.772 E106.49361
G1 X607.984 Y79.828 E107.38071
G1 X607.537 Y79.828 E107.39944
G1 X592.594 Y94.772 E108.28655
G1 X592.147 Y94.772 E108.30528
G1 X607.091 Y79.828 E109.19238
G1 X606.645 Y79.828 E109.21111
G1 X591.701 Y94.772 E110.09822
G1 X591.255 Y94.772 E110.11695
G1 X606.199 Y79.828 E111.00406
G1 X605.753 Y79.828 E111.02279
G1 X590.809 Y94.772 E111.90989
G1 X590.363 Y94.772 E111.92862
G1 X605.306 Y79.828 E112.81573
G1 X604.860 Y79.828 E112.83446
G1 X589.916 Y94.772 E113.72156
G1 X589.470 Y94.772 E113.74029
G1 X604.414 Y79.828 E114.62740
G1 X603.968 Y79.828 E114.64613
G1 X589.024 Y94.772 E115.53323
G1 X588.578 Y94.772 E115.55196
G1 X603.522 Y79.828 E116.43907
G1 X603.076 Y79.828 E116.45780
G1 X588.132 Y94.772 E117.34491
G1 X587.685 Y94.772 E117.36363
G1 X602.629 Y79.828 E118.25074
G1 X602.183 Y79.828 E118.26947
G1 X587.239 Y94.772 E119.15658
G1 X586.793 Y94.772 E119.17531
G1 X601.737 Y79.828 E120.06241
G1 X601.291 Y79.828 E120.08114
G1 X586.347 Y94.772 E120.96825
G1 X585.901 Y94.772 E120.98698
G1 X600.845 Y79.828 E121.87408
G1 X600.398 Y79.828 E121.89281
G1 X585.454 Y94.772 E122.77992
G1 X585.008 Y94.772 E122.79865
G1 X599.952 Y79.828 E123.68575
G1 X599.506 Y79.828 E123.70448
G1 X584.562 Y94.772 E124.59159
G1 X584.116 Y94.772 E124.61032
G1 X599.060 Y79.828 E125.49743
G1 X598.614 Y79.828 E125.51616
G1 X583.670 Y94.772 E126.40326
G1 X583.223 Y94.772 E126.42199
G1 X598.167 Y79.828 E127.30910
G1 X597.721 Y79.828 E127.32783
G1 X582.777 Y94.772 E128.21493
G1 X582.331 Y94.772 E128.23366
G1 X597.275 Y79.828 E129.12077
G1 X596.829 Y79.828 E129.13950
G1 X581.885 Y94.772 E130.02660
G1 X581.439 Y94.772 E130.04533
G1 X596.383 Y79.828 E130.93244
G1 X595.936 Y79.828 E130.95117
G1 X580.992 Y94.772 E131.83828
G1 X580.546 Y94.772 E131.85700
G1 X595.490 Y79.828 E132.74411
G1 X595.044 Y79.828 E132.76284
G1 X580.100 Y94.772 E133.64995
G1 X579.654 Y94.772 E133.66868
G1 X594.598 Y79.828 E134.55578
G1 X594.152 Y79.828 E134.57451
G1 X579.208 Y94.772 E135.46162
G1 X578.761 Y94.772 E135.48035
G1 X593.705 Y79.828 E136.36745
G1 X593.259 Y79.828 E136.38618
G1 X578.315 Y94.772 E137.27329
G1 X577.869 Y94.772 E137.29202
G1 X592.813 Y79.828 E138.17912
G1 X592.367 Y79.828 E138.19785
G1 X577.423 Y94.772 E139.08496
G1 X576.977 Y94.772 E139.10369
G1 X591.921 Y79.828 E139.99080
G1 X591.474 Y79.828 E140.00952
G1 X576.530 Y94.772 E140.89663
G1 X576.084 Y94.772 E140.91536
G1 X591.028 Y79.828 E141.80247
G1 X590.582 Y79.828 E141.82120
G1 X575.638 Y94.772 E142.70830
G1 X575.192 Y94.772 E142.72703
G1 X590.136 Y79.828 E143.61414
G1 X589.690 Y79.828 E143.63287
G1 X574.875 Y94.642 E144.51227
G1 X574.875 Y94.196 E144.53099
G1 X589.243 Y79.828 E145.38391
G1 X588.797 Y79.828 E145.40264
G1 X574.875 Y93.750 E146.22906
G1 X574.875 Y93.304 E146.24779
G1 X588.351 Y79.828 E147.04773
G1 X587.905 Y79.828 E147.06646
G1 X574.876 Y92.857 E147.83990
G1 X574.876 Y92.411 E147.85863
G1 X587.459 Y79.828 E148.60560
G1 X587.012 Y79.828 E148.62433
G1 X574.876 Y91.965 E149.34480
G1 X574.876 Y91.519 E149.36353
G1 X586.566 Y79.828 E150.05752
G1 X586.120 Y79.828 E150.07625
G1 X574.876 Y91.073 E150.74375
G1 X574.876 Y90.626 E150.76248
G1 X585.674 Y79.828 E151.40349
G1 X585.228 Y79.828 E151.42222
G1 X574.876 Y90.180 E152.03674
G1 X574.875 Y89.734 E152.05547
G1 X584.781 Y79.828 E152.64351
G1 X584.335 Y79.828 E152.66224
G1 X574.875 Y89.288 E153.22379
G1 X574.876 Y88.842 E153.24252
G1 X583.889 Y79.828 E153.77759
G1 X583.443 Y79.828 E153.79632
G1 X574.876 Y88.395 E154.30489
G1 X574.876 Y87.949 E154.32362
G1 X582.997 Y79.828 E154.80571
G1 X582.550 Y79.828 E154.82444
G1 X574.876 Y87.503 E155.28004
G1 X574.876 Y87.057 E155.29877
G1 X582.104 Y79.828 E155.72789
G1 X581.658 Y79.828 E155.74662
G1 X574.876 Y86.611 E156.14924
G1 X574.876 Y86.164 E156.16797
G1 X581.212 Y79.828 E156.54411
G1 X580.766 Y79.828 E156.56284
G1 X574.876 Y85.718 E156.91250
G1 X574.876 Y85.272 E156.93122
G1 X580.319 Y79.828 E157.25439
G1 X579.873 Y79.828 E157.27312
G1 X574.876 Y84.826 E157.56980
G1 X574.876 Y84.380 E157.58853
G1 X579.427 Y79.828 E157.85872
G1 X578.981 Y79.828 E157.87745
G1 X574.875 Y83.933 E158.12115
G1 X574.875 Y83.487 E158.13988
G1 X578.535 Y79.828 E158.35710
G1 X578.088 Y79.828 E158.37583
G1 X574.875 Y83.041 E158.56656
G1 X574.875 Y82.595 E158.58529
G1 X577.642 Y79.828 E158.74953
G1 X577.196 Y79.828 E158.76826
G1 X574.875 Y82.149 E158.90601
G1 X574.875 Y81.702 E158.92474
G1 X576.750 Y79.828 E159.03601
G1 X576.304 Y79.828 E159.05474
G1 X574.875 Y81.256 E159.13952
G1 X574.875 Y80.810 E159.15825
G1 X575.857 Y79.828 E159.21654
G1 X575.411 Y79.828 E159.23527
G1 X574.875 Y80.364 E159.26707
G1 X574.875 Y79.918 E159.28580
G1 X574.965 Y79.828 E159.29112
M104 S205 ; set temperature
G1 U0.520 V0.520 Z0.520 F6000.000
G1 X644.989 Y94.873 F6000.000
G1 F2400
G1 X574.496 Y94.873 E162.32199
G1 X574.496 Y79.727 E162.97319
G1 X644.989 Y79.727 E166.00405
G1 X644.989 Y94.813 E166.65267
G1 X645.446 Y95.330 F6000.000
G1 F1920
G1 X574.039 Y95.330 E169.01034
G1 X574.039 Y79.270 E169.54060
G1 X645.446 Y79.270 E171.89827
G1 X645.446 Y95.270 E172.42654
G1 X645.047 Y95.301 F6000.000
G1 X644.545 Y80.317 F6000.000
G1 F2400
G1 X644.399 Y80.171 E172.43547
G1 X643.666 Y80.171 E172.46706
G1 X644.545 Y81.050 E172.52067
G1 X644.545 Y81.784 E172.55227
G1 X642.932 Y80.171 E172.65056
G1 X642.199 Y80.171 E172.68216
G1 X644.545 Y82.517 E172.82513
G1 X644.545 Y83.250 E172.85673
G1 X641.466 Y80.171 E173.04439
G1 X640.733 Y80.171 E173.07599
G1 X644.545 Y83.983 E173.30834
G1 X644.545 Y84.716 E173.33993
G1 X640.000 Y80.171 E173.61696
G1 X639.267 Y80.171 E173.64856
G1 X644.545 Y85.449 E173.97027
G1 X644.545 Y86.182 E174.00187
G1 X638.534 Y80.171 E174.36827
G1 X637.801 Y80.171 E174.39987
G1 X644.545 Y86.915 E174.81095
G1 X644.545 Y87.648 E174.84255
G1 X637.068 Y80.171 E175.29832
G1 X636.335 Y80.171 E175.32991
G1 X644.545 Y88.381 E175.83037
G1 X644.545 Y89.114 E175.86196
G1 X635.602 Y80.171 E176.40710
G1 X634.869 Y80.171 E176.43870
G1 X644.545 Y89.847 E177.02852
G1 X644.545 Y90.580 E177.06012
G1 X634.136 Y80.171 E177.69462
G1 X633.403 Y80.171 E177.72622
G1 X644.545 Y91.313 E178.40541
G1 X644.545 Y92.047 E178.43701
G1 X632.669 Y80.171 E179.16088
G1 X631.936 Y80.171 E179.19248
G1 X644.545 Y92.780 E179.96104
G1 X644.545 Y93.513 E179.99264
G1 X631.203 Y80.171 E180.80588
G1 X630.470 Y80.171 E180.83748
G1 X644.545 Y94.246 E181.69541
G1 X644.545 Y94.429 E181.70330
G1 X643.995 Y94.429 E181.72700
G1 X629.737 Y80.171 E182.59610
G1 X629.004 Y80.171 E182.62770
G1 X643.262 Y94.429 E183.49680
G1 X642.529 Y94.429 E183.52839
G1 X628.271 Y80.171 E184.39749
G1 X627.538 Y80.171 E184.42909
G1 X641.796 Y94.429 E185.29819
G1 X641.063 Y94.429 E185.32978
G1 X626.805 Y80.171 E186.19888
G1 X626.072 Y80.171 E186.23048
G1 X640.330 Y94.429 E187.09957
G1 X639.597 Y94.429 E187.13117
G1 X625.339 Y80.171 E188.00027
G1 X624.606 Y80.171 E188.03187
G1 X638.864 Y94.429 E188.90096
G1 X638.131 Y94.429 E188.93256
G1 X623.873 Y80.171 E189.80166
G1 X623.140 Y80.171 E189.83326
G1 X637.397 Y94.429 E190.70235
G1 X636.664 Y94.429 E190.73395
G1 X622.406 Y80.171 E191.60305
G1 X621.673 Y80.171 E191.63464
G1 X635.931 Y94.429 E192.50374
G1 X635.198 Y94.429 E192.53534
G1 X620.940 Y80.171 E193.40444
G1 X620.207 Y80.171 E193.43603
G1 X634.465 Y94.429 E194.30513
G1 X633.732 Y94.429 E194.33673
G1 X619.474 Y80.171 E195.20583
G1 X618.741 Y80.171 E195.23742
G1 X632.999 Y94.429 E196.10652
