; generated by Slic3r 1.3.0-dev on 2018-05-08 at 17:17:10

; external perimeters extrusion width = 0.44mm (3.18mm^3/s)
; perimeters extrusion width = 0.56mm (5.17mm^3/s)
; infill extrusion width = 0.50mm (4.57mm^3/s)
; solid infill extrusion width = 0.56mm (5.17mm^3/s)
; top infill extrusion width = 0.56mm (5.17mm^3/s)

M107
M104 S210 ; set temperature
G28 ; home all axes
G32; probe home individual Z axis
G29 S1; load bed mesh

; Filament gcode

M109 S210 ; set temperature and wait for it to be reached
G21 ; set units to millimeters
G90 ; use absolute coordinates
M82 ; use absolute distances for extrusion
G92 E0
M584 U3 Z2 V4; Actuate motors independently
G92 U10.000 V10.000 Z10.000
G1 U0.320 V0.320 Z0.320 F6000.000
G1 E-2.00000 F2400.00000
G92 E0
G1 X586.726 Y81.800 F6000.000
G1 E2.00000 F2400.00000
G1 F1680
G1 X587.111 Y80.870 E2.04221
G1 X588.041 Y80.485 E2.08447
G1 X635.811 Y80.485 E4.08846
G1 X636.740 Y80.869 E4.13067
G1 X637.126 Y81.800 E4.17292
G1 X637.126 Y92.800 E4.63439
G1 X636.741 Y93.730 E4.67660
G1 X635.922 Y94.111 E4.71451
G1 X595.697 Y97.519 E6.40804
G1 X590.851 Y97.524 E6.61135
G1 X589.897 Y97.115 E6.65488
G1 X588.340 Y95.477 E6.74968
G1 X588.220 Y95.330 E6.75764
G1 X586.967 Y93.560 E6.84863
G1 X586.726 Y92.800 E6.88207
G1 X586.726 Y81.860 E7.34101
G1 E5.34101 F2400.00000
G92 E0
G1 X634.357 Y91.347 F6000.000
G1 E2.00000 F2400.00000
G1 F2100
G1 X589.494 Y91.347 E3.88206
G1 X589.494 Y83.253 E4.22158
G1 X634.357 Y83.253 E6.10364
G1 X634.357 Y91.287 E6.44065
G1 X634.673 Y91.662 F6000.000
G1 F2100
G1 X589.179 Y91.662 E8.34916
G1 X589.179 Y82.938 E8.71515
G1 X634.673 Y82.938 E10.62366
G1 X634.673 Y91.602 E10.98713
G1 X634.988 Y91.977 F6000.000
G1 F2100
G1 X588.864 Y91.977 E12.92210
G1 X588.864 Y82.623 E13.31454
G1 X634.988 Y82.623 E15.24951
G1 X634.988 Y91.917 E15.63943
G1 X635.303 Y92.293 F6000.000
G1 F2100
G1 X588.549 Y92.293 E17.60086
G1 X588.549 Y82.307 E18.01976
G1 X635.303 Y82.307 E19.98119
G1 X635.303 Y92.233 E20.39757
G1 X635.619 Y92.608 F6000.000
G1 F1680
G1 X588.233 Y92.608 E22.38545
G1 X588.233 Y81.992 E22.83081
G1 X635.619 Y81.992 E24.81869
G1 X635.619 Y92.548 E25.26153
G1 X635.220 Y92.579 F6000.000
G1 E23.26153 F2400.00000
G92 E0
G1 X633.997 Y91.076 F6000.000
G1 E2.00000 F2400.00000
G1 F2100
G1 X634.087 Y90.987 E2.00534
G1 X634.087 Y90.537 E2.02435
G1 X633.548 Y91.076 E2.05658
G1 X633.098 Y91.076 E2.07559
G1 X634.087 Y90.088 E2.13469
G1 X634.087 Y89.638 E2.15370
G1 X632.649 Y91.076 E2.23970
G1 X632.199 Y91.076 E2.25871
G1 X634.087 Y89.189 E2.37158
G1 X634.087 Y88.739 E2.39059
G1 X631.750 Y91.076 E2.53035
G1 X631.300 Y91.076 E2.54936
G1 X634.087 Y88.290 E2.71600
G1 X634.087 Y87.840 E2.73501
G1 X630.851 Y91.076 E2.92853
G1 X630.401 Y91.076 E2.94754
G1 X634.087 Y87.391 E3.16795
G1 X634.087 Y86.941 E3.18696
G1 X629.952 Y91.076 E3.43425
G1 X629.502 Y91.076 E3.45326
G1 X634.087 Y86.491 E3.72743
G1 X634.087 Y86.042 E3.74644
G1 X629.053 Y91.076 E4.04750
G1 X628.603 Y91.076 E4.06651
G1 X634.087 Y85.592 E4.39445
G1 X634.087 Y85.143 E4.41346
G1 X628.154 Y91.076 E4.76828
G1 X627.704 Y91.076 E4.78729
G1 X634.087 Y84.693 E5.16900
G1 X634.087 Y84.244 E5.18801
G1 X627.255 Y91.076 E5.59660
G1 X626.805 Y91.076 E5.61560
G1 X634.087 Y83.794 E6.05108
G1 X634.087 Y83.524 E6.06251
G1 X633.907 Y83.524 E6.07009
G1 X626.355 Y91.076 E6.52173
G1 X625.906 Y91.076 E6.54074
G1 X633.458 Y83.524 E6.99238
G1 X633.008 Y83.524 E7.01139
G1 X625.456 Y91.076 E7.46303
G1 X625.007 Y91.076 E7.48203
G1 X632.559 Y83.524 E7.93367
G1 X632.109 Y83.524 E7.95268
G1 X624.557 Y91.076 E8.40432
G1 X624.108 Y91.076 E8.42333
G1 X631.660 Y83.524 E8.87497
G1 X631.210 Y83.524 E8.89398
G1 X623.658 Y91.076 E9.34562
G1 X623.209 Y91.076 E9.36463
G1 X630.761 Y83.524 E9.81627
G1 X630.311 Y83.524 E9.83528
G1 X622.759 Y91.076 E10.28692
G1 X622.310 Y91.076 E10.30593
G1 X629.862 Y83.524 E10.75757
G1 X629.412 Y83.524 E10.77658
G1 X621.860 Y91.076 E11.22822
G1 X621.411 Y91.076 E11.24723
G1 X628.963 Y83.524 E11.69887
G1 X628.513 Y83.524 E11.71788
G1 X620.961 Y91.076 E12.16952
G1 X620.512 Y91.076 E12.18853
G1 X628.064 Y83.524 E12.64017
G1 X627.614 Y83.524 E12.65918
G1 X620.062 Y91.076 E13.11082
G1 X619.613 Y91.076 E13.12983
G1 X627.165 Y83.524 E13.58147
G1 X626.715 Y83.524 E13.60048
G1 X619.163 Y91.076 E14.05212
G1 X618.714 Y91.076 E14.07112
G1 X626.266 Y83.524 E14.52276
G1 X625.816 Y83.524 E14.54177
G1 X618.264 Y91.076 E14.99341
G1 X617.815 Y91.076 E15.01242
G1 X625.367 Y83.524 E15.46406
G1 X624.917 Y83.524 E15.48307
G1 X617.365 Y91.076 E15.93471
G1 X616.916 Y91.076 E15.95372
G1 X624.468 Y83.524 E16.40536
G1 X624.018 Y83.524 E16.42437
G1 X616.466 Y91.076 E16.87601
G1 X616.017 Y91.076 E16.89502
G1 X623.568 Y83.524 E17.34666
G1 X623.119 Y83.524 E17.36567
G1 X615.567 Y91.076 E17.81731
G1 X615.117 Y91.076 E17.83632
G1 X622.669 Y83.524 E18.28796
G1 X622.220 Y83.524 E18.30697
G1 X614.668 Y91.076 E18.75861
G1 X614.218 Y91.076 E18.77762
G1 X621.770 Y83.524 E19.22926
G1 X621.321 Y83.524 E19.24827
G1 X613.769 Y91.076 E19.69991
G1 X613.319 Y91.076 E19.71892
G1 X620.871 Y83.524 E20.17056
G1 X620.422 Y83.524 E20.18956
G1 X612.870 Y91.076 E20.64120
G1 X612.420 Y91.076 E20.66021
G1 X619.972 Y83.524 E21.11185
G1 X619.523 Y83.524 E21.13086
G1 X611.971 Y91.076 E21.58250
G1 X611.521 Y91.076 E21.60151
G1 X619.073 Y83.524 E22.05315
G1 X618.624 Y83.524 E22.07216
G1 X611.072 Y91.076 E22.52380
G1 X610.622 Y91.076 E22.54281
G1 X618.174 Y83.524 E22.99445
G1 X617.725 Y83.524 E23.01346
G1 X610.173 Y91.076 E23.46510
G1 X609.723 Y91.076 E23.48411
G1 X617.275 Y83.524 E23.93575
G1 X616.826 Y83.524 E23.95476
G1 X609.274 Y91.076 E24.40640
G1 X608.824 Y91.076 E24.42541
G1 X616.376 Y83.524 E24.87705
G1 X615.927 Y83.524 E24.89606
G1 X608.375 Y91.076 E25.34770
G1 X607.925 Y91.076 E25.36671
G1 X615.477 Y83.524 E25.81835
G1 X615.028 Y83.524 E25.83736
G1 X607.476 Y91.076 E26.28900
G1 X607.026 Y91.076 E26.30800
G1 X614.578 Y83.524 E26.75964
G1 X614.129 Y83.524 E26.77865
G1 X606.577 Y91.076 E27.23029
G1 X606.127 Y91.076 E27.24930
G1 X613.679 Y83.524 E27.70094
G1 X613.230 Y83.524 E27.71995
G1 X605.678 Y91.076 E28.17159
G1 X605.228 Y91.076 E28.19060
G1 X612.780 Y83.524 E28.64224
G1 X612.331 Y83.524 E28.66125
G1 X604.779 Y91.076 E29.11289
G1 X604.329 Y91.076 E29.13190
G1 X611.881 Y83.524 E29.58354
G1 X611.431 Y83.524 E29.60255
G1 X603.880 Y91.076 E30.05419
G1 X603.430 Y91.076 E30.07320
G1 X610.982 Y83.524 E30.52484
G1 X610.532 Y83.524 E30.54385
G1 X602.980 Y91.076 E30.99549
G1 X602.531 Y91.076 E31.01450
G1 X610.083 Y83.524 E31.46614
G1 X609.633 Y83.524 E31.48515
G1 X602.081 Y91.076 E31.93679
G1 X601.632 Y91.076 E31.95580
G1 X609.184 Y83.524 E32.40744
G1 X608.734 Y83.524 E32.42645
G1 X601.182 Y91.076 E32.87809
G1 X600.733 Y91.076 E32.89709
G1 X608.285 Y83.524 E33.34873
G1 X607.835 Y83.524 E33.36774
G1 X600.283 Y91.076 E33.81938
G1 X599.834 Y91.076 E33.83839
G1 X607.386 Y83.524 E34.29003
G1 X606.936 Y83.524 E34.30904
G1 X599.384 Y91.076 E34.76068
G1 X598.935 Y91.076 E34.77969
G1 X606.487 Y83.524 E35.23133
G1 X606.037 Y83.524 E35.25034
G1 X598.485 Y91.076 E35.70198
G1 X598.036 Y91.076 E35.72099
G1 X605.588 Y83.524 E36.17263
G1 X605.138 Y83.524 E36.19164
G1 X597.586 Y91.076 E36.64328
G1 X597.137 Y91.076 E36.66229
G1 X604.689 Y83.524 E37.11393
G1 X604.239 Y83.524 E37.13294
G1 X596.687 Y91.076 E37.58458
G1 X596.238 Y91.076 E37.60359
G1 X603.790 Y83.524 E38.05523
G1 X603.340 Y83.524 E38.07424
G1 X595.788 Y91.076 E38.52588
G1 X595.339 Y91.076 E38.54489
G1 X602.891 Y83.524 E38.99653
G1 X602.441 Y83.524 E39.01554
G1 X594.889 Y91.076 E39.46717
G1 X594.440 Y91.076 E39.48618
G1 X601.992 Y83.524 E39.93782
G1 X601.542 Y83.524 E39.95683
G1 X593.990 Y91.076 E40.40847
G1 X593.541 Y91.076 E40.42748
G1 X601.093 Y83.524 E40.87912
G1 X600.643 Y83.524 E40.89813
G1 X593.091 Y91.076 E41.34977
G1 X592.642 Y91.076 E41.36878
G1 X600.194 Y83.524 E41.82042
G1 X599.744 Y83.524 E41.83943
G1 X592.192 Y91.076 E42.29107
G1 X591.742 Y91.076 E42.31008
G1 X599.294 Y83.524 E42.76172
G1 X598.845 Y83.524 E42.78073
G1 X591.293 Y91.076 E43.23237
G1 X590.843 Y91.076 E43.25138
G1 X598.395 Y83.524 E43.70302
G1 X597.946 Y83.524 E43.72203
G1 X590.394 Y91.076 E44.17367
G1 X589.944 Y91.076 E44.19268
G1 X597.496 Y83.524 E44.64432
G1 X597.047 Y83.524 E44.66333
G1 X589.765 Y90.806 E45.09880
G1 X589.765 Y90.356 E45.11781
G1 X596.597 Y83.524 E45.52640
G1 X596.148 Y83.524 E45.54541
G1 X589.765 Y89.907 E45.92712
G1 X589.765 Y89.457 E45.94613
G1 X595.698 Y83.524 E46.30095
G1 X595.249 Y83.524 E46.31996
G1 X589.765 Y89.008 E46.64790
G1 X589.765 Y88.558 E46.66691
G1 X594.799 Y83.524 E46.96797
G1 X594.350 Y83.524 E46.98698
G1 X589.765 Y88.109 E47.26115
G1 X589.765 Y87.659 E47.28016
G1 X593.900 Y83.524 E47.52745
G1 X593.451 Y83.524 E47.54646
G1 X589.765 Y87.210 E47.76687
G1 X589.765 Y86.760 E47.78588
G1 X593.001 Y83.524 E47.97941
G1 X592.552 Y83.524 E47.99842
G1 X589.765 Y86.310 E48.16506
G1 X589.765 Y85.861 E48.18407
G1 X592.102 Y83.524 E48.32383
G1 X591.653 Y83.524 E48.34284
G1 X589.765 Y85.411 E48.45571
G1 X589.765 Y84.962 E48.47472
G1 X591.203 Y83.524 E48.56071
G1 X590.754 Y83.524 E48.57972
G1 X589.765 Y84.512 E48.63883
G1 X589.765 Y84.063 E48.65784
G1 X590.304 Y83.524 E48.69007
G1 X589.855 Y83.524 E48.70908
G1 X589.765 Y83.613 E48.71441
M104 S205 ; set temperature
G1 U0.520 V0.520 Z0.520 F6000.000
G1 X633.582 Y90.572 F6000.000
G1 F3000
G1 X589.991 Y90.572 E50.58864
G1 X589.991 Y84.028 E50.86997
G1 X633.582 Y84.028 E52.74419
G1 X633.582 Y90.512 E53.02295
G1 X634.099 Y91.089 F6000.000
G1 F3000
G1 X589.474 Y91.089 E54.94164
G1 X589.474 Y83.511 E55.26743
G1 X634.099 Y83.511 E57.18612
G1 X634.099 Y91.029 E57.50934
G1 X634.616 Y91.606 F6000.000
G1 F3000
G1 X588.957 Y91.606 E59.47249
G1 X588.957 Y82.994 E59.84275
G1 X634.616 Y82.994 E61.80591
G1 X634.616 Y91.546 E62.17359
G1 X635.134 Y92.123 F6000.000
G1 F3000
G1 X588.440 Y92.123 E64.18120
G1 X588.440 Y82.477 E64.59593
G1 X635.134 Y82.477 E66.60355
G1 X635.134 Y92.063 E67.01569
G1 X635.591 Y92.580 F6000.000
G1 F2400
G1 X587.983 Y92.580 E68.58758
G1 X587.983 Y82.020 E68.93624
G1 X635.591 Y82.020 E70.50813
G1 X635.591 Y92.520 E70.85481
G1 X635.192 Y92.551 F6000.000
G1 X633.138 Y84.619 F6000.000
G1 F3000
G1 X632.992 Y84.472 E70.86381
G1 X632.253 Y84.472 E70.89596
G1 X633.138 Y85.358 E70.95043
G1 X633.138 Y86.098 E70.98259
G1 X631.513 Y84.472 E71.08252
G1 X630.774 Y84.472 E71.11468
G1 X633.138 Y86.837 E71.26008
G1 X633.138 Y87.577 E71.29224
G1 X630.034 Y84.472 E71.48311
G1 X629.295 Y84.472 E71.51527
G1 X633.138 Y88.316 E71.75161
G1 X633.138 Y89.056 E71.78376
G1 X628.555 Y84.472 E72.06558
G1 X627.816 Y84.472 E72.09773
G1 X633.138 Y89.795 E72.42502
G1 X633.138 Y90.128 E72.43949
G1 X632.732 Y90.128 E72.45717
G1 X627.076 Y84.472 E72.80491
G1 X626.337 Y84.472 E72.83707
G1 X631.992 Y90.128 E73.18481
G1 X631.253 Y90.128 E73.21696
G1 X625.597 Y84.472 E73.56471
G1 X624.858 Y84.472 E73.59686
G1 X630.513 Y90.128 E73.94461
G1 X629.774 Y90.128 E73.97676
G1 X624.118 Y84.472 E74.32451
G1 X623.379 Y84.472 E74.35666
G1 X629.034 Y90.128 E74.70440
G1 X628.295 Y90.128 E74.73655
G1 X622.639 Y84.472 E75.08430
G1 X621.900 Y84.472 E75.11645
G1 X627.555 Y90.128 E75.46420
G1 X626.816 Y90.128 E75.49635
G1 X621.160 Y84.472 E75.84410
G1 X620.421 Y84.472 E75.87625
G1 X626.076 Y90.128 E76.22399
G1 X625.337 Y90.128 E76.25615
G1 X619.681 Y84.472 E76.60389
G1 X618.942 Y84.472 E76.63604
G1 X624.597 Y90.128 E76.98379
G1 X623.858 Y90.128 E77.01594
G1 X618.202 Y84.472 E77.36369
G1 X617.463 Y84.472 E77.39584
G1 X623.118 Y90.128 E77.74358
G1 X622.379 Y90.128 E77.77574
G1 X616.723 Y84.472 E78.12348
G1 X615.984 Y84.472 E78.15563
G1 X621.639 Y90.128 E78.50338
G1 X620.900 Y90.128 E78.53553
G1 X615.244 Y84.472 E78.88328
G1 X614.505 Y84.472 E78.91543
G1 X620.161 Y90.128 E79.26318
G1 X619.421 Y90.128 E79.29533
G1 X613.766 Y84.472 E79.64307
G1 X613.026 Y84.472 E79.67522
G1 X618.682 Y90.128 E80.02297
G1 X617.942 Y90.128 E80.05512
G1 X612.287 Y84.472 E80.40287
G1 X611.547 Y84.472 E80.43502
G1 X617.203 Y90.128 E80.78277
G1 X616.463 Y90.128 E80.81492
G1 X610.808 Y84.472 E81.16266
G1 X610.068 Y84.472 E81.19481
G1 X615.724 Y90.128 E81.54256
G1 X614.984 Y90.128 E81.57471
G1 X609.329 Y84.472 E81.92246
G1 X608.589 Y84.472 E81.95461
G1 X614.245 Y90.128 E82.30236
G1 X613.505 Y90.128 E82.33451
G1 X607.850 Y84.472 E82.68225
G1 X607.110 Y84.472 E82.71441
G1 X612.766 Y90.128 E83.06215
G1 X612.026 Y90.128 E83.09430
G1 X606.371 Y84.472 E83.44205
G1 X605.631 Y84.472 E83.47420
G1 X611.287 Y90.128 E83.82195
G1 X610.547 Y90.128 E83.85410
G1 X604.892 Y84.472 E84.20184
G1 X604.152 Y84.472 E84.23400
G1 X609.808 Y90.128 E84.58174
G1 X609.068 Y90.128 E84.61389
G1 X603.413 Y84.472 E84.96164
G1 X602.673 Y84.472 E84.99379
G1 X608.329 Y90.128 E85.34154
G1 X607.589 Y90.128 E85.37369
G1 X601.934 Y84.472 E85.72144
G1 X601.194 Y84.472 E85.75359
G1 X606.850 Y90.128 E86.10133
G1 X606.110 Y90.128 E86.13348
G1 X600.455 Y84.472 E86.48123
G1 X599.715 Y84.472 E86.51338
G1 X605.371 Y90.128 E86.86113
G1 X604.631 Y90.128 E86.89328
G1 X598.976 Y84.472 E87.24103
G1 X598.236 Y84.472 E87.27318
G1 X603.892 Y90.128 E87.62092
G1 X603.153 Y90.128 E87.65308
G1 X597.497 Y84.472 E88.00082
G1 X596.758 Y84.472 E88.03297
G1 X602.413 Y90.128 E88.38072
G1 X601.674 Y90.128 E88.41287
G1 X596.018 Y84.472 E88.76062
G1 X595.279 Y84.472 E88.79277
G1 X600.934 Y90.128 E89.14051
G1 X600.195 Y90.128 E89.17267
G1 X594.539 Y84.472 E89.52041
G1 X593.800 Y84.472 E89.55256
G1 X599.455 Y90.128 E89.90031
G1 X598.716 Y90.128 E89.93246
G1 X593.060 Y84.472 E90.28021
G1 X592.321 Y84.472 E90.31236
G1 X597.976 Y90.128 E90.66010
G1 X597.237 Y90.128 E90.69226
G1 X591.581 Y84.472 E91.04000
G1 X590.842 Y84.472 E91.07215
G1 X596.497 Y90.128 E91.41990
G1 X595.758 Y90.128 E91.45205
G1 X590.435 Y84.805 E91.77934
G1 X590.435 Y85.544 E91.81149
G1 X595.018 Y90.128 E92.09330
G1 X594.279 Y90.128 E92.12546
G1 X590.435 Y86.284 E92.36180
G1 X590.435 Y87.023 E92.39395
G1 X593.539 Y90.128 E92.58483
G1 X592.800 Y90.128 E92.61698
G1 X590.435 Y87.763 E92.76239
G1 X590.435 Y88.502 E92.79454
G1 X592.060 Y90.128 E92.89448
G1 X591.321 Y90.128 E92.92663
G1 X590.435 Y89.242 E92.98111
G1 X590.435 Y89.981 E93.01326
G1 X590.581 Y90.128 E93.02225
G1 U0.720 V0.720 Z0.720 F6000.000
G1 X633.582 Y90.572 F6000.000
G1 F3000
G1 X589.777 Y90.572 E94.90568
G1 X589.777 Y84.028 E95.18702
G1 X633.582 Y84.028 E97.07045
G1 X633.582 Y90.512 E97.34921
G1 X634.099 Y91.089 F6000.000
G1 F3000
G1 X589.260 Y91.089 E99.27710
G1 X589.260 Y83.511 E99.60290
G1 X634.099 Y83.511 E101.53080
G1 X634.099 Y91.029 E101.85402
G1 X634.616 Y91.606 F6000.000
G1 F3000
G1 X588.743 Y91.606 E103.82638
G1 X588.743 Y82.994 E104.19665
G1 X634.616 Y82.994 E106.16901
G1 X634.616 Y91.546 E106.53669
G1 X635.134 Y92.123 F6000.000
G1 F3000
G1 X588.226 Y92.123 E108.55352
G1 X588.226 Y82.477 E108.96824
G1 X635.134 Y82.477 E110.98507
G1 X635.134 Y92.063 E111.39722
G1 X635.591 Y92.580 F6000.000
G1 F2400
G1 X587.768 Y92.580 E112.97617
G1 X587.768 Y82.020 E113.32484
G1 X635.591 Y82.020 E114.90380
G1 X635.591 Y92.520 E115.25048
G1 X635.192 Y92.551 F6000.000
G1 X632.992 Y90.128 F6000.000
G1 F3000
G1 X633.138 Y89.981 E115.25938
G1 X633.138 Y89.250 E115.29085
G1 X632.260 Y90.128 E115.34425
G1 X631.529 Y90.128 E115.37571
G1 X633.138 Y88.518 E115.47360
G1 X633.138 Y87.787 E115.50507
G1 X630.797 Y90.128 E115.64746
G1 X630.066 Y90.128 E115.67892
G1 X633.138 Y87.055 E115.86581
G1 X633.138 Y86.324 E115.89727
G1 X629.334 Y90.128 E116.12865
G1 X628.603 Y90.128 E116.16012
G1 X633.138 Y85.592 E116.43600
G1 X633.138 Y84.861 E116.46746
G1 X627.871 Y90.128 E116.78783
G1 X627.140 Y90.128 E116.81930
G1 X632.795 Y84.472 E117.16330
G1 X632.064 Y84.472 E117.19476
G1 X626.408 Y90.128 E117.53876
G1 X625.677 Y90.128 E117.57023
G1 X631.332 Y84.472 E117.91423
G1 X630.601 Y84.472 E117.94569
G1 X624.945 Y90.128 E118.28970
G1 X624.214 Y90.128 E118.32116
G1 X629.869 Y84.472 E118.66516
G1 X629.138 Y84.472 E118.69663
G1 X623.482 Y90.128 E119.04063
G1 X622.751 Y90.128 E119.07209
G1 X628.406 Y84.472 E119.41610
G1 X627.675 Y84.472 E119.44756
G1 X622.019 Y90.128 E119.79156
G1 X621.288 Y90.128 E119.82303
G1 X626.943 Y84.472 E120.16703
