; generated by Slic3r 1.3.0-dev on 2018-06-11 at 19:36:50

; external perimeters extrusion width = 0.66mm (7.15mm^3/s)
; perimeters extrusion width = 0.84mm (11.63mm^3/s)
; infill extrusion width = 0.75mm (10.28mm^3/s)
; solid infill extrusion width = 0.84mm (11.63mm^3/s)
; top infill extrusion width = 0.84mm (11.63mm^3/s)

M107
G28 ; home all axes
G32; probe home individual Z axis
G29 S1; load bed mesh
M109 S205 ; set temperature and wait for it to be reached
M117 Purge extruder
G92 E0 ; reset extruder
G1 X400
G1 Z1.0 F3000.0 ; move z up little to prevent scratching of surface
G1 X400 Y20 Z0.3 F5000.0 ; move to start-line position
G1 X400 Y200.0 Z0.3 F1500.0 E15 ; draw 1st line
G1 X400.5 Y200.0 Z0.3 F5000.0 ; move to side a little
G1 X400.5 Y20 Z0.3 F1500.0 E30 ; draw 2nd line
; G1 E27 F3000 ; retract filament 3mm
G92 E0 ; reset extruder
; done purging extruder
G1 Z1.0 F3000 ; move z up little to prevent scratching of surface
G1 Z10
G1 X200
M117 Printing!

; Filament gcode

G21 ; set units to millimeters
G90 ; use absolute coordinates
M82 ; use absolute distances for extrusion
G92 E0
G1 Z0.320 F6000.000
G1 E-2.00000 F2400.00000
G92 E0
G1 X261.112 Y118.891 F6000.000
G1 E2.00000 F2400.00000
G1 F1680
G1 X262.500 Y118.223 E2.06107
G1 X362.500 Y118.223 E6.02638
G1 X363.609 Y118.612 E6.07298
G1 X364.277 Y120.000 E6.13405
G1 X364.277 Y220.000 E10.09935
G1 X363.888 Y221.109 E10.14596
G1 X362.500 Y221.777 E10.20703
G1 X262.500 Y221.777 E14.17233
G1 X261.391 Y221.388 E14.21894
G1 X260.723 Y220.000 E14.28001
G1 X260.723 Y120.000 E18.24531
G1 X261.082 Y118.976 E18.28835
G1 X261.425 Y119.010 F6000.000
G1 F1680
G1 X262.500 Y118.539 E18.33489
G1 X362.500 Y118.539 E22.30020
G1 X363.490 Y118.925 E22.34233
G1 X363.961 Y120.000 E22.38888
G1 X363.961 Y220.000 E26.35419
G1 X363.575 Y220.990 E26.39632
G1 X362.500 Y221.461 E26.44287
G1 X262.500 Y221.461 E30.40817
G1 X261.510 Y221.075 E30.45031
G1 X261.039 Y220.000 E30.49686
G1 X261.039 Y120.000 E34.46216
G1 X261.392 Y119.094 E34.50073
G1 X261.737 Y119.145 F6000.000
G1 F1680
G1 X262.500 Y118.854 E34.53313
G1 X362.500 Y118.854 E38.49844
G1 X363.355 Y119.237 E38.53557
G1 X363.646 Y120.000 E38.56797
G1 X363.646 Y220.000 E42.53327
G1 X363.263 Y220.855 E42.57040
G1 X362.500 Y221.146 E42.60281
G1 X262.500 Y221.146 E46.56811
G1 X261.645 Y220.763 E46.60524
G1 X261.354 Y220.000 E46.63764
G1 X261.354 Y120.000 E50.60295
G1 X261.700 Y119.227 E50.63651
G1 X262.045 Y119.305 F6000.000
G1 F1680
G1 X262.500 Y119.169 E50.65533
G1 X362.500 Y119.169 E54.62063
G1 X363.195 Y119.545 E54.65197
G1 X363.331 Y120.000 E54.67079
G1 X363.331 Y220.000 E58.63609
G1 X362.955 Y220.695 E58.66743
G1 X362.500 Y220.831 E58.68625
G1 X262.500 Y220.831 E62.65155
G1 X261.805 Y220.455 E62.68289
G1 X261.669 Y220.000 E62.70170
G1 X261.669 Y120.000 E66.66701
G1 X262.002 Y119.384 E66.69478
G1 X262.500 Y119.485 F6000.000
G1 F1680
G1 X362.500 Y119.485 E70.66009
G1 X363.015 Y120.000 E70.68898
G1 X363.015 Y220.000 E74.65429
G1 X362.500 Y220.515 E74.68319
G1 X262.500 Y220.515 E78.64850
G1 X261.985 Y220.000 E78.67739
G1 X261.985 Y120.000 E82.64270
G1 X262.436 Y119.548 E82.66803
G1 E80.66803 F2400.00000
G92 E0
G1 X348.007 Y205.507 F6000.000
G1 E2.00000 F2400.00000
G1 F2100
G1 X276.993 Y205.507 E4.81595
G1 X276.993 Y134.493 E7.63190
G1 X348.007 Y134.493 E10.44785
G1 X348.007 Y205.417 E13.26023
G1 X347.692 Y205.192 F6000.000
G1 F1680
G1 X277.308 Y205.192 E16.05117
G1 X277.308 Y134.808 E18.84211
G1 X347.692 Y134.808 E21.63305
G1 X347.692 Y205.102 E24.42042
G1 X347.847 Y205.772 F6000.000
G1 E22.42042 F2400.00000
G92 E0
G1 X361.993 Y219.493 F6000.000
G1 E2.00000 F2400.00000
G1 F2100
G1 X263.007 Y219.493 E5.92507
G1 X263.007 Y120.507 E9.85015
G1 X361.993 Y120.507 E13.77522
G1 X361.993 Y219.403 E17.69672
G1 X362.308 Y219.808 F6000.000
G1 F1680
G1 X262.692 Y219.808 E21.64680
G1 X262.692 Y120.192 E25.59688
G1 X362.308 Y120.192 E29.54696
G1 X362.308 Y219.718 E33.49347
G1 X361.728 Y219.653 F6000.000
G1 X361.633 Y219.222 F6000.000
G1 F2100
G1 X361.722 Y219.133 E33.49848
G1 X361.722 Y218.687 E33.51618
G1 X361.187 Y219.222 E33.54621
G1 X360.741 Y219.222 E33.56390
G1 X361.722 Y218.241 E33.61895
G1 X361.722 Y217.794 E33.63664
G1 X360.294 Y219.222 E33.71671
G1 X359.848 Y219.222 E33.73440
G1 X361.722 Y217.348 E33.83949
G1 X361.722 Y216.902 E33.85718
G1 X359.402 Y219.222 E33.98729
G1 X358.956 Y219.222 E34.00499
G1 X361.722 Y216.456 E34.16012
G1 X361.722 Y216.010 E34.17781
G1 X358.510 Y219.222 E34.35796
G1 X358.064 Y219.222 E34.37565
G1 X361.722 Y215.564 E34.58082
G1 X361.722 Y215.118 E34.59851
G1 X357.618 Y219.222 E34.82870
G1 X357.172 Y219.222 E34.84639
G1 X361.722 Y214.672 E35.10160
G1 X361.722 Y214.226 E35.11929
G1 X356.726 Y219.222 E35.39952
G1 X356.280 Y219.222 E35.41721
G1 X361.722 Y213.780 E35.72246
G1 X361.722 Y213.334 E35.74015
G1 X355.834 Y219.222 E36.07042
G1 X355.388 Y219.222 E36.08811
G1 X361.722 Y212.888 E36.44340
G1 X361.722 Y212.442 E36.46109
G1 X354.942 Y219.222 E36.84140
G1 X354.496 Y219.222 E36.85909
G1 X361.722 Y211.996 E37.26442
G1 X361.722 Y211.550 E37.28211
G1 X354.050 Y219.222 E37.71246
G1 X353.604 Y219.222 E37.73015
G1 X361.722 Y211.104 E38.18552
G1 X361.722 Y210.658 E38.20321
G1 X353.158 Y219.222 E38.68360
G1 X352.712 Y219.222 E38.70129
G1 X361.722 Y210.212 E39.20670
G1 X361.722 Y209.766 E39.22439
G1 X352.266 Y219.222 E39.75482
G1 X351.819 Y219.222 E39.77251
G1 X361.722 Y209.320 E40.32796
G1 X361.722 Y208.873 E40.34565
G1 X351.373 Y219.222 E40.92612
G1 X350.927 Y219.222 E40.94381
G1 X361.722 Y208.427 E41.54930
G1 X361.722 Y207.981 E41.56699
G1 X350.481 Y219.222 E42.19750
G1 X350.035 Y219.222 E42.21519
G1 X361.722 Y207.535 E42.87072
G1 X361.722 Y207.089 E42.88841
G1 X349.589 Y219.222 E43.56896
G1 X349.143 Y219.222 E43.58665
G1 X361.722 Y206.643 E44.29221
G1 X361.722 Y206.197 E44.30991
G1 X348.697 Y219.222 E45.04049
G1 X348.251 Y219.222 E45.05818
G1 X361.722 Y205.751 E45.81379
G1 X361.722 Y205.305 E45.83148
G1 X347.805 Y219.222 E46.61211
G1 X347.359 Y219.222 E46.62980
G1 X361.722 Y204.859 E47.43545
G1 X361.722 Y204.413 E47.45314
G1 X346.913 Y219.222 E48.28381
G1 X346.467 Y219.222 E48.30150
G1 X361.722 Y203.967 E49.15718
G1 X361.722 Y203.521 E49.17488
G1 X346.021 Y219.222 E50.05558
G1 X345.575 Y219.222 E50.07327
G1 X361.722 Y203.075 E50.97900
G1 X361.722 Y202.629 E50.99669
G1 X345.129 Y219.222 E51.92744
G1 X344.683 Y219.222 E51.94513
G1 X361.722 Y202.183 E52.90089
G1 X361.722 Y201.737 E52.91858
G1 X344.237 Y219.222 E53.89937
G1 X343.791 Y219.222 E53.91706
G1 X361.722 Y201.291 E54.92287
G1 X361.722 Y200.845 E54.94056
G1 X343.345 Y219.222 E55.97138
G1 X342.898 Y219.222 E55.98908
G1 X361.722 Y200.398 E57.04492
G1 X361.722 Y199.952 E57.06261
G1 X342.452 Y219.222 E58.14348
G1 X342.006 Y219.222 E58.16117
G1 X361.722 Y199.506 E59.26705
G1 X361.722 Y199.060 E59.28475
G1 X341.560 Y219.222 E60.41565
G1 X341.114 Y219.222 E60.43334
G1 X361.722 Y198.614 E61.58927
G1 X361.722 Y198.168 E61.60696
G1 X340.668 Y219.222 E62.78790
G1 X340.222 Y219.222 E62.80559
G1 X361.722 Y197.722 E64.01156
G1 X361.722 Y197.276 E64.02925
G1 X339.776 Y219.222 E65.26023
G1 X339.330 Y219.222 E65.27793
G1 X361.722 Y196.830 E66.53393
G1 X361.722 Y196.384 E66.55162
G1 X338.884 Y219.222 E67.83265
G1 X338.438 Y219.222 E67.85034
G1 X361.722 Y195.938 E69.15638
G1 X361.722 Y195.492 E69.17407
G1 X337.992 Y219.222 E70.50514
G1 X337.546 Y219.222 E70.52283
G1 X361.722 Y195.046 E71.87891
G1 X361.722 Y194.600 E71.89660
G1 X337.100 Y219.222 E73.27771
G1 X336.654 Y219.222 E73.29540
G1 X361.722 Y194.154 E74.70152
G1 X361.722 Y193.708 E74.71921
G1 X336.208 Y219.222 E76.15036
G1 X335.762 Y219.222 E76.16805
G1 X361.722 Y193.262 E77.62421
G1 X361.722 Y192.816 E77.64190
G1 X335.316 Y219.222 E79.12309
G1 X334.870 Y219.222 E79.14078
G1 X348.313 Y205.778 E79.89487
G1 X347.867 Y205.778 E79.91256
G1 X334.423 Y219.222 E80.66666
G1 X333.977 Y219.222 E80.68435
G1 X347.421 Y205.778 E81.43845
G1 X346.975 Y205.778 E81.45614
G1 X333.531 Y219.222 E82.21023
G1 X333.085 Y219.222 E82.22792
G1 X346.529 Y205.778 E82.98202
G1 X346.083 Y205.778 E82.99971
G1 X332.639 Y219.222 E83.75381
G1 X332.193 Y219.222 E83.77150
G1 X345.637 Y205.778 E84.52559
G1 X345.191 Y205.778 E84.54328
G1 X331.747 Y219.222 E85.29738
G1 X331.301 Y219.222 E85.31507
G1 X344.745 Y205.778 E86.06917
G1 X344.299 Y205.778 E86.08686
G1 X330.855 Y219.222 E86.84095
G1 X330.409 Y219.222 E86.85864
G1 X343.853 Y205.778 E87.61274
G1 X343.407 Y205.778 E87.63043
G1 X329.963 Y219.222 E88.38453
G1 X329.517 Y219.222 E88.40222
G1 X342.961 Y205.778 E89.15631
G1 X342.515 Y205.778 E89.17400
G1 X329.071 Y219.222 E89.92810
G1 X328.625 Y219.222 E89.94579
G1 X342.069 Y205.778 E90.69989
G1 X341.623 Y205.778 E90.71758
G1 X328.179 Y219.222 E91.47167
G1 X327.733 Y219.222 E91.48937
G1 X341.177 Y205.778 E92.24346
G1 X340.731 Y205.778 E92.26115
G1 X327.287 Y219.222 E93.01525
G1 X326.841 Y219.222 E93.03294
G1 X340.285 Y205.778 E93.78703
G1 X339.838 Y205.778 E93.80473
G1 X326.395 Y219.222 E94.55882
G1 X325.949 Y219.222 E94.57651
G1 X339.392 Y205.778 E95.33061
G1 X338.946 Y205.778 E95.34830
G1 X325.502 Y219.222 E96.10239
G1 X325.056 Y219.222 E96.12009
G1 X338.500 Y205.778 E96.87418
G1 X338.054 Y205.778 E96.89187
G1 X324.610 Y219.222 E97.64597
G1 X324.164 Y219.222 E97.66366
G1 X337.608 Y205.778 E98.41775
G1 X337.162 Y205.778 E98.43545
G1 X323.718 Y219.222 E99.18954
G1 X323.272 Y219.222 E99.20723
G1 X336.716 Y205.778 E99.96133
G1 X336.270 Y205.778 E99.97902
G1 X322.826 Y219.222 E100.73311
G1 X322.380 Y219.222 E100.75081
G1 X335.824 Y205.778 E101.50490
G1 X335.378 Y205.778 E101.52259
G1 X321.934 Y219.222 E102.27669
G1 X321.488 Y219.222 E102.29438
G1 X334.932 Y205.778 E103.04847
G1 X334.486 Y205.778 E103.06617
G1 X321.042 Y219.222 E103.82026
G1 X320.596 Y219.222 E103.83795
G1 X334.040 Y205.778 E104.59205
G1 X333.594 Y205.778 E104.60974
G1 X320.150 Y219.222 E105.36384
G1 X319.704 Y219.222 E105.38153
G1 X333.148 Y205.778 E106.13562
G1 X332.702 Y205.778 E106.15331
G1 X319.258 Y219.222 E106.90741
G1 X318.812 Y219.222 E106.92510
G1 X332.256 Y205.778 E107.67920
G1 X331.810 Y205.778 E107.69689
G1 X318.366 Y219.222 E108.45098
G1 X317.920 Y219.222 E108.46867
G1 X331.364 Y205.778 E109.22277
G1 X330.917 Y205.778 E109.24046
G1 X317.474 Y219.222 E109.99456
G1 X317.027 Y219.222 E110.01225
G1 X330.471 Y205.778 E110.76634
G1 X330.025 Y205.778 E110.78403
G1 X316.581 Y219.222 E111.53813
G1 X316.135 Y219.222 E111.55582
G1 X329.579 Y205.778 E112.30992
G1 X329.133 Y205.778 E112.32761
G1 X315.689 Y219.222 E113.08170
G1 X315.243 Y219.222 E113.09939
G1 X328.687 Y205.778 E113.85349
G1 X328.241 Y205.778 E113.87118
G1 X314.797 Y219.222 E114.62528
G1 X314.351 Y219.222 E114.64297
G1 X327.795 Y205.778 E115.39706
G1 X327.349 Y205.778 E115.41475
G1 X313.905 Y219.222 E116.16885
G1 X313.459 Y219.222 E116.18654
G1 X326.903 Y205.778 E116.94064
G1 X326.457 Y205.778 E116.95833
G1 X313.013 Y219.222 E117.71242
G1 X312.567 Y219.222 E117.73011
G1 X326.011 Y205.778 E118.48421
G1 X325.565 Y205.778 E118.50190
G1 X312.121 Y219.222 E119.25600
G1 X311.675 Y219.222 E119.27369
G1 X325.119 Y205.778 E120.02778
G1 X324.673 Y205.778 E120.04547
G1 X311.229 Y219.222 E120.79957
G1 X310.783 Y219.222 E120.81726
G1 X324.227 Y205.778 E121.57136
G1 X323.781 Y205.778 E121.58905
G1 X310.337 Y219.222 E122.34314
G1 X309.891 Y219.222 E122.36083
G1 X323.335 Y205.778 E123.11493
G1 X322.889 Y205.778 E123.13262
G1 X309.445 Y219.222 E123.88672
G1 X308.999 Y219.222 E123.90441
G1 X322.442 Y205.778 E124.65850
G1 X321.996 Y205.778 E124.67620
G1 X308.553 Y219.222 E125.43029
G1 X308.106 Y219.222 E125.44798
G1 X321.550 Y205.778 E126.20208
G1 X321.104 Y205.778 E126.21977
G1 X307.660 Y219.222 E126.97386
G1 X307.214 Y219.222 E126.99156
G1 X320.658 Y205.778 E127.74565
G1 X320.212 Y205.778 E127.76334
G1 X306.768 Y219.222 E128.51744
G1 X306.322 Y219.222 E128.53513
G1 X319.766 Y205.778 E129.28922
G1 X319.320 Y205.778 E129.30692
G1 X305.876 Y219.222 E130.06101
G1 X305.430 Y219.222 E130.07870
G1 X318.874 Y205.778 E130.83280
G1 X318.428 Y205.778 E130.85049
G1 X304.984 Y219.222 E131.60458
G1 X304.538 Y219.222 E131.62228
G1 X317.982 Y205.778 E132.37637
G1 X317.536 Y205.778 E132.39406
G1 X304.092 Y219.222 E133.14816
G1 X303.646 Y219.222 E133.16585
G1 X317.090 Y205.778 E133.91994
G1 X316.644 Y205.778 E133.93764
G1 X303.200 Y219.222 E134.69173
G1 X302.754 Y219.222 E134.70942
G1 X316.198 Y205.778 E135.46352
G1 X315.752 Y205.778 E135.48121
G1 X302.308 Y219.222 E136.23530
G1 X301.862 Y219.222 E136.25300
G1 X315.306 Y205.778 E137.00709
G1 X314.860 Y205.778 E137.02478
G1 X301.416 Y219.222 E137.77888
G1 X300.970 Y219.222 E137.79657
G1 X314.414 Y205.778 E138.55066
G1 X313.967 Y205.778 E138.56836
G1 X300.524 Y219.222 E139.32245
G1 X300.078 Y219.222 E139.34014
G1 X313.521 Y205.778 E140.09424
G1 X313.075 Y205.778 E140.11193
G1 X299.631 Y219.222 E140.86602
G1 X299.185 Y219.222 E140.88372
G1 X312.629 Y205.778 E141.63781
G1 X312.183 Y205.778 E141.65550
G1 X298.739 Y219.222 E142.40960
G1 X298.293 Y219.222 E142.42729
G1 X311.737 Y205.778 E143.18138
G1 X311.291 Y205.778 E143.19908
G1 X297.847 Y219.222 E143.95317
G1 X297.401 Y219.222 E143.97086
G1 X310.845 Y205.778 E144.72496
G1 X310.399 Y205.778 E144.74265
G1 X296.955 Y219.222 E145.49674
G1 X296.509 Y219.222 E145.51444
G1 X309.953 Y205.778 E146.26853
G1 X309.507 Y205.778 E146.28622
G1 X296.063 Y219.222 E147.04032
G1 X295.617 Y219.222 E147.05801
G1 X309.061 Y205.778 E147.81211
G1 X308.615 Y205.778 E147.82980
G1 X295.171 Y219.222 E148.58389
G1 X294.725 Y219.222 E148.60158
G1 X308.169 Y205.778 E149.35568
G1 X307.723 Y205.778 E149.37337
G1 X294.279 Y219.222 E150.12747
G1 X293.833 Y219.222 E150.14516
G1 X307.277 Y205.778 E150.89925
G1 X306.831 Y205.778 E150.91694
G1 X293.387 Y219.222 E151.67104
G1 X292.941 Y219.222 E151.68873
G1 X306.385 Y205.778 E152.44283
G1 X305.939 Y205.778 E152.46052
G1 X292.495 Y219.222 E153.21461
G1 X292.049 Y219.222 E153.23230
G1 X305.493 Y205.778 E153.98640
G1 X305.046 Y205.778 E154.00409
G1 X291.603 Y219.222 E154.75819
G1 X291.156 Y219.222 E154.77588
G1 X304.600 Y205.778 E155.52997
G1 X304.154 Y205.778 E155.54766
G1 X290.710 Y219.222 E156.30176
G1 X290.264 Y219.222 E156.31945
G1 X303.708 Y205.778 E157.07355
G1 X303.262 Y205.778 E157.09124
G1 X289.818 Y219.222 E157.84533
G1 X289.372 Y219.222 E157.86302
G1 X302.816 Y205.778 E158.61712
G1 X302.370 Y205.778 E158.63481
G1 X288.926 Y219.222 E159.38891
G1 X288.480 Y219.222 E159.40660
G1 X301.924 Y205.778 E160.16069
G1 X301.478 Y205.778 E160.17838
G1 X288.034 Y219.222 E160.93248
G1 X287.588 Y219.222 E160.95017
G1 X301.032 Y205.778 E161.70427
G1 X300.586 Y205.778 E161.72196
G1 X287.142 Y219.222 E162.47605
G1 X286.696 Y219.222 E162.49374
G1 X300.140 Y205.778 E163.24784
G1 X299.694 Y205.778 E163.26553
G1 X286.250 Y219.222 E164.01963
G1 X285.804 Y219.222 E164.03732
G1 X299.248 Y205.778 E164.79141
G1 X298.802 Y205.778 E164.80910
G1 X285.358 Y219.222 E165.56320
G1 X284.912 Y219.222 E165.58089
G1 X298.356 Y205.778 E166.33499
G1 X297.910 Y205.778 E166.35268
G1 X284.466 Y219.222 E167.10677
G1 X284.020 Y219.222 E167.12446
G1 X297.464 Y205.778 E167.87856
G1 X297.018 Y205.778 E167.89625
G1 X283.574 Y219.222 E168.65035
G1 X283.128 Y219.222 E168.66804
G1 X296.571 Y205.778 E169.42213
G1 X296.125 Y205.778 E169.43982
G1 X282.682 Y219.222 E170.19392
G1 X282.235 Y219.222 E170.21161
G1 X295.679 Y205.778 E170.96571
G1 X295.233 Y205.778 E170.98340
G1 X281.789 Y219.222 E171.73749
G1 X281.343 Y219.222 E171.75518
G1 X294.787 Y205.778 E172.50928
G1 X294.341 Y205.778 E172.52697
G1 X280.897 Y219.222 E173.28107
G1 X280.451 Y219.222 E173.29876
G1 X293.895 Y205.778 E174.05285
G1 X293.449 Y205.778 E174.07054
G1 X280.005 Y219.222 E174.82464
G1 X279.559 Y219.222 E174.84233
G1 X293.003 Y205.778 E175.59643
G1 X292.557 Y205.778 E175.61412
G1 X279.113 Y219.222 E176.36821
G1 X278.667 Y219.222 E176.38590
G1 X292.111 Y205.778 E177.14000
G1 X291.665 Y205.778 E177.15769
G1 X278.221 Y219.222 E177.91179
G1 X277.775 Y219.222 E177.92948
G1 X291.219 Y205.778 E178.68357
G1 X290.773 Y205.778 E178.70126
G1 X277.329 Y219.222 E179.45536
G1 X276.883 Y219.222 E179.47305
G1 X290.327 Y205.778 E180.22715
