; generated by Slic3r 1.3.0-dev on 2018-05-31 at 15:26:34

; external perimeters extrusion width = 0.66mm (7.15mm^3/s)
; perimeters extrusion width = 0.84mm (11.63mm^3/s)
; infill extrusion width = 0.75mm (10.28mm^3/s)
; solid infill extrusion width = 0.84mm (11.63mm^3/s)
; top infill extrusion width = 0.84mm (11.63mm^3/s)

M107
M104 S205 ; set temperature
G28 ; home all axes
G32; probe home individual Z axis
G29 S1; load bed mesh

; Filament gcode

M109 S205 ; set temperature and wait for it to be reached
G21 ; set units to millimeters
G90 ; use absolute coordinates
M82 ; use absolute distances for extrusion
G92 E0
M584 U3 Z2 V4; Actuate motors independently
G92 U10.000 V10.000 Z10.000
G1 U0.320 V0.320 Z0.320 F6000.000
G1 E-2.00000 F2400.00000
G92 E0
G1 X381.893 Y171.163 F6000.000
G1 E2.00000 F2400.00000
G1 F1680
G1 X382.550 Y169.782 E2.06062
G1 X382.833 Y169.238 E2.08495
G1 X383.472 Y168.108 E2.13643
G1 X383.800 Y167.576 E2.16121
G1 X384.363 Y166.730 E2.20149
G1 X384.972 Y165.879 E2.24299
G1 X385.763 Y164.889 E2.29322
G1 X386.244 Y164.336 E2.32231
G1 X387.490 Y163.051 E2.39328
G1 X388.287 Y162.337 E2.43570
G1 X389.115 Y161.663 E2.47804
G1 X389.751 Y161.193 E2.50939
G1 X390.608 Y160.618 E2.55032
G1 X391.328 Y160.184 E2.58365
G1 X392.215 Y159.707 E2.62359
G1 X393.015 Y159.328 E2.65869
G1 X393.914 Y158.958 E2.69725
G1 X394.762 Y158.659 E2.73290
G1 X395.631 Y158.402 E2.76885
G1 X396.516 Y158.191 E2.80493
G1 X397.403 Y158.029 E2.84065
G1 X398.137 Y157.927 E2.87007
G1 X398.664 Y157.876 E2.89104
G1 X399.401 Y157.838 E2.92032
G1 X400.274 Y157.829 E2.95491
G1 X401.421 Y157.891 E3.00046
G1 X402.071 Y157.955 E3.02640
G1 X402.954 Y158.087 E3.06177
G1 X403.849 Y158.272 E3.09800
G1 X404.531 Y158.441 E3.12587
G1 X405.254 Y158.663 E3.15585
G1 X406.156 Y158.983 E3.19383
G1 X406.910 Y159.293 E3.22614
G1 X407.283 Y159.467 E3.24247
G1 X407.794 Y159.710 E3.26492
G1 X408.470 Y160.067 E3.29523
G1 X409.333 Y160.578 E3.33499
G1 X409.870 Y160.926 E3.36036
G1 X410.553 Y161.408 E3.39350
G1 X411.048 Y161.788 E3.41826
G1 X411.908 Y162.503 E3.46262
G1 X412.405 Y162.954 E3.48921
G1 X413.219 Y163.754 E3.53447
G1 X413.641 Y164.205 E3.55898
G1 X414.408 Y165.088 E3.60532
G1 X414.774 Y165.545 E3.62854
G1 X415.518 Y166.544 E3.67795
G1 X415.842 Y167.017 E3.70069
G1 X416.562 Y168.163 E3.75436
G1 X416.917 Y168.780 E3.78259
G1 X417.717 Y170.313 E3.85115
G1 X418.486 Y172.044 E3.92627
G1 X419.169 Y173.887 E4.00419
G1 X419.640 Y175.409 E4.06737
G1 X419.943 Y176.580 E4.11531
G1 X420.249 Y177.906 E4.16930
G1 X420.538 Y179.505 E4.23371
G1 X420.807 Y181.593 E4.31719
G1 X420.956 Y183.711 E4.40139
G1 X420.986 Y184.643 E4.43836
G1 X420.951 Y187.021 E4.53269
G1 X419.357 Y218.657 E5.78872
G1 X419.273 Y219.757 E5.83250
G1 X419.107 Y220.865 E5.87690
G1 X418.851 Y221.976 E5.92212
G1 X418.500 Y223.086 E5.96829
G1 X418.342 Y223.505 E5.98605
G1 X417.854 Y224.589 E6.03318
G1 X417.435 Y225.352 E6.06770
G1 X417.232 Y225.683 E6.08311
G1 X416.649 Y226.515 E6.12338
G1 X416.277 Y226.977 E6.14691
G1 X415.544 Y227.792 E6.19038
G1 X415.078 Y228.265 E6.21668
G1 X413.933 Y229.329 E6.27868
G1 X412.680 Y230.376 E6.34342
G1 X411.808 Y231.034 E6.38675
G1 X410.480 Y231.924 E6.45011
G1 X409.540 Y232.471 E6.49324
G1 X408.463 Y233.020 E6.54117
G1 X407.794 Y233.329 E6.57042
G1 X407.141 Y233.599 E6.59844
G1 X406.301 Y233.900 E6.63380
G1 X405.469 Y234.172 E6.66852
G1 X404.627 Y234.400 E6.70311
G1 X404.192 Y234.495 E6.72077
G1 X403.060 Y234.718 E6.76653
G1 X402.038 Y234.855 E6.80739
G1 X400.591 Y234.954 E6.86491
G1 X399.484 Y234.956 E6.90882
G1 X398.465 Y234.892 E6.94928
G1 X398.041 Y234.863 E6.96615
G1 X397.014 Y234.730 E7.00720
G1 X395.450 Y234.419 E7.07044
G1 X394.603 Y234.192 E7.10519
G1 X393.767 Y233.923 E7.14006
G1 X392.934 Y233.627 E7.17507
G1 X392.276 Y233.358 E7.20328
G1 X391.240 Y232.874 E7.24862
G1 X390.530 Y232.508 E7.28027
G1 X389.579 Y231.959 E7.32384
G1 X388.259 Y231.081 E7.38671
G1 X387.707 Y230.680 E7.41376
G1 X386.049 Y229.311 E7.49903
G1 X385.628 Y228.919 E7.52184
G1 X384.249 Y227.547 E7.59895
G1 X383.727 Y226.979 E7.62954
G1 X383.368 Y226.534 E7.65220
G1 X382.883 Y225.861 E7.68512
G1 X382.448 Y225.154 E7.71803
G1 X381.988 Y224.266 E7.75767
G1 X381.679 Y223.558 E7.78833
G1 X381.309 Y222.524 E7.83186
G1 X381.026 Y221.491 E7.87435
G1 X380.820 Y220.447 E7.91655
G1 X380.676 Y219.196 E7.96646
G1 X379.112 Y188.008 E9.20474
G1 X379.017 Y185.776 E9.29330
G1 X379.054 Y183.535 E9.38217
G1 X379.176 Y181.807 E9.45088
G1 X379.457 Y179.551 E9.54103
G1 X379.765 Y177.845 E9.60976
G1 X380.256 Y175.793 E9.69343
G1 X380.406 Y175.257 E9.71549
G1 X380.887 Y173.731 E9.77893
G1 X381.080 Y173.183 E9.80198
G1 X381.649 Y171.727 E9.86396
G1 X381.857 Y171.245 E9.88479
G1 X382.178 Y171.298 F6000.000
G1 F1680
G1 X382.835 Y169.918 E9.94540
G1 X383.107 Y169.393 E9.96885
G1 X383.747 Y168.263 E10.02032
G1 X384.062 Y167.750 E10.04420
G1 X384.624 Y166.907 E10.08439
G1 X385.218 Y166.076 E10.12490
G1 X386.009 Y165.086 E10.17513
G1 X386.473 Y164.553 E10.20315
G1 X387.704 Y163.282 E10.27331
G1 X388.486 Y162.582 E10.31493
G1 X389.314 Y161.908 E10.35728
G1 X389.927 Y161.455 E10.38748
G1 X390.783 Y160.880 E10.42840
G1 X391.477 Y160.462 E10.46052
G1 X392.364 Y159.985 E10.50046
G1 X393.135 Y159.620 E10.53427
G1 X394.034 Y159.249 E10.57283
G1 X394.851 Y158.961 E10.60718
G1 X395.721 Y158.705 E10.64313
G1 X396.573 Y158.502 E10.67790
G1 X397.459 Y158.339 E10.71362
G1 X398.167 Y158.241 E10.74196
G1 X398.694 Y158.190 E10.76294
G1 X399.404 Y158.153 E10.79114
G1 X400.277 Y158.144 E10.82574
G1 X401.390 Y158.205 E10.86996
G1 X402.041 Y158.269 E10.89588
G1 X402.891 Y158.396 E10.92996
G1 X403.785 Y158.580 E10.96616
G1 X404.446 Y158.745 E10.99315
G1 X405.149 Y158.960 E11.02233
G1 X406.050 Y159.280 E11.06024
G1 X406.776 Y159.578 E11.09137
G1 X407.149 Y159.753 E11.10771
G1 X407.659 Y159.994 E11.13008
G1 X408.310 Y160.339 E11.15929
G1 X409.171 Y160.849 E11.19897
G1 X409.689 Y161.184 E11.22341
G1 X410.370 Y161.665 E11.25647
G1 X410.847 Y162.031 E11.28032
G1 X411.706 Y162.745 E11.32459
G1 X412.184 Y163.179 E11.35022
G1 X412.996 Y163.978 E11.39538
G1 X413.403 Y164.413 E11.41900
G1 X414.168 Y165.293 E11.46525
G1 X414.521 Y165.733 E11.48763
G1 X415.264 Y166.731 E11.53694
G1 X415.576 Y167.186 E11.55885
G1 X416.295 Y168.331 E11.61243
G1 X416.640 Y168.931 E11.63987
G1 X417.431 Y170.445 E11.70760
G1 X418.191 Y172.158 E11.78192
G1 X418.868 Y173.981 E11.85905
G1 X419.339 Y175.502 E11.92216
G1 X419.637 Y176.655 E11.96940
G1 X419.939 Y177.963 E12.02263
G1 X420.228 Y179.560 E12.08699
G1 X420.493 Y181.630 E12.16974
G1 X420.641 Y183.730 E12.25323
G1 X420.670 Y184.650 E12.28972
G1 X420.636 Y187.005 E12.38313
G1 X419.042 Y218.641 E13.63915
G1 X418.961 Y219.718 E13.68198
G1 X418.798 Y220.801 E13.72543
G1 X418.548 Y221.889 E13.76968
G1 X418.206 Y222.975 E13.81483
G1 X418.047 Y223.393 E13.83259
G1 X417.570 Y224.452 E13.87861
G1 X417.167 Y225.187 E13.91187
G1 X416.963 Y225.518 E13.92728
G1 X416.402 Y226.319 E13.96607
G1 X416.035 Y226.775 E13.98925
G1 X415.311 Y227.580 E14.03220
G1 X414.862 Y228.035 E14.05754
G1 X413.725 Y229.092 E14.11910
G1 X412.478 Y230.134 E14.18354
G1 X411.630 Y230.774 E14.22566
G1 X410.317 Y231.654 E14.28833
G1 X409.395 Y232.191 E14.33067
G1 X408.331 Y232.733 E14.37801
G1 X407.661 Y233.043 E14.40726
G1 X407.032 Y233.303 E14.43425
G1 X406.203 Y233.600 E14.46917
G1 X405.371 Y233.872 E14.50390
G1 X404.560 Y234.092 E14.53722
G1 X404.125 Y234.187 E14.55488
G1 X402.999 Y234.409 E14.60037
G1 X402.015 Y234.540 E14.63974
G1 X400.570 Y234.639 E14.69716
G1 X399.503 Y234.641 E14.73947
G1 X398.485 Y234.577 E14.77993
G1 X398.063 Y234.548 E14.79672
G1 X397.074 Y234.420 E14.83627
G1 X395.516 Y234.110 E14.89924
G1 X394.700 Y233.892 E14.93272
G1 X393.863 Y233.622 E14.96759
G1 X393.042 Y233.331 E15.00217
G1 X392.407 Y233.071 E15.02935
G1 X391.385 Y232.593 E15.07411
G1 X390.675 Y232.228 E15.10576
G1 X389.741 Y231.688 E15.14852
G1 X388.436 Y230.820 E15.21070
G1 X387.896 Y230.427 E15.23715
G1 X386.256 Y229.073 E15.32152
G1 X385.850 Y228.695 E15.34349
G1 X384.471 Y227.324 E15.42060
G1 X383.968 Y226.777 E15.45007
G1 X383.615 Y226.338 E15.47241
G1 X383.147 Y225.689 E15.50413
G1 X382.721 Y224.996 E15.53640
G1 X382.275 Y224.135 E15.57486
G1 X381.971 Y223.439 E15.60497
G1 X381.610 Y222.428 E15.64751
G1 X381.332 Y221.418 E15.68906
G1 X381.131 Y220.397 E15.73032
G1 X380.990 Y219.177 E15.77902
G1 X379.427 Y187.992 E17.01716
G1 X379.332 Y185.779 E17.10497
G1 X379.369 Y183.557 E17.19310
G1 X379.490 Y181.829 E17.26180
G1 X379.770 Y179.592 E17.35119
G1 X380.075 Y177.904 E17.41923
G1 X380.562 Y175.868 E17.50222
G1 X380.706 Y175.352 E17.52347
G1 X381.187 Y173.826 E17.58691
G1 X381.374 Y173.298 E17.60912
G1 X381.943 Y171.842 E17.67110
G1 X382.142 Y171.381 E17.69103
G1 E15.69103 F2400.00000
G92 E0
G1 X409.560 Y193.651 F6000.000
G1 E2.00000 F2400.00000
G1 F2100
G1 X409.036 Y195.028 E2.05842
G1 X408.440 Y196.320 E2.11485
G1 X407.776 Y197.529 E2.16955
G1 X407.042 Y198.656 E2.22287
G1 X406.562 Y199.296 E2.25460
G1 X405.833 Y200.143 E2.29892
G1 X405.086 Y200.876 E2.34040
G1 X404.313 Y201.509 E2.38004
G1 X403.710 Y201.919 E2.40895
G1 X402.993 Y202.320 E2.44152
G1 X402.245 Y202.643 E2.47384
G1 X401.383 Y202.896 E2.50945
G1 X400.695 Y203.012 E2.53711
G1 X399.979 Y203.052 E2.56554
G1 X399.699 Y203.044 E2.57665
G1 X399.003 Y202.970 E2.60442
G1 X398.175 Y202.780 E2.63807
G1 X397.495 Y202.540 E2.66667
G1 X396.801 Y202.214 E2.69709
G1 X396.460 Y202.023 E2.71259
G1 X395.738 Y201.545 E2.74692
G1 X395.044 Y200.989 E2.78219
G1 X394.371 Y200.354 E2.81888
G1 X393.784 Y199.713 E2.85335
G1 X393.085 Y198.830 E2.89800
G1 X392.436 Y197.872 E2.94388
G1 X391.835 Y196.844 E2.99110
G1 X391.178 Y195.514 E3.04992
G1 X390.643 Y194.213 E3.10572
G1 X390.186 Y192.857 E3.16245
G1 X389.806 Y191.452 E3.22016
G1 X389.504 Y189.993 E3.27925
G1 X389.360 Y189.086 E3.31568
G1 X389.181 Y187.461 E3.38046
G1 X389.101 Y185.833 E3.44510
G1 X389.117 Y184.197 E3.51001
G1 X389.232 Y182.556 E3.57522
G1 X389.449 Y180.911 E3.64102
G1 X389.668 Y179.749 E3.68790
G1 X390.037 Y178.243 E3.74938
G1 X390.490 Y176.809 E3.80902
G1 X391.022 Y175.447 E3.86700
G1 X391.634 Y174.160 E3.92352
G1 X392.221 Y173.122 E3.97080
G1 X392.888 Y172.126 E4.01831
G1 X393.601 Y171.233 E4.06365
G1 X394.373 Y170.420 E4.10810
G1 X394.684 Y170.132 E4.12492
G1 X395.425 Y169.530 E4.16278
G1 X396.168 Y169.031 E4.19825
G1 X396.927 Y168.623 E4.23242
G1 X397.687 Y168.310 E4.26502
G1 X398.410 Y168.096 E4.29492
G1 X399.159 Y167.959 E4.32512
G1 X399.562 Y167.920 E4.34115
G1 X400.295 Y167.913 E4.37022
G1 X401.013 Y167.983 E4.39885
G1 X401.951 Y168.191 E4.43693
G1 X402.701 Y168.457 E4.46848
G1 X403.415 Y168.793 E4.49977
G1 X404.122 Y169.212 E4.53236
G1 X404.662 Y169.593 E4.55857
G1 X405.385 Y170.194 E4.59586
G1 X406.072 Y170.869 E4.63405
G1 X406.666 Y171.552 E4.66995
G1 X407.367 Y172.481 E4.71609
G1 X407.994 Y173.481 E4.76291
G1 X408.571 Y174.560 E4.81143
G1 X409.087 Y175.698 E4.86096
G1 X409.558 Y176.940 E4.91364
G1 X409.989 Y178.331 E4.97137
G1 X410.338 Y179.765 E5.02989
G1 X410.605 Y181.240 E5.08933
G1 X410.789 Y182.752 E5.14974
G1 X410.890 Y184.311 E5.21168
G1 X410.904 Y184.852 E5.23315
G1 X410.879 Y186.520 E5.29929
G1 X410.756 Y188.164 E5.36465
G1 X410.534 Y189.782 E5.42941
G1 X410.216 Y191.366 E5.49350
G1 X409.796 Y192.923 E5.55744
G1 X409.588 Y193.565 E5.58420
G1 X409.855 Y193.763 F6000.000
G1 F2100
G1 X409.327 Y195.150 E5.64304
G1 X408.722 Y196.462 E5.70034
G1 X408.047 Y197.692 E5.75595
G1 X407.301 Y198.837 E5.81016
G1 X406.808 Y199.493 E5.84272
G1 X406.063 Y200.359 E5.88798
G1 X405.297 Y201.111 E5.93055
G1 X404.502 Y201.762 E5.97130
G1 X403.876 Y202.188 E6.00132
G1 X403.133 Y202.603 E6.03508
G1 X402.360 Y202.937 E6.06845
G1 X401.452 Y203.204 E6.10600
G1 X400.730 Y203.325 E6.13502
G1 X399.984 Y203.367 E6.16465
G1 X399.678 Y203.359 E6.17678
G1 X398.951 Y203.281 E6.20580
G1 X398.088 Y203.084 E6.24090
G1 X397.376 Y202.832 E6.27084
G1 X396.657 Y202.495 E6.30234
G1 X396.296 Y202.292 E6.31873
G1 X395.552 Y201.800 E6.35413
G1 X394.837 Y201.228 E6.39044
G1 X394.146 Y200.575 E6.42810
G1 X393.544 Y199.917 E6.46348
G1 X392.831 Y199.016 E6.50904
G1 X392.169 Y198.041 E6.55580
G1 X391.557 Y196.994 E6.60387
G1 X390.890 Y195.644 E6.66356
G1 X390.348 Y194.323 E6.72020
G1 X389.884 Y192.948 E6.77772
G1 X389.499 Y191.525 E6.83619
G1 X389.193 Y190.050 E6.89593
G1 X389.047 Y189.128 E6.93296
G1 X388.867 Y187.487 E6.99842
G1 X388.785 Y185.840 E7.06381
G1 X388.802 Y184.184 E7.12946
G1 X388.918 Y182.524 E7.19543
G1 X389.138 Y180.861 E7.26196
G1 X389.359 Y179.682 E7.30952
G1 X389.734 Y178.158 E7.37175
G1 X390.192 Y176.704 E7.43221
G1 X390.732 Y175.322 E7.49106
G1 X391.354 Y174.014 E7.54847
G1 X391.953 Y172.957 E7.59666
G1 X392.633 Y171.940 E7.64517
G1 X393.363 Y171.026 E7.69157
G1 X394.151 Y170.196 E7.73695
G1 X394.478 Y169.894 E7.75458
G1 X395.237 Y169.276 E7.79341
G1 X396.005 Y168.761 E7.83007
G1 X396.792 Y168.337 E7.86549
G1 X397.582 Y168.012 E7.89938
G1 X398.337 Y167.789 E7.93060
G1 X399.116 Y167.646 E7.96199
G1 X399.545 Y167.605 E7.97910
G1 X400.308 Y167.598 E8.00937
G1 X401.061 Y167.671 E8.03934
G1 X402.046 Y167.890 E8.07938
G1 X402.821 Y168.165 E8.11197
G1 X403.562 Y168.514 E8.14447
G1 X404.293 Y168.947 E8.17815
G1 X404.854 Y169.342 E8.20535
G1 X405.597 Y169.960 E8.24366
G1 X406.302 Y170.653 E8.28286
G1 X406.912 Y171.353 E8.31968
G1 X407.627 Y172.302 E8.36680
G1 X408.267 Y173.323 E8.41459
G1 X408.854 Y174.420 E8.46392
G1 X409.378 Y175.577 E8.51429
G1 X409.857 Y176.837 E8.56775
G1 X410.293 Y178.247 E8.62625
G1 X410.646 Y179.700 E8.68553
G1 X410.917 Y181.193 E8.74570
G1 X411.103 Y182.723 E8.80683
G1 X411.205 Y184.297 E8.86937
G1 X411.219 Y184.850 E8.89132
G1 X411.194 Y186.535 E8.95812
G1 X411.069 Y188.197 E9.02423
G1 X410.845 Y189.834 E9.08975
G1 X410.523 Y191.439 E9.15464
G1 X410.099 Y193.013 E9.21930
G1 X409.883 Y193.678 E9.24701
G1 X410.149 Y193.875 F6000.000
G1 F2100
G1 X409.617 Y195.272 E9.30627
G1 X409.004 Y196.604 E9.36443
G1 X408.318 Y197.854 E9.42096
G1 X407.559 Y199.018 E9.47605
G1 X407.053 Y199.691 E9.50945
G1 X406.293 Y200.574 E9.55565
G1 X405.508 Y201.346 E9.59931
G1 X404.691 Y202.014 E9.64118
G1 X404.042 Y202.456 E9.67229
G1 X403.273 Y202.886 E9.70724
G1 X402.476 Y203.231 E9.74167
G1 X401.521 Y203.512 E9.78116
G1 X400.765 Y203.639 E9.81153
G1 X399.989 Y203.683 E9.84237
G1 X399.657 Y203.674 E9.85551
G1 X398.898 Y203.593 E9.88578
G1 X398.000 Y203.387 E9.92234
G1 X397.256 Y203.125 E9.95361
G1 X396.512 Y202.775 E9.98620
G1 X396.132 Y202.562 E10.00347
G1 X395.366 Y202.054 E10.03994
G1 X394.630 Y201.466 E10.07730
G1 X393.921 Y200.797 E10.11593
G1 X393.304 Y200.122 E10.15221
G1 X392.577 Y199.203 E10.19868
G1 X391.902 Y198.209 E10.24632
G1 X391.280 Y197.143 E10.29525
G1 X390.603 Y195.774 E10.35581
G1 X390.052 Y194.433 E10.41328
G1 X389.582 Y193.040 E10.47159
G1 X389.193 Y191.598 E10.53081
G1 X388.883 Y190.106 E10.59122
G1 X388.734 Y189.170 E10.62884
G1 X388.552 Y187.512 E10.69498
G1 X388.470 Y185.846 E10.76112
G1 X388.486 Y184.171 E10.82752
G1 X388.604 Y182.493 E10.89424
G1 X388.826 Y180.811 E10.96150
G1 X389.051 Y179.615 E11.00975
G1 X389.430 Y178.073 E11.07272
G1 X389.894 Y176.599 E11.13400
G1 X390.443 Y175.196 E11.19372
G1 X391.074 Y173.869 E11.25202
G1 X391.684 Y172.791 E11.30112
G1 X392.378 Y171.753 E11.35063
G1 X393.125 Y170.818 E11.39809
G1 X393.930 Y169.971 E11.44441
G1 X394.271 Y169.655 E11.46285
G1 X395.050 Y169.022 E11.50265
G1 X395.842 Y168.490 E11.54049
G1 X396.657 Y168.052 E11.57716
G1 X397.477 Y167.714 E11.61235
G1 X398.264 Y167.482 E11.64487
G1 X399.072 Y167.334 E11.67747
G1 X399.528 Y167.290 E11.69564
G1 X400.322 Y167.282 E11.72711
G1 X401.108 Y167.359 E11.75843
G1 X401.907 Y167.523 E11.79077
G1 X402.142 Y167.589 E11.80044
G1 X402.941 Y167.873 E11.83408
G1 X403.710 Y168.235 E11.86779
G1 X404.465 Y168.682 E11.90256
G1 X405.046 Y169.092 E11.93075
G1 X405.809 Y169.726 E11.97009
G1 X406.532 Y170.436 E12.01029
G1 X407.157 Y171.155 E12.04804
G1 X407.886 Y172.123 E12.09613
G1 X408.540 Y173.165 E12.14489
G1 X409.136 Y174.280 E12.19503
G1 X409.669 Y175.456 E12.24624
G1 X410.155 Y176.735 E12.30047
G1 X410.597 Y178.163 E12.35976
