; generated by Slic3r 1.3.0-dev on 2018-06-11 at 19:19:02

; external perimeters extrusion width = 0.66mm (7.15mm^3/s)
; perimeters extrusion width = 0.84mm (11.63mm^3/s)
; infill extrusion width = 0.75mm (10.28mm^3/s)
; solid infill extrusion width = 0.84mm (11.63mm^3/s)
; top infill extrusion width = 0.84mm (11.63mm^3/s)

M107
G28 ; home all axes
G32; probe home individual Z axis
G29 S1; load bed mesh
M109 S205 ; set temperature and wait for it to be reached
M117 Purge extruder
G92 E0 ; reset extruder
G1 X400
G1 Z1.0 F3000.0 ; move z up little to prevent scratching of surface
G1 X400 Y20 Z0.3 F5000.0 ; move to start-line position
G1 X400 Y200.0 Z0.3 F1500.0 E15 ; draw 1st line
G1 X400.5 Y200.0 Z0.3 F5000.0 ; move to side a little
G1 X400.5 Y20 Z0.3 F1500.0 E30 ; draw 2nd line
; G1 E27 F3000 ; retract filament 3mm
G92 E0 ; reset extruder
; done purging extruder
G1 Z1.0 F3000 ; move z up little to prevent scratching of surface
G1 Z10
G1 X200
M117 Printing!

; Filament gcode

G21 ; set units to millimeters
G90 ; use absolute coordinates
M82 ; use absolute distances for extrusion
G92 E0
M584 U3 Z2 V4; Actuate motors independently
G92 U10.000 V10.000 Z10.000
G1 U0.320 V0.320 Z0.320 F6000.000
G1 E-2.00000 F2400.00000
G92 E0
G1 X408.223 Y118.713 F6000.000
G1 E2.00000 F2400.00000
G1 F1680
G1 X408.612 Y117.604 E2.04660
G1 X409.057 Y117.207 E2.07025
G1 X458.099 Y86.505 E4.36454
G1 X459.041 Y86.234 E4.40343
G1 X460.959 Y86.234 E4.47947
G1 X461.901 Y86.505 E4.51836
G1 X510.943 Y117.207 E6.81265
G1 X511.677 Y118.125 E6.85926
G1 X511.777 Y118.713 E6.88290
G1 X511.777 Y218.713 E10.84821
G1 X511.388 Y219.822 E10.89481
G1 X510.000 Y220.489 E10.95588
G1 X410.000 Y220.489 E14.92119
G1 X408.891 Y220.101 E14.96779
G1 X408.223 Y218.713 E15.02886
G1 X408.223 Y118.803 E18.99060
G1 X408.539 Y118.713 F6000.000
G1 F1680
G1 X409.225 Y117.474 E19.04674
G1 X458.266 Y86.772 E21.34103
G1 X459.041 Y86.549 E21.37302
G1 X460.959 Y86.549 E21.44905
G1 X461.734 Y86.772 E21.48104
G1 X510.775 Y117.474 E23.77534
G1 X511.461 Y118.713 E23.83148
G1 X511.461 Y218.713 E27.79678
G1 X511.075 Y219.703 E27.83892
G1 X510.000 Y220.174 E27.88546
G1 X410.000 Y220.174 E31.85077
G1 X409.010 Y219.788 E31.89291
G1 X408.539 Y218.713 E31.93945
G1 X408.539 Y118.803 E35.90119
G1 X408.854 Y118.713 F6000.000
G1 F1680
G1 X409.392 Y117.741 E35.94522
G1 X458.433 Y87.039 E38.23951
G1 X459.041 Y86.864 E38.26460
G1 X460.959 Y86.864 E38.34063
G1 X461.567 Y87.039 E38.36572
G1 X510.608 Y117.741 E40.66001
G1 X511.146 Y118.713 E40.70404
G1 X511.146 Y218.713 E44.66934
G1 X510.763 Y219.567 E44.70647
G1 X510.000 Y219.859 E44.73887
G1 X410.000 Y219.859 E48.70418
G1 X409.145 Y219.476 E48.74131
G1 X408.854 Y218.713 E48.77371
G1 X408.854 Y118.803 E52.73545
G1 X409.169 Y118.713 F6000.000
G1 F1680
G1 X409.559 Y118.009 E52.76736
G1 X458.601 Y87.306 E55.06166
G1 X459.041 Y87.180 E55.07984
G1 X460.959 Y87.180 E55.15587
G1 X461.399 Y87.306 E55.17406
G1 X510.441 Y118.009 E57.46835
G1 X510.831 Y118.713 E57.50026
G1 X510.831 Y218.713 E61.46557
G1 X510.455 Y219.408 E61.49690
G1 X510.000 Y219.543 E61.51572
G1 X410.000 Y219.543 E65.48103
G1 X409.305 Y219.167 E65.51236
G1 X409.169 Y218.713 E65.53118
G1 X409.169 Y118.803 E69.49292
G1 X409.485 Y118.713 F6000.000
G1 F1680
G1 X409.727 Y118.276 E69.51271
G1 X458.768 Y87.574 E71.80701
G1 X459.041 Y87.495 E71.81829
G1 X460.959 Y87.495 E71.89432
G1 X461.232 Y87.574 E71.90560
G1 X510.273 Y118.276 E74.19989
G1 X510.515 Y118.713 E74.21969
G1 X510.515 Y218.713 E78.18500
G1 X510.000 Y219.228 E78.21390
G1 X410.000 Y219.228 E82.17920
G1 X409.485 Y218.713 E82.20810
G1 X409.485 Y118.803 E86.16984
G1 E84.16984 F2400.00000
G92 E0
G1 X495.507 Y204.220 F6000.000
G1 E2.00000 F2400.00000
G1 F2100
G1 X424.493 Y204.220 E4.81595
G1 X424.493 Y133.205 E7.63190
G1 X495.507 Y133.205 E10.44785
G1 X495.507 Y204.130 E13.26023
G1 X495.192 Y203.905 F6000.000
G1 F1680
G1 X424.808 Y203.905 E16.05117
G1 X424.808 Y133.521 E18.84211
G1 X495.192 Y133.521 E21.63305
G1 X495.192 Y203.815 E24.42042
G1 X495.347 Y204.484 F6000.000
G1 E22.42042 F2400.00000
G92 E0
G1 X509.493 Y218.205 F6000.000
G1 E2.00000 F2400.00000
G1 F2100
G1 X410.507 Y218.205 E5.92507
G1 X410.507 Y119.220 E9.85015
G1 X509.493 Y119.220 E13.77522
G1 X509.493 Y218.115 E17.69672
G1 X509.808 Y218.521 F6000.000
G1 F1680
G1 X410.192 Y218.521 E21.64680
G1 X410.192 Y118.905 E25.59688
G1 X509.808 Y118.905 E29.54696
G1 X509.808 Y218.431 E33.49347
G1 X509.228 Y218.365 F6000.000
G1 X509.133 Y217.935 F6000.000
G1 F2100
G1 X509.222 Y217.845 E33.49848
G1 X509.222 Y217.399 E33.51618
G1 X508.687 Y217.935 E33.54621
G1 X508.241 Y217.935 E33.56390
G1 X509.222 Y216.953 E33.61895
G1 X509.222 Y216.507 E33.63664
G1 X507.794 Y217.935 E33.71671
G1 X507.348 Y217.935 E33.73440
G1 X509.222 Y216.061 E33.83949
G1 X509.222 Y215.615 E33.85718
G1 X506.902 Y217.935 E33.98729
G1 X506.456 Y217.935 E34.00499
G1 X509.222 Y215.169 E34.16012
G1 X509.222 Y214.723 E34.17781
G1 X506.010 Y217.935 E34.35796
G1 X505.564 Y217.935 E34.37565
G1 X509.222 Y214.277 E34.58082
G1 X509.222 Y213.831 E34.59851
G1 X505.118 Y217.935 E34.82870
G1 X504.672 Y217.935 E34.84639
G1 X509.222 Y213.385 E35.10160
G1 X509.222 Y212.939 E35.11929
G1 X504.226 Y217.935 E35.39952
G1 X503.780 Y217.935 E35.41721
G1 X509.222 Y212.493 E35.72246
G1 X509.222 Y212.047 E35.74015
G1 X503.334 Y217.935 E36.07042
G1 X502.888 Y217.935 E36.08811
G1 X509.222 Y211.601 E36.44340
G1 X509.222 Y211.155 E36.46109
G1 X502.442 Y217.935 E36.84140
G1 X501.996 Y217.935 E36.85909
G1 X509.222 Y210.709 E37.26442
G1 X509.222 Y210.262 E37.28211
G1 X501.550 Y217.935 E37.71246
G1 X501.104 Y217.935 E37.73015
G1 X509.222 Y209.816 E38.18552
G1 X509.222 Y209.370 E38.20321
G1 X500.658 Y217.935 E38.68360
G1 X500.212 Y217.935 E38.70129
G1 X509.222 Y208.924 E39.20670
G1 X509.222 Y208.478 E39.22439
G1 X499.766 Y217.935 E39.75482
G1 X499.319 Y217.935 E39.77251
G1 X509.222 Y208.032 E40.32796
G1 X509.222 Y207.586 E40.34565
G1 X498.873 Y217.935 E40.92612
G1 X498.427 Y217.935 E40.94381
G1 X509.222 Y207.140 E41.54930
G1 X509.222 Y206.694 E41.56699
G1 X497.981 Y217.935 E42.19750
G1 X497.535 Y217.935 E42.21519
G1 X509.222 Y206.248 E42.87072
G1 X509.222 Y205.802 E42.88841
G1 X497.089 Y217.935 E43.56896
G1 X496.643 Y217.935 E43.58665
G1 X509.222 Y205.356 E44.29221
G1 X509.222 Y204.910 E44.30991
G1 X496.197 Y217.935 E45.04049
G1 X495.751 Y217.935 E45.05818
G1 X509.222 Y204.464 E45.81379
G1 X509.222 Y204.018 E45.83148
G1 X495.305 Y217.935 E46.61211
G1 X494.859 Y217.935 E46.62980
G1 X509.222 Y203.572 E47.43545
G1 X509.222 Y203.126 E47.45314
G1 X494.413 Y217.935 E48.28381
G1 X493.967 Y217.935 E48.30150
G1 X509.222 Y202.680 E49.15718
G1 X509.222 Y202.234 E49.17488
G1 X493.521 Y217.935 E50.05558
G1 X493.075 Y217.935 E50.07327
G1 X509.222 Y201.788 E50.97900
G1 X509.222 Y201.341 E50.99669
G1 X492.629 Y217.935 E51.92744
G1 X492.183 Y217.935 E51.94513
G1 X509.222 Y200.895 E52.90089
G1 X509.222 Y200.449 E52.91858
G1 X491.737 Y217.935 E53.89937
G1 X491.291 Y217.935 E53.91706
G1 X509.222 Y200.003 E54.92287
G1 X509.222 Y199.557 E54.94056
G1 X490.845 Y217.935 E55.97138
G1 X490.398 Y217.935 E55.98908
G1 X509.222 Y199.111 E57.04492
G1 X509.222 Y198.665 E57.06261
G1 X489.952 Y217.935 E58.14348
G1 X489.506 Y217.935 E58.16117
G1 X509.222 Y198.219 E59.26705
G1 X509.222 Y197.773 E59.28475
G1 X489.060 Y217.935 E60.41565
G1 X488.614 Y217.935 E60.43334
G1 X509.222 Y197.327 E61.58927
G1 X509.222 Y196.881 E61.60696
G1 X488.168 Y217.935 E62.78790
G1 X487.722 Y217.935 E62.80559
G1 X509.222 Y196.435 E64.01156
G1 X509.222 Y195.989 E64.02925
G1 X487.276 Y217.935 E65.26023
G1 X486.830 Y217.935 E65.27793
G1 X509.222 Y195.543 E66.53393
G1 X509.222 Y195.097 E66.55162
G1 X486.384 Y217.935 E67.83265
G1 X485.938 Y217.935 E67.85034
G1 X509.222 Y194.651 E69.15638
G1 X509.222 Y194.205 E69.17407
G1 X485.492 Y217.935 E70.50514
G1 X485.046 Y217.935 E70.52283
G1 X509.222 Y193.759 E71.87891
G1 X509.222 Y193.313 E71.89660
G1 X484.600 Y217.935 E73.27771
G1 X484.154 Y217.935 E73.29540
G1 X509.222 Y192.866 E74.70152
G1 X509.222 Y192.420 E74.71921
G1 X483.708 Y217.935 E76.15036
G1 X483.262 Y217.935 E76.16805
G1 X509.222 Y191.974 E77.62421
G1 X509.222 Y191.528 E77.64190
G1 X482.816 Y217.935 E79.12309
G1 X482.370 Y217.935 E79.14078
G1 X495.813 Y204.491 E79.89487
G1 X495.367 Y204.491 E79.91256
G1 X481.923 Y217.935 E80.66666
G1 X481.477 Y217.935 E80.68435
G1 X494.921 Y204.491 E81.43845
G1 X494.475 Y204.491 E81.45614
G1 X481.031 Y217.935 E82.21023
G1 X480.585 Y217.935 E82.22792
G1 X494.029 Y204.491 E82.98202
G1 X493.583 Y204.491 E82.99971
G1 X480.139 Y217.935 E83.75381
G1 X479.693 Y217.935 E83.77150
G1 X493.137 Y204.491 E84.52559
G1 X492.691 Y204.491 E84.54328
G1 X479.247 Y217.935 E85.29738
G1 X478.801 Y217.935 E85.31507
G1 X492.245 Y204.491 E86.06917
G1 X491.799 Y204.491 E86.08686
G1 X478.355 Y217.935 E86.84095
G1 X477.909 Y217.935 E86.85864
G1 X491.353 Y204.491 E87.61274
G1 X490.907 Y204.491 E87.63043
G1 X477.463 Y217.935 E88.38453
G1 X477.017 Y217.935 E88.40222
G1 X490.461 Y204.491 E89.15631
G1 X490.015 Y204.491 E89.17400
G1 X476.571 Y217.935 E89.92810
G1 X476.125 Y217.935 E89.94579
G1 X489.569 Y204.491 E90.69989
G1 X489.123 Y204.491 E90.71758
G1 X475.679 Y217.935 E91.47167
G1 X475.233 Y217.935 E91.48937
G1 X488.677 Y204.491 E92.24346
G1 X488.231 Y204.491 E92.26115
G1 X474.787 Y217.935 E93.01525
G1 X474.341 Y217.935 E93.03294
G1 X487.785 Y204.491 E93.78703
G1 X487.338 Y204.491 E93.80473
G1 X473.895 Y217.935 E94.55882
G1 X473.448 Y217.935 E94.57651
G1 X486.892 Y204.491 E95.33061
G1 X486.446 Y204.491 E95.34830
G1 X473.002 Y217.935 E96.10239
G1 X472.556 Y217.935 E96.12009
G1 X486.000 Y204.491 E96.87418
G1 X485.554 Y204.491 E96.89187
G1 X472.110 Y217.935 E97.64597
G1 X471.664 Y217.935 E97.66366
G1 X485.108 Y204.491 E98.41775
G1 X484.662 Y204.491 E98.43545
G1 X471.218 Y217.935 E99.18954
G1 X470.772 Y217.935 E99.20723
G1 X484.216 Y204.491 E99.96133
G1 X483.770 Y204.491 E99.97902
G1 X470.326 Y217.935 E100.73311
G1 X469.880 Y217.935 E100.75081
G1 X483.324 Y204.491 E101.50490
G1 X482.878 Y204.491 E101.52259
G1 X469.434 Y217.935 E102.27669
G1 X468.988 Y217.935 E102.29438
G1 X482.432 Y204.491 E103.04847
G1 X481.986 Y204.491 E103.06617
G1 X468.542 Y217.935 E103.82026
G1 X468.096 Y217.935 E103.83795
G1 X481.540 Y204.491 E104.59205
G1 X481.094 Y204.491 E104.60974
G1 X467.650 Y217.935 E105.36384
G1 X467.204 Y217.935 E105.38153
G1 X480.648 Y204.491 E106.13562
G1 X480.202 Y204.491 E106.15331
G1 X466.758 Y217.935 E106.90741
G1 X466.312 Y217.935 E106.92510
G1 X479.756 Y204.491 E107.67920
G1 X479.310 Y204.491 E107.69689
G1 X465.866 Y217.935 E108.45098
G1 X465.420 Y217.935 E108.46867
G1 X478.863 Y204.491 E109.22277
G1 X478.417 Y204.491 E109.24046
G1 X464.974 Y217.935 E109.99456
G1 X464.527 Y217.935 E110.01225
G1 X477.971 Y204.491 E110.76634
G1 X477.525 Y204.491 E110.78403
G1 X464.081 Y217.935 E111.53813
G1 X463.635 Y217.935 E111.55582
G1 X477.079 Y204.491 E112.30992
G1 X476.633 Y204.491 E112.32761
G1 X463.189 Y217.935 E113.08170
G1 X462.743 Y217.935 E113.09939
G1 X476.187 Y204.491 E113.85349
G1 X475.741 Y204.491 E113.87118
G1 X462.297 Y217.935 E114.62528
G1 X461.851 Y217.935 E114.64297
G1 X475.295 Y204.491 E115.39706
G1 X474.849 Y204.491 E115.41475
G1 X461.405 Y217.935 E116.16885
G1 X460.959 Y217.935 E116.18654
G1 X474.403 Y204.491 E116.94064
G1 X473.957 Y204.491 E116.95833
G1 X460.513 Y217.935 E117.71242
G1 X460.067 Y217.935 E117.73011
G1 X473.511 Y204.491 E118.48421
G1 X473.065 Y204.491 E118.50190
G1 X459.621 Y217.935 E119.25600
G1 X459.175 Y217.935 E119.27369
G1 X472.619 Y204.491 E120.02778
G1 X472.173 Y204.491 E120.04547
G1 X458.729 Y217.935 E120.79957
G1 X458.283 Y217.935 E120.81726
G1 X471.727 Y204.491 E121.57136
G1 X471.281 Y204.491 E121.58905
G1 X457.837 Y217.935 E122.34314
G1 X457.391 Y217.935 E122.36083
G1 X470.835 Y204.491 E123.11493
G1 X470.389 Y204.491 E123.13262
G1 X456.945 Y217.935 E123.88672
G1 X456.499 Y217.935 E123.90441
G1 X469.942 Y204.491 E124.65850
G1 X469.496 Y204.491 E124.67620
G1 X456.052 Y217.935 E125.43029
G1 X455.606 Y217.935 E125.44798
G1 X469.050 Y204.491 E126.20208
G1 X468.604 Y204.491 E126.21977
G1 X455.160 Y217.935 E126.97386
G1 X454.714 Y217.935 E126.99156
G1 X468.158 Y204.491 E127.74565
G1 X467.712 Y204.491 E127.76334
G1 X454.268 Y217.935 E128.51744
G1 X453.822 Y217.935 E128.53513
G1 X467.266 Y204.491 E129.28922
G1 X466.820 Y204.491 E129.30692
G1 X453.376 Y217.935 E130.06101
G1 X452.930 Y217.935 E130.07870
G1 X466.374 Y204.491 E130.83280
G1 X465.928 Y204.491 E130.85049
G1 X452.484 Y217.935 E131.60458
G1 X452.038 Y217.935 E131.62228
G1 X465.482 Y204.491 E132.37637
G1 X465.036 Y204.491 E132.39406
G1 X451.592 Y217.935 E133.14816
G1 X451.146 Y217.935 E133.16585
G1 X464.590 Y204.491 E133.91994
G1 X464.144 Y204.491 E133.93764
G1 X450.700 Y217.935 E134.69173
G1 X450.254 Y217.935 E134.70942
G1 X463.698 Y204.491 E135.46352
G1 X463.252 Y204.491 E135.48121
G1 X449.808 Y217.935 E136.23530
G1 X449.362 Y217.935 E136.25300
G1 X462.806 Y204.491 E137.00709
G1 X462.360 Y204.491 E137.02478
G1 X448.916 Y217.935 E137.77888
G1 X448.470 Y217.935 E137.79657
G1 X461.914 Y204.491 E138.55066
G1 X461.467 Y204.491 E138.56836
G1 X448.024 Y217.935 E139.32245
G1 X447.578 Y217.935 E139.34014
G1 X461.021 Y204.491 E140.09424
G1 X460.575 Y204.491 E140.11193
G1 X447.131 Y217.935 E140.86602
G1 X446.685 Y217.935 E140.88372
G1 X460.129 Y204.491 E141.63781
G1 X459.683 Y204.491 E141.65550
G1 X446.239 Y217.935 E142.40960
G1 X445.793 Y217.935 E142.42729
G1 X459.237 Y204.491 E143.18138
G1 X458.791 Y204.491 E143.19908
G1 X445.347 Y217.935 E143.95317
G1 X444.901 Y217.935 E143.97086
G1 X458.345 Y204.491 E144.72496
G1 X457.899 Y204.491 E144.74265
G1 X444.455 Y217.935 E145.49674
G1 X444.009 Y217.935 E145.51444
G1 X457.453 Y204.491 E146.26853
G1 X457.007 Y204.491 E146.28622
G1 X443.563 Y217.935 E147.04032
G1 X443.117 Y217.935 E147.05801
G1 X456.561 Y204.491 E147.81211
G1 X456.115 Y204.491 E147.82980
G1 X442.671 Y217.935 E148.58389
G1 X442.225 Y217.935 E148.60158
G1 X455.669 Y204.491 E149.35568
G1 X455.223 Y204.491 E149.37337
G1 X441.779 Y217.935 E150.12747
G1 X441.333 Y217.935 E150.14516
G1 X454.777 Y204.491 E150.89925
G1 X454.331 Y204.491 E150.91694
G1 X440.887 Y217.935 E151.67104
G1 X440.441 Y217.935 E151.68873
G1 X453.885 Y204.491 E152.44283
G1 X453.439 Y204.491 E152.46052
G1 X439.995 Y217.935 E153.21461
G1 X439.549 Y217.935 E153.23230
G1 X452.993 Y204.491 E153.98640
G1 X452.546 Y204.491 E154.00409
G1 X439.103 Y217.935 E154.75819
G1 X438.656 Y217.935 E154.77588
G1 X452.100 Y204.491 E155.52997
G1 X451.654 Y204.491 E155.54766
G1 X438.210 Y217.935 E156.30176
G1 X437.764 Y217.935 E156.31945
G1 X451.208 Y204.491 E157.07355
G1 X450.762 Y204.491 E157.09124
G1 X437.318 Y217.935 E157.84533
G1 X436.872 Y217.935 E157.86302
G1 X450.316 Y204.491 E158.61712
G1 X449.870 Y204.491 E158.63481
G1 X436.426 Y217.935 E159.38891
G1 X435.980 Y217.935 E159.40660
G1 X449.424 Y204.491 E160.16069
G1 X448.978 Y204.491 E160.17838
G1 X435.534 Y217.935 E160.93248
G1 X435.088 Y217.935 E160.95017
G1 X448.532 Y204.491 E161.70427
G1 X448.086 Y204.491 E161.72196
G1 X434.642 Y217.935 E162.47605
G1 X434.196 Y217.935 E162.49374
G1 X447.640 Y204.491 E163.24784
G1 X447.194 Y204.491 E163.26553
G1 X433.750 Y217.935 E164.01963
G1 X433.304 Y217.935 E164.03732
G1 X446.748 Y204.491 E164.79141
G1 X446.302 Y204.491 E164.80910
G1 X432.858 Y217.935 E165.56320
G1 X432.412 Y217.935 E165.58089
G1 X445.856 Y204.491 E166.33499
G1 X445.410 Y204.491 E166.35268
G1 X431.966 Y217.935 E167.10677
G1 X431.520 Y217.935 E167.12446
G1 X444.964 Y204.491 E167.87856
G1 X444.518 Y204.491 E167.89625
G1 X431.074 Y217.935 E168.65035
G1 X430.628 Y217.935 E168.66804
G1 X444.071 Y204.491 E169.42213
G1 X443.625 Y204.491 E169.43982
G1 X430.182 Y217.935 E170.19392
G1 X429.735 Y217.935 E170.21161
G1 X443.179 Y204.491 E170.96571
G1 X442.733 Y204.491 E170.98340
G1 X429.289 Y217.935 E171.73749
G1 X428.843 Y217.935 E171.75518
G1 X442.287 Y204.491 E172.50928
G1 X441.841 Y204.491 E172.52697
G1 X428.397 Y217.935 E173.28107
G1 X427.951 Y217.935 E173.29876
G1 X441.395 Y204.491 E174.05285
