; generated by Slic3r 1.3.0-dev on 2018-06-03 at 19:31:43

; external perimeters extrusion width = 0.66mm (7.15mm^3/s)
; perimeters extrusion width = 0.84mm (11.63mm^3/s)
; infill extrusion width = 0.75mm (10.28mm^3/s)
; solid infill extrusion width = 0.84mm (11.63mm^3/s)
; top infill extrusion width = 0.84mm (11.63mm^3/s)

M107
G28 ; home all axes
G32; probe home individual Z axis
G29 S1; load bed mesh
M109 S205 ; set temperature and wait for it to be reached
M117 Purge extruder
G92 E0 ; reset extruder
G1 X400
G1 Z1.0 F3000.0 ; move z up little to prevent scratching of surface
G1 X400 Y20 Z0.3 F5000.0 ; move to start-line position
G1 X400 Y200.0 Z0.3 F1500.0 E15 ; draw 1st line
G1 X400.5 Y200.0 Z0.3 F5000.0 ; move to side a little
G1 X400.5 Y20 Z0.3 F1500.0 E30 ; draw 2nd line
; G1 E27 F3000 ; retract filament 3mm
G92 E0 ; reset extruder
; done purging extruder
G1 Z1.0 F3000 ; move z up little to prevent scratching of surface
G1 Z10
G1 X200
M117 Printing!

; Filament gcode

G21 ; set units to millimeters
G90 ; use absolute coordinates
M82 ; use absolute distances for extrusion
G92 E0
M584 U3 Z2 V4; Actuate motors independently
G92 U10.000 V10.000 Z10.000
G1 U0.320 V0.320 Z0.320 F6000.000
G1 E-2.00000 F2400.00000
G92 E0
G1 X579.796 Y118.410 F6000.000
G1 E2.00000 F2400.00000
G1 F1680
G1 X579.976 Y117.542 E2.03516
G1 X580.127 Y117.002 E2.05740
G1 X580.500 Y115.982 E2.10045
G1 X580.972 Y115.001 E2.14364
G1 X581.530 Y114.069 E2.18671
G1 X582.078 Y113.304 E2.22400
G1 X582.759 Y112.487 E2.26619
G1 X583.613 Y111.613 E2.31465
G1 X584.545 Y110.797 E2.36375
G1 X585.509 Y110.074 E2.41155
G1 X585.719 Y109.925 E2.42177
G1 X586.916 Y109.180 E2.47765
G1 X588.175 Y108.512 E2.53418
G1 X589.404 Y107.956 E2.58766
G1 X590.984 Y107.358 E2.65467
G1 X592.558 Y106.878 E2.71992
G1 X594.077 Y106.511 E2.78187
G1 X594.985 Y106.343 E2.81847
G1 X595.821 Y106.197 E2.85214
G1 X597.413 Y106.004 E2.91572
G1 X599.130 Y105.892 E2.98397
G1 X599.895 Y105.872 E3.01430
G1 X616.269 Y105.834 E3.66360
G1 X616.802 Y105.862 E3.68474
G1 X617.402 Y105.941 E3.70874
G1 X617.999 Y106.068 E3.73294
G1 X618.586 Y106.239 E3.75719
G1 X619.263 Y106.495 E3.78589
G1 X619.810 Y106.751 E3.80982
G1 X620.232 Y106.987 E3.82902
G1 X621.878 Y108.032 E3.90635
G1 X622.820 Y108.683 E3.95174
G1 X623.904 Y109.481 E4.00512
G1 X625.527 Y110.831 E4.08881
G1 X626.759 Y111.956 E4.15499
G1 X627.287 Y112.493 E4.18482
G1 X627.870 Y113.144 E4.21947
G1 X628.589 Y114.026 E4.26459
G1 X628.854 Y114.396 E4.28265
G1 X629.636 Y115.591 E4.33929
G1 X630.409 Y117.029 E4.40405
G1 X631.033 Y118.617 E4.47167
G1 X631.322 Y119.796 E4.51982
G1 X631.450 Y120.462 E4.54673
G1 X631.558 Y121.858 E4.60224
G1 X631.558 Y122.110 E4.61222
G1 X631.457 Y123.505 E4.66767
G1 X631.338 Y124.143 E4.69340
G1 X631.105 Y125.155 E4.73461
G1 X630.942 Y125.649 E4.75523
G1 X630.431 Y126.941 E4.81030
G1 X629.664 Y128.378 E4.87492
G1 X628.881 Y129.582 E4.93187
G1 X628.556 Y130.032 E4.95388
G1 X627.848 Y130.898 E4.99823
G1 X627.271 Y131.540 E5.03244
G1 X626.732 Y132.085 E5.06284
G1 X625.713 Y133.025 E5.11784
G1 X623.963 Y134.489 E5.20829
G1 X622.902 Y135.278 E5.26074
G1 X621.995 Y135.908 E5.30451
G1 X620.278 Y137.001 E5.38521
G1 X619.809 Y137.265 E5.40655
G1 X619.233 Y137.534 E5.43176
G1 X618.722 Y137.731 E5.45348
G1 X618.088 Y137.926 E5.47977
G1 X617.649 Y138.028 E5.49768
G1 X617.103 Y138.121 E5.51962
G1 X616.613 Y138.168 E5.53916
G1 X616.240 Y138.181 E5.55393
G1 X615.655 Y138.151 E5.57716
G1 X615.162 Y138.071 E5.59699
G1 X594.006 Y133.483 E6.45537
G1 X592.379 Y133.081 E6.52183
G1 X590.756 Y132.571 E6.58931
G1 X589.199 Y131.965 E6.65555
G1 X587.600 Y131.204 E6.72576
G1 X586.338 Y130.483 E6.78342
G1 X585.244 Y129.749 E6.83562
G1 X584.037 Y128.781 E6.89700
G1 X583.152 Y127.940 E6.94542
G1 X582.629 Y127.374 E6.97598
G1 X581.961 Y126.551 E7.01800
G1 X581.295 Y125.569 E7.06503
G1 X580.655 Y124.375 E7.11874
G1 X580.219 Y123.289 E7.16517
G1 X579.922 Y122.244 E7.20823
G1 X579.762 Y121.364 E7.24370
G1 X579.681 Y120.513 E7.27759
G1 X579.683 Y119.461 E7.31932
G1 X579.783 Y118.499 E7.35766
G1 X580.105 Y118.473 F6000.000
G1 F1680
G1 X580.284 Y117.606 E7.39278
G1 X580.424 Y117.107 E7.41333
G1 X580.785 Y116.116 E7.45515
G1 X581.244 Y115.161 E7.49717
G1 X581.788 Y114.250 E7.53922
G1 X582.320 Y113.506 E7.57552
G1 X583.000 Y112.690 E7.61762
G1 X583.836 Y111.836 E7.66503
G1 X584.750 Y111.037 E7.71316
G1 X585.696 Y110.328 E7.76001
G1 X585.888 Y110.191 E7.76939
G1 X587.066 Y109.458 E7.82439
G1 X588.307 Y108.799 E7.88010
G1 X589.533 Y108.243 E7.93350
G1 X591.078 Y107.659 E7.99899
G1 X592.633 Y107.184 E8.06347
G1 X594.150 Y106.818 E8.12535
G1 X595.041 Y106.654 E8.16127
G1 X595.860 Y106.510 E8.19422
G1 X597.450 Y106.317 E8.25775
G1 X599.150 Y106.206 E8.32528
G1 X599.896 Y106.187 E8.35487
G1 X616.270 Y106.150 E9.00418
G1 X616.784 Y106.176 E9.02457
G1 X617.357 Y106.253 E9.04752
G1 X617.931 Y106.376 E9.07076
G1 X618.495 Y106.541 E9.09410
G1 X619.132 Y106.782 E9.12109
G1 X619.656 Y107.026 E9.14402
G1 X620.071 Y107.258 E9.16287
G1 X621.708 Y108.297 E9.23976
G1 X622.633 Y108.937 E9.28436
G1 X623.717 Y109.735 E9.33774
G1 X625.322 Y111.071 E9.42051
G1 X626.535 Y112.178 E9.48565
G1 X627.052 Y112.703 E9.51489
G1 X627.626 Y113.343 E9.54897
G1 X628.333 Y114.210 E9.59332
G1 X628.591 Y114.569 E9.61086
G1 X629.360 Y115.743 E9.66652
G1 X630.128 Y117.172 E9.73084
G1 X630.736 Y118.724 E9.79691
G1 X631.015 Y119.868 E9.84362
G1 X631.135 Y120.487 E9.86864
G1 X631.243 Y121.881 E9.92407
G1 X631.244 Y122.088 E9.93228
G1 X631.142 Y123.481 E9.98766
G1 X631.029 Y124.077 E10.01172
G1 X630.798 Y125.085 E10.05270
G1 X630.645 Y125.543 E10.07188
G1 X630.149 Y126.799 E10.12539
G1 X629.387 Y128.227 E10.18959
G1 X628.617 Y129.410 E10.24555
G1 X628.312 Y129.833 E10.26626
G1 X627.613 Y130.688 E10.31004
G1 X627.046 Y131.319 E10.34366
G1 X626.518 Y131.854 E10.37345
G1 X625.507 Y132.786 E10.42802
G1 X623.775 Y134.236 E10.51757
G1 X622.713 Y135.025 E10.57003
G1 X621.815 Y135.649 E10.61338
G1 X620.109 Y136.734 E10.69358
G1 X619.656 Y136.990 E10.71420
G1 X619.108 Y137.245 E10.73818
G1 X618.563 Y137.453 E10.76131
G1 X618.004 Y137.622 E10.78444
G1 X617.586 Y137.719 E10.80147
G1 X617.064 Y137.808 E10.82247
G1 X616.590 Y137.854 E10.84137
G1 X616.246 Y137.866 E10.85499
G1 X615.696 Y137.839 E10.87685
G1 X615.228 Y137.763 E10.89562
G1 X594.032 Y133.165 E11.75567
G1 X592.365 Y132.749 E11.82381
G1 X590.759 Y132.238 E11.89065
G1 X589.219 Y131.630 E11.95628
G1 X587.756 Y130.930 E12.02061
G1 X586.513 Y130.220 E12.07735
G1 X585.422 Y129.488 E12.12947
G1 X584.254 Y128.552 E12.18880
G1 X583.369 Y127.711 E12.23722
G1 X582.874 Y127.175 E12.26616
G1 X582.206 Y126.352 E12.30817
G1 X581.557 Y125.393 E12.35407
G1 X580.947 Y124.255 E12.40528
G1 X580.521 Y123.200 E12.45041
G1 X580.233 Y122.187 E12.49216
G1 X580.072 Y121.307 E12.52763
G1 X579.997 Y120.511 E12.55936
G1 X579.997 Y119.491 E12.59978
G1 X580.092 Y118.562 E12.63682
G1 X580.414 Y118.537 F6000.000
G1 F1680
G1 X580.593 Y117.670 E12.67190
G1 X580.721 Y117.212 E12.69075
G1 X581.071 Y116.250 E12.73135
G1 X581.515 Y115.320 E12.77220
G1 X582.046 Y114.432 E12.81324
G1 X582.563 Y113.707 E12.84854
G1 X583.241 Y112.893 E12.89055
G1 X584.060 Y112.058 E12.93691
G1 X584.955 Y111.276 E12.98406
G1 X585.882 Y110.583 E13.02997
G1 X587.216 Y109.735 E13.09262
G1 X588.438 Y109.086 E13.14751
G1 X589.663 Y108.531 E13.20083
G1 X591.172 Y107.960 E13.26479
G1 X592.708 Y107.491 E13.32849
G1 X594.224 Y107.125 E13.39032
G1 X595.098 Y106.964 E13.42556
G1 X595.898 Y106.823 E13.45779
G1 X597.487 Y106.631 E13.52126
G1 X599.169 Y106.521 E13.58809
G1 X599.896 Y106.503 E13.61694
G1 X616.271 Y106.465 E14.26624
G1 X616.766 Y106.491 E14.28589
G1 X617.313 Y106.565 E14.30778
G1 X617.862 Y106.683 E14.33007
G1 X618.405 Y106.843 E14.35250
G1 X619.001 Y107.068 E14.37776
G1 X619.503 Y107.302 E14.39970
G1 X619.910 Y107.529 E14.41822
G1 X621.538 Y108.563 E14.49467
G1 X622.446 Y109.191 E14.53847
G1 X623.567 Y110.017 E14.59367
G1 X625.116 Y111.310 E14.67369
G1 X626.311 Y112.400 E14.73780
G1 X626.818 Y112.914 E14.76645
G1 X627.382 Y113.543 E14.79996
G1 X628.077 Y114.395 E14.84354
G1 X628.328 Y114.743 E14.86056
G1 X629.084 Y115.896 E14.91523
G1 X629.847 Y117.315 E14.97912
G1 X630.439 Y118.830 E15.04363
G1 X630.708 Y119.940 E15.08892
G1 X630.821 Y120.512 E15.11204
G1 X630.929 Y121.904 E15.16739
G1 X630.828 Y123.458 E15.22912
G1 X630.721 Y124.012 E15.25151
G1 X630.490 Y125.014 E15.29227
G1 X630.348 Y125.438 E15.31001
G1 X629.868 Y126.657 E15.36196
G1 X629.110 Y128.076 E15.42573
G1 X628.353 Y129.237 E15.48069
G1 X628.067 Y129.634 E15.50011
G1 X627.378 Y130.478 E15.54332
G1 X626.822 Y131.098 E15.57635
G1 X626.304 Y131.622 E15.60554
G1 X625.301 Y132.547 E15.65967
G1 X623.587 Y133.983 E15.74833
G1 X622.525 Y134.772 E15.80079
G1 X621.636 Y135.390 E15.84372
G1 X619.883 Y136.502 E15.92604
G1 X619.451 Y136.741 E15.94564
G1 X618.982 Y136.956 E15.96608
G1 X618.458 Y137.156 E15.98832
G1 X617.872 Y137.330 E16.01257
G1 X617.326 Y137.449 E16.03470
G1 X616.784 Y137.524 E16.05641
G1 X616.252 Y137.551 E16.07752
G1 X615.736 Y137.526 E16.09802
G1 X615.295 Y137.455 E16.11572
G1 X594.108 Y132.859 E16.97541
G1 X592.460 Y132.449 E17.04274
G1 X590.874 Y131.944 E17.10875
G1 X589.354 Y131.346 E17.17350
G1 X587.911 Y130.655 E17.23693
G1 X586.759 Y130.002 E17.28945
G1 X585.921 Y129.446 E17.32933
G1 X585.526 Y129.173 E17.34838
G1 X584.471 Y128.324 E17.40208
G1 X583.586 Y127.483 E17.45049
G1 X583.118 Y126.977 E17.47781
G1 X582.451 Y126.153 E17.51983
G1 X581.819 Y125.218 E17.56459
G1 X581.239 Y124.136 E17.61330
G1 X580.824 Y123.111 E17.65712
G1 X580.543 Y122.131 E17.69757
G1 X580.382 Y121.251 E17.73304
G1 X580.312 Y120.508 E17.76261
G1 X580.311 Y119.522 E17.80171
G1 X580.401 Y118.625 E17.83745
G1 X580.723 Y118.600 F6000.000
G1 F1680
G1 X580.902 Y117.734 E17.87250
G1 X581.019 Y117.317 E17.88966
G1 X581.356 Y116.384 E17.92902
G1 X581.787 Y115.480 E17.96871
G1 X582.270 Y114.665 E18.00627
G1 X582.806 Y113.909 E18.04303
G1 X583.483 Y113.096 E18.08496
G1 X584.283 Y112.281 E18.13027
G1 X585.161 Y111.516 E18.17644
G1 X586.069 Y110.837 E18.22140
G1 X587.366 Y110.012 E18.28234
G1 X588.570 Y109.372 E18.33641
G1 X589.793 Y108.818 E18.38965
G1 X591.265 Y108.262 E18.45208
G1 X592.783 Y107.797 E18.51501
G1 X594.297 Y107.431 E18.57677
G1 X595.154 Y107.274 E18.61133
G1 X595.937 Y107.136 E18.64284
G1 X597.524 Y106.944 E18.70626
G1 X599.188 Y106.836 E18.77238
G1 X599.897 Y106.818 E18.80049
G1 X616.272 Y106.780 E19.44979
G1 X616.748 Y106.806 E19.46870
G1 X617.268 Y106.877 E19.48954
G1 X617.794 Y106.991 E19.51087
G1 X618.315 Y107.145 E19.53239
G1 X618.870 Y107.355 E19.55593
G1 X619.349 Y107.577 E19.57687
G1 X619.749 Y107.800 E19.59505
G1 X621.392 Y108.844 E19.67221
G1 X622.259 Y109.445 E19.71406
G1 X623.370 Y110.263 E19.76876
G1 X624.911 Y111.550 E19.84837
G1 X626.087 Y112.621 E19.91144
G1 X626.583 Y113.125 E19.93950
G1 X627.138 Y113.743 E19.97244
G1 X627.822 Y114.579 E20.01525
G1 X628.064 Y114.917 E20.03174
G1 X628.808 Y116.048 E20.08543
G1 X629.566 Y117.458 E20.14889
G1 X630.143 Y118.937 E20.21185
G1 X630.401 Y120.012 E20.25570
G1 X630.507 Y120.537 E20.27693
G1 X630.614 Y121.927 E20.33220
G1 X630.513 Y123.434 E20.39209
G1 X630.183 Y124.943 E20.45334
G1 X630.042 Y125.355 E20.47060
G1 X629.586 Y126.515 E20.52002
G1 X628.834 Y127.924 E20.58338
G1 X628.090 Y129.064 E20.63734
G1 X627.823 Y129.435 E20.65547
G1 X627.143 Y130.268 E20.69810
G1 X626.624 Y130.848 E20.72898
G1 X626.091 Y131.390 E20.75913
G1 X625.095 Y132.308 E20.81282
G1 X623.398 Y133.730 E20.90060
G1 X622.337 Y134.519 E20.95305
G1 X621.456 Y135.131 E20.99557
G1 X619.730 Y136.227 E21.07666
G1 X619.311 Y136.459 E21.09562
G1 X618.856 Y136.667 E21.11548
G1 X618.353 Y136.859 E21.13683
G1 X617.801 Y137.023 E21.15967
G1 X617.316 Y137.130 E21.17937
G1 X616.761 Y137.209 E21.20160
G1 X616.258 Y137.236 E21.22156
G1 X615.776 Y137.213 E21.24068
G1 X615.362 Y137.146 E21.25732
G1 X594.183 Y132.553 E22.11665
G1 X592.555 Y132.148 E22.18318
G1 X590.989 Y131.650 E22.24835
G1 X589.490 Y131.061 E22.31221
G1 X588.067 Y130.381 E22.37475
G1 X586.915 Y129.728 E22.42727
G1 X586.098 Y129.185 E22.46615
G1 X585.723 Y128.927 E22.48422
G1 X584.688 Y128.095 E22.53686
G1 X583.803 Y127.254 E22.58527
G1 X583.363 Y126.778 E22.61096
G1 X582.696 Y125.955 E22.65298
G1 X582.082 Y125.043 E22.69660
G1 X581.530 Y124.016 E22.74282
G1 X581.127 Y123.022 E22.78534
G1 X580.853 Y122.074 E22.82447
G1 X580.692 Y121.194 E22.85994
G1 X580.627 Y120.506 E22.88735
G1 X580.625 Y119.553 E22.92515
G1 X580.710 Y118.689 E22.95958
G1 X581.032 Y118.663 F6000.000
G1 F1680
G1 X581.211 Y117.798 E22.99459
G1 X581.316 Y117.423 E23.01006
G1 X581.642 Y116.518 E23.04819
G1 X582.059 Y115.640 E23.08671
G1 X582.541 Y114.827 E23.12419
G1 X583.048 Y114.110 E23.15903
G1 X583.724 Y113.300 E23.20087
G1 X584.506 Y112.504 E23.24512
G1 X585.366 Y111.755 E23.29032
G1 X586.255 Y111.091 E23.33434
G1 X587.516 Y110.290 E23.39356
G1 X588.701 Y109.659 E23.44681
G1 X589.922 Y109.106 E23.49997
G1 X591.359 Y108.563 E23.56087
G1 X592.858 Y108.103 E23.62303
G1 X594.370 Y107.738 E23.68473
G1 X595.211 Y107.584 E23.71861
G1 X595.975 Y107.449 E23.74940
G1 X597.562 Y107.257 E23.81277
G1 X599.208 Y107.150 E23.87818
G1 X599.898 Y107.133 E23.90554
G1 X616.272 Y107.095 E24.55485
G1 X616.730 Y107.121 E24.57301
G1 X617.224 Y107.189 E24.59279
G1 X617.726 Y107.299 E24.61317
G1 X618.224 Y107.447 E24.63378
G1 X618.739 Y107.642 E24.65560
G1 X619.159 Y107.834 E24.67391
G1 X619.588 Y108.072 E24.69338
G1 X621.212 Y109.104 E24.76967
G1 X622.072 Y109.699 E24.81116
G1 X623.173 Y110.509 E24.86535
G1 X624.706 Y111.789 E24.94454
G1 X625.862 Y112.843 E25.00658
G1 X626.349 Y113.336 E25.03405
G1 X626.894 Y113.943 E25.06641
G1 X627.566 Y114.764 E25.10845
G1 X627.801 Y115.091 E25.12443
G1 X628.532 Y116.201 E25.17713
G1 X629.285 Y117.601 E25.24016
G1 X629.846 Y119.044 E25.30156
G1 X630.192 Y120.562 E25.36332
G1 X630.300 Y121.950 E25.41851
G1 X630.199 Y123.411 E25.47656
G1 X629.876 Y124.872 E25.53592
G1 X629.748 Y125.240 E25.55137
G1 X629.305 Y126.373 E25.59960
G1 X628.557 Y127.773 E25.66253
G1 X627.826 Y128.891 E25.71549
G1 X627.578 Y129.236 E25.73233
G1 X626.908 Y130.057 E25.77439
G1 X626.389 Y130.638 E25.80527
G1 X625.877 Y131.159 E25.83422
G1 X624.890 Y132.069 E25.88748
G1 X623.210 Y133.477 E25.97437
G1 X622.149 Y134.266 E26.02682
G1 X621.276 Y134.871 E26.06892
G1 X619.576 Y135.951 E26.14879
G1 X619.172 Y136.176 E26.16711
G1 X618.730 Y136.378 E26.18638
G1 X618.248 Y136.561 E26.20684
G1 X617.730 Y136.716 E26.22827
G1 X617.253 Y136.821 E26.24764
G1 X616.738 Y136.895 E26.26829
G1 X616.264 Y136.920 E26.28710
G1 X615.817 Y136.901 E26.30485
G1 X615.429 Y136.838 E26.32042
G1 X594.259 Y132.247 E27.17939
G1 X592.650 Y131.848 E27.24513
G1 X591.104 Y131.357 E27.30946
G1 X589.625 Y130.776 E27.37244
G1 X588.222 Y130.107 E27.43408
G1 X587.070 Y129.453 E27.48660
G1 X586.275 Y128.924 E27.52448
G1 X585.920 Y128.681 E27.54156
G1 X584.905 Y127.866 E27.59314
G1 X584.020 Y127.025 E27.64156
G1 X583.608 Y126.580 E27.66562
G1 X582.941 Y125.756 E27.70764
G1 X582.344 Y124.867 E27.75012
G1 X581.822 Y123.896 E27.79385
G1 X581.429 Y122.934 E27.83506
G1 X581.163 Y122.017 E27.87289
G1 X581.002 Y121.137 E27.90836
G1 X580.943 Y120.504 E27.93360
G1 X580.936 Y119.637 E27.96795
G1 X581.021 Y118.752 E28.00322
G1 E26.00322 F2400.00000
G92 E0
G1 X617.963 Y121.053 F6000.000
G1 E2.00000 F2400.00000
G1 F2100
G1 X617.780 Y121.836 E2.03188
G1 X617.540 Y122.512 E2.06032
G1 X617.216 Y123.200 E2.09047
G1 X617.014 Y123.559 E2.10680
G1 X616.535 Y124.279 E2.14110
G1 X615.984 Y124.965 E2.17601
G1 X615.352 Y125.632 E2.21243
G1 X614.699 Y126.229 E2.24754
G1 X613.821 Y126.921 E2.29185
G1 X612.870 Y127.566 E2.33739
G1 X611.850 Y128.161 E2.38422
G1 X610.474 Y128.840 E2.44506
G1 X609.178 Y129.369 E2.50058
G1 X607.828 Y129.823 E2.55706
G1 X606.430 Y130.200 E2.61449
G1 X604.979 Y130.500 E2.67324
G1 X604.013 Y130.653 E2.71203
G1 X602.401 Y130.826 E2.77632
G1 X600.784 Y130.904 E2.84052
G1 X599.158 Y130.885 E2.90497
G1 X597.529 Y130.770 E2.96973
G1 X595.896 Y130.554 E3.03504
G1 X594.693 Y130.326 E3.08362
G1 X593.200 Y129.957 E3.14460
G1 X591.777 Y129.506 E3.20379
