; generated by Slic3r 1.3.0-dev on 2018-05-28 at 12:36:54

; external perimeters extrusion width = 0.66mm (7.15mm^3/s)
; perimeters extrusion width = 0.84mm (11.63mm^3/s)
; infill extrusion width = 0.75mm (10.28mm^3/s)
; solid infill extrusion width = 0.84mm (11.63mm^3/s)
; top infill extrusion width = 0.84mm (11.63mm^3/s)

M107
M104 S205 ; set temperature
G28 ; home all axes
G32; probe home individual Z axis
G29 S1; load bed mesh

; Filament gcode

M109 S205 ; set temperature and wait for it to be reached
G21 ; set units to millimeters
G90 ; use absolute coordinates
M82 ; use absolute distances for extrusion
G92 E0
M584 U3 Z2 V4; Actuate motors independently
G92 U10.000 V10.000 Z10.000
G1 U0.320 V0.320 Z0.320 F6000.000
G1 E-2.00000 F2400.00000
G92 E0
G1 X581.369 Y24.003 F6000.000
G1 E2.00000 F2400.00000
G1 F1680
G1 X581.767 Y21.414 E2.10389
G1 X582.923 Y19.063 E2.20778
G1 X584.732 Y17.167 E2.31168
G1 X587.026 Y15.901 E2.41557
G1 X590.000 Y15.373 E2.53534
G1 X610.000 Y15.373 E3.32841
G1 X612.590 Y15.770 E3.43230
G1 X614.941 Y16.927 E3.53619
G1 X616.836 Y18.735 E3.64008
G1 X618.102 Y21.029 E3.74397
G1 X618.631 Y24.003 E3.86375
G1 X618.631 Y49.922 E4.89150
G1 X618.233 Y52.512 E4.99539
G1 X617.077 Y54.863 E5.09929
G1 X615.268 Y56.758 E5.20318
G1 X612.974 Y58.024 E5.30707
G1 X610.000 Y58.553 E5.42685
G1 X590.000 Y58.553 E6.21991
G1 X587.410 Y58.155 E6.32380
G1 X585.059 Y56.999 E6.42769
G1 X583.164 Y55.190 E6.53158
G1 X581.898 Y52.896 E6.63548
G1 X581.369 Y49.922 E6.75525
G1 X581.369 Y24.093 E7.77944
G1 X581.685 Y24.003 F6000.000
G1 F1680
G1 X582.082 Y21.463 E7.88140
G1 X583.237 Y19.165 E7.98337
G1 X585.039 Y17.330 E8.08533
G1 X587.314 Y16.134 E8.18730
G1 X590.000 Y15.688 E8.29524
G1 X610.000 Y15.688 E9.08830
G1 X612.540 Y16.086 E9.19027
G1 X614.838 Y17.240 E9.29223
G1 X616.673 Y19.042 E9.39420
G1 X617.870 Y21.318 E9.49616
G1 X618.315 Y24.003 E9.60411
G1 X618.315 Y49.922 E10.63186
G1 X617.918 Y52.463 E10.73383
G1 X616.763 Y54.760 E10.83579
G1 X614.961 Y56.595 E10.93776
G1 X612.685 Y57.792 E11.03972
G1 X610.000 Y58.237 E11.14767
G1 X590.000 Y58.237 E11.94073
G1 X587.459 Y57.840 E12.04269
G1 X585.162 Y56.685 E12.14466
G1 X583.327 Y54.884 E12.24662
G1 X582.130 Y52.608 E12.34859
G1 X581.685 Y49.922 E12.45653
G1 X581.685 Y24.093 E13.48072
G1 E11.48072 F2400.00000
G92 E0
G1 X608.547 Y42.550 F6000.000
G1 E2.00000 F2400.00000
G1 F2100
G1 X591.453 Y42.550 E2.67781
G1 X591.453 Y25.457 E3.35561
G1 X608.547 Y25.457 E4.03342
G1 X608.547 Y42.460 E4.70765
G1 X608.862 Y42.865 F6000.000
G1 F2100
G1 X591.138 Y42.865 E5.41046
G1 X591.138 Y25.141 E6.11328
G1 X608.862 Y25.141 E6.81609
G1 X608.862 Y42.775 E7.51533
G1 X609.177 Y43.181 F6000.000
G1 F2100
G1 X590.823 Y43.181 E8.24315
G1 X590.823 Y24.826 E8.97097
G1 X609.177 Y24.826 E9.69879
G1 X609.177 Y43.091 E10.42304
G1 X609.493 Y43.496 F6000.000
G1 F2100
G1 X590.507 Y43.496 E11.17587
G1 X590.507 Y24.511 E11.92870
G1 X609.493 Y24.511 E12.68153
G1 X609.493 Y43.406 E13.43078
G1 X609.808 Y43.811 F6000.000
G1 F1680
G1 X590.192 Y43.811 E14.20862
G1 X590.192 Y24.195 E14.98645
G1 X609.808 Y24.195 E15.76429
G1 X609.808 Y43.721 E16.53855
G1 X609.228 Y43.656 F6000.000
G1 E14.53855 F2400.00000
G92 E0
G1 X608.187 Y42.279 F6000.000
G1 E2.00000 F2400.00000
G1 F2100
G1 X608.276 Y42.190 E2.00507
G1 X608.276 Y41.739 E2.02316
G1 X607.736 Y42.279 E2.05380
G1 X607.285 Y42.279 E2.07189
G1 X608.276 Y41.288 E2.12812
G1 X608.276 Y40.837 E2.14621
G1 X606.834 Y42.279 E2.22802
G1 X606.383 Y42.279 E2.24611
G1 X608.276 Y40.386 E2.35350
G1 X608.276 Y39.935 E2.37159
G1 X605.931 Y42.279 E2.50457
G1 X605.480 Y42.279 E2.52266
G1 X608.276 Y39.484 E2.68121
G1 X608.276 Y39.033 E2.69930
G1 X605.029 Y42.279 E2.88344
G1 X604.578 Y42.279 E2.90153
G1 X608.276 Y38.582 E3.11125
G1 X608.276 Y38.131 E3.12934
G1 X604.127 Y42.279 E3.36464
G1 X603.676 Y42.279 E3.38273
G1 X608.276 Y37.680 E3.64361
G1 X608.276 Y37.229 E3.66170
G1 X603.225 Y42.279 E3.94816
G1 X602.774 Y42.279 E3.96625
G1 X608.276 Y36.778 E4.27830
G1 X608.276 Y36.327 E4.29639
G1 X602.323 Y42.279 E4.63401
G1 X601.872 Y42.279 E4.65210
G1 X608.276 Y35.876 E5.01531
G1 X608.276 Y35.425 E5.03340
G1 X601.421 Y42.279 E5.42219
G1 X600.970 Y42.279 E5.44028
G1 X608.276 Y34.974 E5.85465
G1 X608.276 Y34.523 E5.87274
G1 X600.519 Y42.279 E6.31269
G1 X600.068 Y42.279 E6.33078
G1 X608.276 Y34.072 E6.79632
G1 X608.276 Y33.621 E6.81441
G1 X599.617 Y42.279 E7.30552
G1 X599.166 Y42.279 E7.32361
G1 X608.276 Y33.169 E7.84031
G1 X608.276 Y32.718 E7.85840
G1 X598.715 Y42.279 E8.40068
G1 X598.264 Y42.279 E8.41877
G1 X608.276 Y32.267 E8.98663
G1 X608.276 Y31.816 E9.00472
G1 X597.813 Y42.279 E9.59816
G1 X597.362 Y42.279 E9.61625
G1 X608.276 Y31.365 E10.23528
G1 X608.276 Y30.914 E10.25336
G1 X596.911 Y42.279 E10.89797
G1 X596.460 Y42.279 E10.91606
G1 X608.276 Y30.463 E11.58625
G1 X608.276 Y30.012 E11.60434
G1 X596.009 Y42.279 E12.30011
G1 X595.558 Y42.279 E12.31820
G1 X608.276 Y29.561 E13.03955
G1 X608.276 Y29.110 E13.05764
G1 X595.107 Y42.279 E13.80457
G1 X594.656 Y42.279 E13.82266
G1 X608.276 Y28.659 E14.59517
G1 X608.276 Y28.208 E14.61326
G1 X594.205 Y42.279 E15.41136
G1 X593.754 Y42.279 E15.42945
G1 X608.276 Y27.757 E16.25312
G1 X608.276 Y27.306 E16.27121
G1 X593.303 Y42.279 E17.12047
G1 X592.852 Y42.279 E17.13856
G1 X608.276 Y26.855 E18.01340
G1 X608.276 Y26.404 E18.03149
G1 X592.401 Y42.279 E18.93191
G1 X591.950 Y42.279 E18.95000
G1 X608.276 Y25.953 E19.87601
G1 X608.276 Y25.727 E19.88505
G1 X608.050 Y25.727 E19.89409
G1 X591.724 Y42.054 E20.82010
G1 X591.724 Y41.603 E20.83819
G1 X607.599 Y25.727 E21.73861
G1 X607.148 Y25.727 E21.75670
G1 X591.724 Y41.152 E22.63154
G1 X591.724 Y40.701 E22.64963
G1 X606.697 Y25.727 E23.49889
G1 X606.246 Y25.727 E23.51698
G1 X591.724 Y40.250 E24.34066
G1 X591.724 Y39.799 E24.35874
G1 X605.795 Y25.727 E25.15684
G1 X605.344 Y25.727 E25.17493
G1 X591.724 Y39.348 E25.94744
G1 X591.724 Y38.897 E25.96553
G1 X604.893 Y25.727 E26.71247
G1 X604.442 Y25.727 E26.73056
G1 X591.724 Y38.446 E27.45191
G1 X591.724 Y37.995 E27.47000
G1 X603.991 Y25.727 E28.16577
G1 X603.540 Y25.727 E28.18386
G1 X591.724 Y37.544 E28.85404
G1 X591.724 Y37.093 E28.87213
G1 X603.089 Y25.727 E29.51674
G1 X602.638 Y25.727 E29.53483
G1 X591.724 Y36.642 E30.15385
G1 X591.724 Y36.191 E30.17194
G1 X602.187 Y25.727 E30.76539
G1 X601.736 Y25.727 E30.78348
G1 X591.724 Y35.739 E31.35134
G1 X591.724 Y35.288 E31.36943
G1 X601.285 Y25.727 E31.91171
G1 X600.834 Y25.727 E31.92980
G1 X591.724 Y34.837 E32.44649
G1 X591.724 Y34.386 E32.46458
G1 X600.383 Y25.727 E32.95570
G1 X599.932 Y25.727 E32.97379
G1 X591.724 Y33.935 E33.43933
G1 X591.724 Y33.484 E33.45741
G1 X599.481 Y25.727 E33.89737
G1 X599.030 Y25.727 E33.91546
G1 X591.724 Y33.033 E34.32983
G1 X591.724 Y32.582 E34.34792
G1 X598.579 Y25.727 E34.73671
G1 X598.128 Y25.727 E34.75480
G1 X591.724 Y32.131 E35.11801
G1 X591.724 Y31.680 E35.13610
G1 X597.677 Y25.727 E35.47372
G1 X597.226 Y25.727 E35.49181
G1 X591.724 Y31.229 E35.80386
G1 X591.724 Y30.778 E35.82195
G1 X596.775 Y25.727 E36.10841
G1 X596.324 Y25.727 E36.12650
G1 X591.724 Y30.327 E36.38738
G1 X591.724 Y29.876 E36.40547
G1 X595.873 Y25.727 E36.64077
G1 X595.422 Y25.727 E36.65886
G1 X591.724 Y29.425 E36.86858
G1 X591.724 Y28.974 E36.88667
G1 X594.971 Y25.727 E37.07081
G1 X594.520 Y25.727 E37.08890
G1 X591.724 Y28.523 E37.24746
G1 X591.724 Y28.072 E37.26554
G1 X594.068 Y25.727 E37.39852
G1 X593.617 Y25.727 E37.41661
G1 X591.724 Y27.621 E37.52400
G1 X591.724 Y27.170 E37.54209
G1 X593.166 Y25.727 E37.62390
G1 X592.715 Y25.727 E37.64199
G1 X591.724 Y26.719 E37.69822
G1 X591.724 Y26.268 E37.71631
G1 X592.264 Y25.727 E37.74696
G1 X591.813 Y25.727 E37.76505
G1 X591.724 Y25.817 E37.77011
G1 U0.620 V0.620 Z0.620 F6000.000
G1 X606.658 Y40.661 F6000.000
G1 F3000
G1 X593.342 Y40.661 E38.98763
G1 X593.342 Y27.346 E40.20516
G1 X606.658 Y27.346 E41.42268
G1 X606.658 Y40.571 E42.63198
G1 X607.433 Y41.437 F6000.000
G1 F3000
G1 X592.567 Y41.437 E43.99135
G1 X592.567 Y26.570 E45.35072
G1 X607.433 Y26.570 E46.71009
G1 X607.433 Y41.347 E48.06123
G1 X608.209 Y42.212 F6000.000
G1 F3000
G1 X591.791 Y42.212 E49.56244
G1 X591.791 Y25.795 E51.06366
G1 X608.209 Y25.795 E52.56487
G1 X608.209 Y42.122 E54.05785
G1 X608.984 Y42.988 F6000.000
G1 F3000
G1 X591.016 Y42.988 E55.70091
G1 X591.016 Y25.019 E57.34397
G1 X608.984 Y25.019 E58.98703
G1 X608.984 Y42.898 E60.62186
G1 X609.670 Y43.673 F6000.000
G1 F2400
G1 X590.330 Y43.673 E61.97990
G1 X590.330 Y24.333 E63.33794
G1 X609.670 Y24.333 E64.69598
G1 X609.670 Y43.583 E66.04769
G1 X609.090 Y43.518 F6000.000
G1 X605.992 Y28.231 F6000.000
G1 F3000
G1 X605.772 Y28.012 E66.07669
G1 X604.652 Y28.012 E66.18132
G1 X605.992 Y29.352 E66.35830
G1 X605.992 Y30.472 E66.46293
G1 X603.531 Y28.012 E66.78788
G1 X602.411 Y28.012 E66.89252
G1 X605.992 Y31.592 E67.36544
G1 X605.992 Y32.713 E67.47008
G1 X601.291 Y28.012 E68.09098
G1 X600.170 Y28.012 E68.19562
G1 X605.992 Y33.833 E68.96450
G1 X605.992 Y34.953 E69.06914
G1 X599.050 Y28.012 E69.98600
G1 X597.930 Y28.012 E70.09063
G1 X605.992 Y36.074 E71.15547
G1 X605.992 Y37.194 E71.26011
G1 X596.809 Y28.012 E72.47292
G1 X595.689 Y28.012 E72.57756
G1 X605.992 Y38.315 E73.93835
G1 X605.992 Y39.435 E74.04299
G1 X594.569 Y28.012 E75.55176
G1 X594.008 Y28.012 E75.60408
G1 X594.008 Y28.572 E75.65639
G1 X605.431 Y39.995 E77.16517
G1 X604.311 Y39.995 E77.26980
G1 X594.008 Y29.692 E78.63060
G1 X594.008 Y30.813 E78.73523
G1 X603.191 Y39.995 E79.94805
G1 X602.070 Y39.995 E80.05268
G1 X594.008 Y31.933 E81.11752
G1 X594.008 Y33.053 E81.22216
G1 X600.950 Y39.995 E82.13902
G1 X599.830 Y39.995 E82.24366
G1 X594.008 Y34.174 E83.01254
G1 X594.008 Y35.294 E83.11718
G1 X598.709 Y39.995 E83.73809
G1 X597.589 Y39.995 E83.84272
G1 X594.008 Y36.414 E84.31565
G1 X594.008 Y37.535 E84.42029
G1 X596.469 Y39.995 E84.74524
G1 X595.348 Y39.995 E84.84987
G1 X594.008 Y38.655 E85.02685
G1 X594.008 Y39.776 E85.13148
G1 X594.228 Y39.995 E85.16046
G1 U0.920 V0.920 Z0.920 F6000.000
G1 X606.658 Y40.661 F6000.000
G1 F3000
G1 X593.342 Y40.661 E86.37798
G1 X593.342 Y27.346 E87.59551
G1 X606.658 Y27.346 E88.81303
G1 X606.658 Y40.571 E90.02233
G1 X607.433 Y41.437 F6000.000
G1 F3000
G1 X592.567 Y41.437 E91.38170
G1 X592.567 Y26.570 E92.74107
G1 X607.433 Y26.570 E94.10044
G1 X607.433 Y41.347 E95.45158
G1 X608.209 Y42.212 F6000.000
G1 F3000
G1 X591.791 Y42.212 E96.95279
G1 X591.791 Y25.795 E98.45401
G1 X608.209 Y25.795 E99.95522
G1 X608.209 Y42.122 E101.44821
G1 X608.984 Y42.988 F6000.000
G1 F3000
G1 X591.016 Y42.988 E103.09127
G1 X591.016 Y25.019 E104.73433
G1 X608.984 Y25.019 E106.37739
G1 X608.984 Y42.898 E108.01222
G1 X609.670 Y43.673 F6000.000
G1 F2400
G1 X590.330 Y43.673 E109.37025
G1 X590.330 Y24.333 E110.72829
G1 X609.670 Y24.333 E112.08633
G1 X609.670 Y43.583 E113.43805
G1 X609.090 Y43.518 F6000.000
G1 X605.772 Y39.995 F6000.000
G1 F3000
G1 X605.992 Y39.776 E113.46704
G1 X605.992 Y38.655 E113.57168
G1 X604.652 Y39.995 E113.74865
G1 X603.531 Y39.995 E113.85328
G1 X605.992 Y37.535 E114.17823
G1 X605.992 Y36.414 E114.28287
G1 X602.411 Y39.995 E114.75580
G1 X601.291 Y39.995 E114.86043
G1 X605.992 Y35.294 E115.48134
G1 X605.992 Y34.174 E115.58597
G1 X600.170 Y39.995 E116.35486
G1 X599.050 Y39.995 E116.45949
G1 X605.992 Y33.053 E117.37635
G1 X605.992 Y31.933 E117.48099
G1 X597.930 Y39.995 E118.54582
G1 X596.809 Y39.995 E118.65046
G1 X605.992 Y30.813 E119.86328
G1 X605.992 Y29.692 E119.96791
G1 X595.689 Y39.995 E121.32870
G1 X594.569 Y39.995 E121.43334
G1 X605.992 Y28.572 E122.94211
G1 X605.992 Y28.012 E122.99443
G1 X605.431 Y28.012 E123.04675
G1 X594.008 Y39.435 E124.55552
G1 X594.008 Y38.315 E124.66015
G1 X604.311 Y28.012 E126.02095
G1 X603.191 Y28.012 E126.12558
G1 X594.008 Y37.194 E127.33840
G1 X594.008 Y36.074 E127.44304
G1 X602.070 Y28.012 E128.50788
G1 X600.950 Y28.012 E128.61251
G1 X594.008 Y34.953 E129.52938
G1 X594.008 Y33.833 E129.63401
G1 X599.830 Y28.012 E130.40290
G1 X598.709 Y28.012 E130.50753
G1 X594.008 Y32.713 E131.12844
G1 X594.008 Y31.592 E131.23307
G1 X597.589 Y28.012 E131.70600
G1 X596.469 Y28.012 E131.81064
G1 X594.008 Y30.472 E132.13559
G1 X594.008 Y29.352 E132.24023
G1 X595.348 Y28.012 E132.41720
G1 X594.228 Y28.012 E132.52184
G1 X594.009 Y28.231 E132.55081
M106 S244.8
G1 U1.220 V1.220 Z1.220 F6000.000
G1 X606.658 Y40.661 F6000.000
G1 F3000
G1 X593.342 Y40.661 E133.76834
G1 X593.342 Y27.346 E134.98586
G1 X606.658 Y27.346 E136.20339
G1 X606.658 Y40.571 E137.41268
G1 X607.433 Y41.437 F6000.000
G1 F3000
G1 X592.567 Y41.437 E138.77205
G1 X592.567 Y26.570 E140.13142
G1 X607.433 Y26.570 E141.49079
G1 X607.433 Y41.347 E142.84193
G1 X608.209 Y42.212 F6000.000
G1 F3000
G1 X591.791 Y42.212 E144.34315
G1 X591.791 Y25.795 E145.84436
G1 X608.209 Y25.795 E147.34558
G1 X608.209 Y42.122 E148.83856
G1 X608.984 Y42.988 F6000.000
G1 F3000
G1 X591.016 Y42.988 E150.48162
G1 X591.016 Y25.019 E152.12468
G1 X608.984 Y25.019 E153.76774
G1 X608.984 Y42.898 E155.40257
G1 X609.670 Y43.673 F6000.000
G1 F2400
G1 X590.330 Y43.673 E156.76061
G1 X590.330 Y24.333 E158.11864
G1 X609.670 Y24.333 E159.47668
G1 X609.670 Y43.583 E160.82840
G1 X609.090 Y43.518 F6000.000
G1 X606.030 Y33.570 F6000.000
G1 F3000
G1 X600.434 Y27.973 E161.46812
G1 X593.970 Y27.973 E161.99061
G1 X606.030 Y40.034 E163.36925
G1 X599.566 Y40.034 E163.89173
G1 X593.970 Y34.437 E164.53146
G1 U1.520 V1.520 Z1.520 F6000.000
G1 X606.658 Y40.661 F6000.000
G1 F3000
G1 X593.342 Y40.661 E165.74898
G1 X593.342 Y27.346 E166.96651
G1 X606.658 Y27.346 E168.18403
G1 X606.658 Y40.571 E169.39333
G1 X607.433 Y41.437 F6000.000
G1 F3000
G1 X592.567 Y41.437 E170.75270
G1 X592.567 Y26.570 E172.11207
G1 X607.433 Y26.570 E173.47144
G1 X607.433 Y41.347 E174.82258
G1 X608.209 Y42.212 F6000.000
G1 F3000
G1 X591.791 Y42.212 E176.32379
G1 X591.791 Y25.795 E177.82501
G1 X608.209 Y25.795 E179.32622
G1 X608.209 Y42.122 E180.81921
G1 X608.984 Y42.988 F6000.000
G1 F3000
G1 X591.016 Y42.988 E182.46227
G1 X591.016 Y25.019 E184.10533
G1 X608.984 Y25.019 E185.74839
G1 X608.984 Y42.898 E187.38322
G1 X609.670 Y43.673 F6000.000
G1 F2400
G1 X590.330 Y43.673 E188.74125
G1 X590.330 Y24.333 E190.09929
G1 X609.670 Y24.333 E191.45733
G1 X609.670 Y43.583 E192.80905
G1 X609.090 Y43.518 F6000.000
G1 X600.434 Y40.034 F6000.000
G1 F3000
G1 X606.030 Y34.437 E193.44877
G1 X606.030 Y27.973 E193.97126
G1 X593.970 Y40.034 E195.34989
G1 X593.970 Y33.570 E195.87238
G1 X599.566 Y27.973 E196.51211
G1 U1.820 V1.820 Z1.820 F6000.000
G1 X606.658 Y40.661 F6000.000
G1 F3000
G1 X593.342 Y40.661 E197.72963
G1 X593.342 Y27.346 E198.94716
G1 X606.658 Y27.346 E200.16468
G1 X606.658 Y40.571 E201.37398
G1 X607.433 Y41.437 F6000.000
G1 F3000
G1 X592.567 Y41.437 E202.73335
G1 X592.567 Y26.570 E204.09272
G1 X607.433 Y26.570 E205.45209
G1 X607.433 Y41.347 E206.80323
G1 X608.209 Y42.212 F6000.000
G1 F3000
G1 X591.791 Y42.212 E208.30444
G1 X591.791 Y25.795 E209.80566
G1 X608.209 Y25.795 E211.30687
G1 X608.209 Y42.122 E212.79986
G1 X608.984 Y42.988 F6000.000
G1 F3000
G1 X591.016 Y42.988 E214.44291
G1 X591.016 Y25.019 E216.08597
G1 X608.984 Y25.019 E217.72903
G1 X608.984 Y42.898 E219.36386
G1 X609.670 Y43.673 F6000.000
G1 F2400
G1 X590.330 Y43.673 E220.72190
G1 X590.330 Y24.333 E222.07994
G1 X609.670 Y24.333 E223.43798
G1 X609.670 Y43.583 E224.78969
G1 X609.090 Y43.518 F6000.000
G1 X606.030 Y33.570 F6000.000
G1 F3000
G1 X600.434 Y27.973 E225.42942
G1 X593.970 Y27.973 E225.95191
G1 X606.030 Y40.034 E227.33054
G1 X599.566 Y40.034 E227.85303
G1 X593.970 Y34.437 E228.49275
G1 U2.120 V2.120 Z2.120 F6000.000
G1 X606.658 Y40.661 F6000.000
G1 F3000
G1 X593.342 Y40.661 E229.71028
G1 X593.342 Y27.346 E230.92780
G1 X606.658 Y27.346 E232.14533
G1 X606.658 Y40.571 E233.35463
G1 X607.433 Y41.437 F6000.000
G1 F3000
G1 X592.567 Y41.437 E234.71399
G1 X592.567 Y26.570 E236.07336
G1 X607.433 Y26.570 E237.43273
G1 X607.433 Y41.347 E238.78387
G1 X608.209 Y42.212 F6000.000
G1 F3000
G1 X591.791 Y42.212 E240.28509
G1 X591.791 Y25.795 E241.78630
G1 X608.209 Y25.795 E243.28752
G1 X608.209 Y42.122 E244.78050
G1 X608.984 Y42.988 F6000.000
G1 F3000
G1 X591.016 Y42.988 E246.42356
G1 X591.016 Y25.019 E248.06662
