; generated by Slic3r 1.3.0-dev on 2018-06-03 at 20:40:26

; external perimeters extrusion width = 0.66mm (7.15mm^3/s)
; perimeters extrusion width = 0.84mm (11.63mm^3/s)
; infill extrusion width = 0.75mm (10.28mm^3/s)
; solid infill extrusion width = 0.84mm (11.63mm^3/s)
; top infill extrusion width = 0.84mm (11.63mm^3/s)

M107
G28 ; home all axes
G32; probe home individual Z axis
G29 S1; load bed mesh
M109 S205 ; set temperature and wait for it to be reached
M117 Purge extruder
G92 E0 ; reset extruder
G1 X400
G1 Z1.0 F3000.0 ; move z up little to prevent scratching of surface
G1 X400 Y20 Z0.3 F5000.0 ; move to start-line position
G1 X400 Y200.0 Z0.3 F1500.0 E15 ; draw 1st line
G1 X400.5 Y200.0 Z0.3 F5000.0 ; move to side a little
G1 X400.5 Y20 Z0.3 F1500.0 E30 ; draw 2nd line
; G1 E27 F3000 ; retract filament 3mm
G92 E0 ; reset extruder
; done purging extruder
G1 Z1.0 F3000 ; move z up little to prevent scratching of surface
G1 Z10
G1 X200
M117 Printing!

; Filament gcode

G21 ; set units to millimeters
G90 ; use absolute coordinates
M82 ; use absolute distances for extrusion
G92 E0
M584 U3 Z2 V4; Actuate motors independently
G92 U10.000 V10.000 Z10.000
G1 U0.320 V0.320 Z0.320 F6000.000
G1 E-2.00000 F2400.00000
G92 E0
G1 X460.497 Y106.493 F6000.000
G1 E2.00000 F2400.00000
G1 F1680
G1 X460.944 Y105.021 E2.06099
G1 X461.459 Y103.663 E2.11857
G1 X462.114 Y102.218 E2.18148
G1 X462.888 Y100.766 E2.24673
G1 X463.755 Y99.352 E2.31250
G1 X464.714 Y97.978 E2.37895
G1 X465.762 Y96.643 E2.44624
G1 X466.837 Y95.421 E2.51078
G1 X467.178 Y95.061 E2.53043
G1 X468.671 Y93.604 E2.61317
G1 X497.523 Y67.293 E4.16151
G1 X497.989 Y66.902 E4.18564
G1 X498.510 Y66.514 E4.21140
G1 X499.175 Y66.091 E4.24265
G1 X499.637 Y65.840 E4.26348
G1 X500.211 Y65.578 E4.28854
G1 X500.965 Y65.321 E4.32010
G1 X501.551 Y65.195 E4.34389
G1 X502.075 Y65.150 E4.36473
G1 X503.553 Y65.151 E4.42333
G1 X504.800 Y65.288 E4.47309
G1 X506.245 Y65.567 E4.53145
G1 X507.707 Y66.000 E4.59190
G1 X508.121 Y66.164 E4.60957
G1 X509.373 Y66.716 E4.66383
G1 X509.590 Y66.830 E4.67356
G1 X510.477 Y67.378 E4.71487
G1 X511.005 Y67.740 E4.74027
G1 X512.076 Y68.650 E4.79601
G1 X512.535 Y69.142 E4.82266
G1 X513.301 Y70.036 E4.86938
G1 X514.102 Y71.262 E4.92744
G1 X514.221 Y71.479 E4.93724
G1 X514.902 Y72.970 E5.00222
G1 X515.413 Y74.577 E5.06912
G1 X515.698 Y75.931 E5.12399
G1 X515.775 Y76.446 E5.14464
G1 X515.888 Y78.508 E5.22651
G1 X515.868 Y79.055 E5.24820
G1 X515.821 Y79.432 E5.26327
G1 X515.685 Y80.006 E5.28668
G1 X515.487 Y80.581 E5.31077
G1 X515.232 Y81.154 E5.33565
G1 X514.846 Y81.857 E5.36745
G1 X514.520 Y82.358 E5.39116
G1 X514.137 Y82.871 E5.41653
G1 X489.252 Y112.821 E6.96060
G1 X487.981 Y114.218 E7.03548
G1 X486.680 Y115.486 E7.10755
G1 X485.296 Y116.682 E7.18007
G1 X483.842 Y117.793 E7.25262
G1 X482.680 Y118.581 E7.30830
G1 X481.190 Y119.477 E7.37723
G1 X479.781 Y120.208 E7.44020
G1 X478.251 Y120.881 E7.50645
G1 X476.583 Y121.473 E7.57665
G1 X475.180 Y121.855 E7.63431
G1 X473.888 Y122.110 E7.68652
G1 X472.499 Y122.269 E7.74195
G1 X471.129 Y122.311 E7.79631
G1 X470.359 Y122.280 E7.82687
G1 X469.305 Y122.170 E7.86889
G1 X467.973 Y121.905 E7.92273
G1 X467.016 Y121.617 E7.96239
G1 X465.934 Y121.176 E8.00870
G1 X464.977 Y120.664 E8.05176
G1 X464.082 Y120.058 E8.09460
G1 X463.424 Y119.513 E8.12849
G1 X462.807 Y118.905 E8.16284
G1 X462.126 Y118.091 E8.20490
G1 X461.531 Y117.204 E8.24728
G1 X461.256 Y116.715 E8.26952
G1 X460.799 Y115.730 E8.31257
G1 X460.438 Y114.702 E8.35576
G1 X460.174 Y113.649 E8.39883
G1 X460.021 Y112.721 E8.43611
G1 X459.918 Y111.525 E8.48372
G1 X459.915 Y110.313 E8.53176
G1 X460.006 Y109.083 E8.58068
G1 X460.184 Y107.873 E8.62917
G1 X460.477 Y106.580 E8.68173
G1 X460.804 Y106.563 F6000.000
G1 F1680
G1 X461.240 Y105.131 E8.74111
G1 X461.747 Y103.792 E8.79788
G1 X462.393 Y102.365 E8.86000
G1 X463.157 Y100.929 E8.92447
G1 X464.014 Y99.531 E8.98950
G1 X464.962 Y98.172 E9.05523
G1 X466.000 Y96.851 E9.12181
G1 X467.073 Y95.630 E9.18629
G1 X467.406 Y95.278 E9.20550
G1 X468.883 Y93.837 E9.28734
G1 X497.735 Y67.526 E10.83568
G1 X498.191 Y67.144 E10.85926
G1 X498.697 Y66.767 E10.88428
G1 X499.325 Y66.368 E10.91379
G1 X499.787 Y66.118 E10.93461
G1 X500.340 Y65.866 E10.95872
G1 X501.036 Y65.628 E10.98789
G1 X501.589 Y65.508 E11.01032
G1 X502.082 Y65.465 E11.02993
G1 X503.522 Y65.465 E11.08703
G1 X504.760 Y65.600 E11.13645
G1 X506.166 Y65.872 E11.19321
G1 X507.616 Y66.302 E11.25319
G1 X507.999 Y66.455 E11.26952
G1 X509.246 Y67.005 E11.32358
G1 X510.311 Y67.646 E11.37287
G1 X510.802 Y67.981 E11.39643
G1 X511.870 Y68.889 E11.45204
G1 X512.298 Y69.350 E11.47695
G1 X513.041 Y70.214 E11.52216
G1 X513.837 Y71.433 E11.57987
G1 X513.935 Y71.611 E11.58793
G1 X514.613 Y73.097 E11.65271
G1 X515.109 Y74.661 E11.71778
G1 X515.390 Y75.995 E11.77185
G1 X515.463 Y76.490 E11.79169
G1 X515.573 Y78.517 E11.87217
G1 X515.554 Y79.033 E11.89266
G1 X515.512 Y79.368 E11.90604
G1 X515.405 Y79.840 E11.92521
G1 X515.196 Y80.459 E11.95114
G1 X514.951 Y81.011 E11.97507
G1 X514.550 Y81.736 E12.00792
G1 X514.260 Y82.179 E12.02891
G1 X513.894 Y82.669 E12.05317
G1 X489.010 Y112.620 E13.59723
G1 X487.761 Y113.992 E13.67082
G1 X486.473 Y115.248 E13.74215
G1 X485.104 Y116.432 E13.81391
G1 X483.664 Y117.532 E13.88577
G1 X482.517 Y118.311 E13.94075
G1 X481.045 Y119.197 E14.00889
G1 X479.635 Y119.928 E14.07186
G1 X478.125 Y120.592 E14.13726
G1 X476.499 Y121.169 E14.20569
G1 X475.118 Y121.546 E14.26243
G1 X473.829 Y121.800 E14.31455
G1 X472.465 Y121.956 E14.36899
G1 X471.121 Y121.995 E14.42230
G1 X470.392 Y121.966 E14.45124
G1 X469.338 Y121.856 E14.49326
G1 X468.064 Y121.603 E14.54475
G1 X467.106 Y121.315 E14.58441
G1 X466.055 Y120.885 E14.62944
G1 X465.128 Y120.387 E14.67119
G1 X464.261 Y119.798 E14.71272
G1 X463.645 Y119.288 E14.74445
G1 X463.028 Y118.680 E14.77879
G1 X462.370 Y117.891 E14.81952
G1 X461.794 Y117.031 E14.86059
G1 X461.540 Y116.579 E14.88114
G1 X461.095 Y115.623 E14.92296
G1 X460.744 Y114.623 E14.96498
G1 X460.485 Y113.595 E15.00703
G1 X460.335 Y112.692 E15.04332
G1 X460.234 Y111.522 E15.08988
G1 X460.229 Y110.335 E15.13695
G1 X460.318 Y109.129 E15.18492
G1 X460.496 Y107.921 E15.23332
G1 X460.784 Y106.651 E15.28496
G1 X461.112 Y106.634 F6000.000
G1 F1680
G1 X461.535 Y105.240 E15.34272
G1 X462.035 Y103.920 E15.39869
G1 X462.673 Y102.512 E15.46000
G1 X463.427 Y101.093 E15.52371
G1 X464.274 Y99.711 E15.58799
G1 X465.211 Y98.366 E15.65300
G1 X466.237 Y97.059 E15.71887
G1 X467.310 Y95.839 E15.78330
G1 X467.635 Y95.495 E15.80206
G1 X469.096 Y94.070 E15.88300
G1 X497.948 Y67.759 E17.43135
G1 X498.393 Y67.386 E17.45438
G1 X498.884 Y67.021 E17.47864
G1 X499.475 Y66.645 E17.50641
G1 X499.937 Y66.395 E17.52724
G1 X500.469 Y66.154 E17.55039
G1 X501.107 Y65.935 E17.57717
G1 X501.503 Y65.843 E17.59328
G1 X501.783 Y65.803 E17.60448
G1 X502.229 Y65.777 E17.62220
G1 X503.490 Y65.778 E17.67222
G1 X504.721 Y65.913 E17.72130
G1 X506.087 Y66.177 E17.77648
G1 X507.525 Y66.604 E17.83596
G1 X507.876 Y66.745 E17.85096
G1 X509.119 Y67.293 E17.90482
G1 X510.145 Y67.914 E17.95239
G1 X510.598 Y68.222 E17.97409
G1 X511.664 Y69.128 E18.02959
G1 X512.061 Y69.557 E18.05275
G1 X512.780 Y70.392 E18.09645
G1 X513.648 Y71.743 E18.16012
G1 X514.325 Y73.224 E18.22469
G1 X514.805 Y74.745 E18.28793
G1 X515.081 Y76.060 E18.34120
G1 X515.150 Y76.534 E18.36023
G1 X515.257 Y78.526 E18.43933
G1 X515.239 Y79.012 E18.45861
G1 X515.203 Y79.305 E18.47031
G1 X515.100 Y79.760 E18.48879
G1 X514.905 Y80.338 E18.51300
G1 X514.670 Y80.868 E18.53599
G1 X514.285 Y81.565 E18.56757
G1 X514.001 Y82.000 E18.58815
G1 X513.652 Y82.468 E18.61130
G1 X488.767 Y112.418 E20.15536
G1 X487.540 Y113.767 E20.22766
G1 X486.266 Y115.010 E20.29824
G1 X484.913 Y116.182 E20.36925
G1 X483.487 Y117.272 E20.44042
G1 X482.354 Y118.041 E20.49470
G1 X480.963 Y118.881 E20.55913
G1 X479.421 Y119.682 E20.62805
G1 X477.999 Y120.303 E20.68958
G1 X476.493 Y120.840 E20.75297
G1 X475.138 Y121.218 E20.80874
G1 X474.153 Y121.417 E20.84862
G1 X473.680 Y121.504 E20.86768
G1 X472.333 Y121.649 E20.92137
G1 X471.113 Y121.680 E20.96979
G1 X470.425 Y121.653 E20.99710
G1 X469.268 Y121.527 E21.04326
G1 X468.155 Y121.301 E21.08827
G1 X467.197 Y121.013 E21.12793
G1 X466.177 Y120.594 E21.17167
G1 X465.279 Y120.110 E21.21211
G1 X464.441 Y119.539 E21.25234
G1 X463.866 Y119.064 E21.28190
G1 X463.249 Y118.456 E21.31625
G1 X462.614 Y117.692 E21.35565
G1 X462.058 Y116.858 E21.39540
G1 X461.825 Y116.443 E21.41425
G1 X461.392 Y115.516 E21.45484
G1 X461.049 Y114.544 E21.49570
G1 X460.796 Y113.541 E21.53673
G1 X460.649 Y112.663 E21.57203
G1 X460.549 Y111.519 E21.61754
G1 X460.544 Y110.357 E21.66363
G1 X460.630 Y109.174 E21.71066
G1 X460.808 Y107.969 E21.75897
G1 X461.091 Y106.722 E21.80968
G1 X461.419 Y106.705 F6000.000
G1 F1680
G1 X461.831 Y105.350 E21.86584
G1 X462.323 Y104.049 E21.92099
G1 X462.952 Y102.659 E21.98150
G1 X463.696 Y101.257 E22.04444
G1 X464.533 Y99.890 E22.10798
G1 X465.459 Y98.560 E22.17227
G1 X466.474 Y97.267 E22.23742
G1 X467.546 Y96.048 E22.30181
G1 X467.866 Y95.710 E22.32025
G1 X469.308 Y94.303 E22.40017
G1 X498.160 Y67.992 E23.94851
G1 X498.595 Y67.628 E23.97099
G1 X499.071 Y67.275 E23.99450
G1 X499.625 Y66.922 E24.02054
G1 X500.087 Y66.672 E24.04137
G1 X500.597 Y66.442 E24.06356
G1 X501.179 Y66.242 E24.08794
G1 X501.575 Y66.150 E24.10406
G1 X501.820 Y66.116 E24.11390
G1 X502.236 Y66.093 E24.13039
G1 X503.459 Y66.092 E24.17891
G1 X504.681 Y66.226 E24.22765
G1 X506.008 Y66.483 E24.28123
G1 X507.434 Y66.906 E24.34024
G1 X507.753 Y67.036 E24.35389
G1 X508.992 Y67.582 E24.40756
G1 X509.979 Y68.183 E24.45340
G1 X510.395 Y68.463 E24.47326
G1 X511.459 Y69.367 E24.52864
G1 X512.520 Y70.569 E24.59223
G1 X513.362 Y71.875 E24.65382
G1 X514.036 Y73.351 E24.71818
G1 X514.501 Y74.828 E24.77959
G1 X514.772 Y76.124 E24.83207
G1 X514.838 Y76.578 E24.85029
G1 X514.942 Y78.535 E24.92800
G1 X514.925 Y78.991 E24.94608
G1 X514.894 Y79.242 E24.95609
G1 X514.795 Y79.680 E24.97389
G1 X514.614 Y80.217 E24.99637
G1 X514.389 Y80.725 E25.01842
G1 X514.020 Y81.395 E25.04874
G1 X513.741 Y81.820 E25.06891
G1 X513.409 Y82.266 E25.09094
G1 X488.525 Y112.217 E26.63501
G1 X487.320 Y113.541 E26.70602
G1 X486.060 Y114.772 E26.77585
G1 X484.721 Y115.931 E26.84609
G1 X483.309 Y117.011 E26.91657
G1 X482.192 Y117.771 E26.97016
G1 X480.800 Y118.611 E27.03459
G1 X479.295 Y119.393 E27.10187
G1 X477.873 Y120.014 E27.16340
G1 X476.388 Y120.543 E27.22592
G1 X475.054 Y120.914 E27.28079
G1 X474.093 Y121.107 E27.31966
G1 X473.645 Y121.191 E27.33774
G1 X472.325 Y121.334 E27.39037
G1 X471.105 Y121.365 E27.43879
G1 X470.457 Y121.339 E27.46448
G1 X469.329 Y121.218 E27.50950
G1 X468.246 Y120.999 E27.55330
G1 X467.288 Y120.711 E27.59296
G1 X466.298 Y120.303 E27.63542
G1 X465.430 Y119.834 E27.67455
G1 X464.620 Y119.280 E27.71346
G1 X464.088 Y118.839 E27.74087
G1 X463.470 Y118.231 E27.77522
G1 X462.858 Y117.492 E27.81329
G1 X462.322 Y116.685 E27.85172
G1 X462.110 Y116.307 E27.86887
G1 X461.688 Y115.409 E27.90824
G1 X461.354 Y114.465 E27.94793
G1 X461.106 Y113.487 E27.98795
G1 X460.963 Y112.634 E28.02225
G1 X460.864 Y111.517 E28.06671
G1 X460.856 Y110.438 E28.10949
G1 X460.942 Y109.220 E28.15791
G1 X461.119 Y108.017 E28.20612
G1 X461.399 Y106.793 E28.25592
G1 X461.726 Y106.776 F6000.000
G1 F1680
G1 X462.126 Y105.460 E28.31046
G1 X462.611 Y104.177 E28.36481
G1 X463.231 Y102.805 E28.42452
G1 X463.966 Y101.421 E28.48668
G1 X464.792 Y100.070 E28.54948
G1 X465.708 Y98.754 E28.61305
G1 X466.711 Y97.475 E28.67749
G1 X467.782 Y96.257 E28.74183
G1 X468.094 Y95.928 E28.75977
G1 X469.521 Y94.536 E28.83884
G1 X498.373 Y68.225 E30.38718
G1 X498.797 Y67.870 E30.40912
G1 X499.259 Y67.529 E30.43188
G1 X499.776 Y67.200 E30.45618
G1 X500.237 Y66.949 E30.47701
G1 X500.726 Y66.730 E30.49825
G1 X501.250 Y66.549 E30.52023
G1 X501.646 Y66.457 E30.53635
G1 X501.858 Y66.429 E30.54483
G1 X502.242 Y66.408 E30.56010
G1 X503.428 Y66.406 E30.60712
G1 X504.641 Y66.539 E30.65551
G1 X505.929 Y66.788 E30.70750
G1 X507.343 Y67.208 E30.76602
G1 X507.631 Y67.326 E30.77834
G1 X508.864 Y67.870 E30.83181
G1 X509.814 Y68.451 E30.87593
G1 X510.191 Y68.703 E30.89393
G1 X511.253 Y69.606 E30.94920
G1 X512.259 Y70.747 E31.00953
G1 X513.075 Y72.007 E31.06905
G1 X513.748 Y73.478 E31.13320
G1 X514.197 Y74.912 E31.19278
G1 X514.469 Y76.221 E31.24579
G1 X514.530 Y76.665 E31.26356
G1 X514.617 Y78.197 E31.32441
G1 X514.625 Y78.734 E31.34571
G1 X514.592 Y79.132 E31.36155
G1 X514.490 Y79.599 E31.38051
G1 X514.323 Y80.095 E31.40127
G1 X514.108 Y80.582 E31.42238
G1 X513.754 Y81.224 E31.45143
G1 X513.482 Y81.641 E31.47119
G1 X513.167 Y82.064 E31.49211
G1 X488.282 Y112.015 E33.03618
G1 X487.099 Y113.316 E33.10589
G1 X485.853 Y114.534 E33.17499
G1 X484.529 Y115.681 E33.24446
G1 X483.131 Y116.751 E33.31425
G1 X482.029 Y117.502 E33.36715
G1 X480.637 Y118.341 E33.43158
G1 X479.168 Y119.104 E33.49722
G1 X477.746 Y119.725 E33.55875
G1 X476.282 Y120.246 E33.62038
G1 X474.970 Y120.610 E33.67436
G1 X474.037 Y120.797 E33.71209
G1 X473.610 Y120.877 E33.72932
G1 X472.317 Y121.018 E33.78090
G1 X471.097 Y121.050 E33.82932
G1 X470.490 Y121.026 E33.85338
G1 X469.390 Y120.908 E33.89726
G1 X468.337 Y120.697 E33.93985
G1 X467.379 Y120.409 E33.97951
G1 X466.420 Y120.012 E34.02068
G1 X465.581 Y119.557 E34.05851
G1 X464.799 Y119.020 E34.09612
G1 X464.309 Y118.614 E34.12136
G1 X463.655 Y117.967 E34.15785
G1 X463.070 Y117.249 E34.19455
G1 X462.567 Y116.482 E34.23092
G1 X462.394 Y116.172 E34.24502
G1 X462.003 Y115.346 E34.28125
G1 X461.847 Y114.920 E34.29925
G1 X461.659 Y114.386 E34.32168
G1 X461.417 Y113.433 E34.36069
G1 X461.277 Y112.605 E34.39399
G1 X461.180 Y111.514 E34.43741
G1 X461.172 Y110.438 E34.48009
G1 X461.254 Y109.265 E34.52669
G1 X461.431 Y108.065 E34.57481
G1 X461.706 Y106.863 E34.62368
G1 E32.62368 F2400.00000
G92 E0
G1 X492.096 Y99.904 F6000.000
G1 E2.00000 F2400.00000
G1 F2100
G1 X491.879 Y101.031 E2.04554
G1 X491.579 Y102.174 E2.09238
G1 X491.085 Y103.627 E2.15321
G1 X490.543 Y104.918 E2.20873
G1 X489.910 Y106.193 E2.26521
G1 X489.187 Y107.448 E2.32264
G1 X488.374 Y108.687 E2.38139
G1 X487.798 Y109.478 E2.42018
G1 X486.781 Y110.740 E2.48448
G1 X485.692 Y111.938 E2.54867
G1 X484.530 Y113.075 E2.61312
G1 X483.297 Y114.145 E2.67788
G1 X481.989 Y115.147 E2.74319
G1 X480.977 Y115.837 E2.79177
G1 X479.660 Y116.631 E2.85275
G1 X478.335 Y117.319 E2.91194
G1 X477.005 Y117.900 E2.96950
G1 X475.673 Y118.373 E3.02557
G1 X474.497 Y118.698 E3.07393
G1 X473.337 Y118.927 E3.12083
G1 X472.205 Y119.052 E3.16597
G1 X471.094 Y119.080 E3.21006
G1 X470.649 Y119.063 E3.22772
G1 X469.707 Y118.964 E3.26525
G1 X468.837 Y118.792 E3.30046
G1 X468.018 Y118.545 E3.33435
G1 X467.248 Y118.224 E3.36744
G1 X466.592 Y117.866 E3.39709
G1 X465.970 Y117.436 E3.42704
G1 X465.645 Y117.168 E3.44376
G1 X465.128 Y116.658 E3.47256
G1 X464.673 Y116.103 E3.50103
G1 X464.151 Y115.282 E3.53958
G1 X463.814 Y114.569 E3.57088
G1 X463.549 Y113.831 E3.60196
G1 X463.347 Y113.039 E3.63436
G1 X463.232 Y112.371 E3.66123
G1 X463.148 Y111.439 E3.69837
G1 X463.141 Y110.482 E3.73629
G1 X463.203 Y109.587 E3.77187
G1 X463.370 Y108.409 E3.81907
G1 X463.633 Y107.266 E3.86555
G1 X463.986 Y106.107 E3.91359
G1 X464.425 Y104.943 E3.96292
G1 X464.993 Y103.685 E4.01766
G1 X465.669 Y102.408 E4.07497
G1 X466.434 Y101.157 E4.13310
G1 X467.284 Y99.934 E4.19214
G1 X468.217 Y98.744 E4.25213
G1 X469.241 Y97.579 E4.31362
G1 X469.655 Y97.144 E4.33744
G1 X470.847 Y95.992 E4.40319
G1 X472.088 Y94.927 E4.46802
G1 X473.381 Y93.949 E4.53231
G1 X474.718 Y93.061 E4.59595
G1 X476.105 Y92.263 E4.65941
G1 X476.827 Y91.896 E4.69153
G1 X478.165 Y91.299 E4.74962
G1 X479.494 Y90.810 E4.80578
G1 X480.812 Y90.428 E4.86019
G1 X482.119 Y90.152 E4.91315
G1 X482.935 Y90.037 E4.94582
G1 X484.037 Y89.956 E4.98964
G1 X485.080 Y89.967 E5.03101
G1 X486.063 Y90.066 E5.07018
G1 X486.789 Y90.203 E5.09949
G1 X487.573 Y90.426 E5.13179
G1 X488.324 Y90.724 E5.16383
G1 X489.120 Y91.159 E5.19983
G1 X489.683 Y91.561 E5.22724
G1 X490.212 Y92.034 E5.25540
G1 X490.411 Y92.243 E5.26684
G1 X490.845 Y92.783 E5.29431
G1 X491.300 Y93.510 E5.32832
G1 X491.607 Y94.156 E5.35667
