; generated by Slic3r 1.3.0-dev on 2018-05-23 at 17:24:15

; external perimeters extrusion width = 0.66mm (7.15mm^3/s)
; perimeters extrusion width = 0.84mm (11.63mm^3/s)
; infill extrusion width = 0.75mm (10.28mm^3/s)
; solid infill extrusion width = 0.84mm (11.63mm^3/s)
; top infill extrusion width = 0.84mm (11.63mm^3/s)

M107
M104 S205 ; set temperature
G28 ; home all axes
G32; probe home individual Z axis
G29 S1; load bed mesh

; Filament gcode

M109 S205 ; set temperature and wait for it to be reached
G21 ; set units to millimeters
G90 ; use absolute coordinates
M82 ; use absolute distances for extrusion
G92 E0
M584 U3 Z2 V4; Actuate motors independently
G92 U10.000 V10.000 Z10.000
G1 U0.320 V0.320 Z0.320 F6000.000
G1 E-2.00000 F2400.00000
G92 E0
G1 X606.829 Y34.500 F6000.000
G1 E2.00000 F2400.00000
G1 F1680
G1 X607.227 Y31.910 E2.10389
G1 X608.384 Y29.559 E2.20778
G1 X610.192 Y27.664 E2.31168
G1 X612.486 Y26.398 E2.41557
G1 X615.460 Y25.869 E2.53534
G1 X663.230 Y25.869 E4.42955
G1 X665.819 Y26.267 E4.53344
G1 X668.170 Y27.423 E4.63733
G1 X670.066 Y29.232 E4.74123
G1 X671.332 Y31.526 E4.84512
G1 X671.860 Y34.500 E4.96489
G1 X671.860 Y45.500 E5.40108
G1 X671.463 Y48.090 E5.50497
G1 X670.306 Y50.441 E5.60886
G1 X668.498 Y52.336 E5.71275
G1 X666.204 Y53.602 E5.81665
G1 X663.669 Y54.119 E5.91922
G1 X621.514 Y56.269 E7.59296
G1 X616.317 Y56.280 E7.79906
G1 X613.727 Y55.883 E7.90295
G1 X611.376 Y54.726 E8.00684
G1 X609.480 Y52.918 E8.11073
G1 X608.299 Y50.844 E8.20536
G1 X607.443 Y48.695 E8.29711
G1 X606.829 Y45.500 E8.42611
G1 X606.829 Y34.590 E8.85872
G1 X607.145 Y34.500 F6000.000
G1 F1680
G1 X607.542 Y31.959 E8.96069
G1 X608.697 Y29.662 E9.06265
G1 X610.499 Y27.827 E9.16462
G1 X612.775 Y26.630 E9.26658
G1 X615.460 Y26.185 E9.37453
G1 X663.230 Y26.185 E11.26873
G1 X665.770 Y26.582 E11.37070
G1 X668.068 Y27.737 E11.47266
G1 X669.903 Y29.539 E11.57463
G1 X671.099 Y31.814 E11.67659
G1 X671.545 Y34.500 E11.78454
G1 X671.545 Y45.500 E12.22072
G1 X671.147 Y48.041 E12.32269
G1 X669.993 Y50.338 E12.42465
G1 X668.191 Y52.173 E12.52662
G1 X665.915 Y53.370 E12.62858
G1 X663.653 Y53.805 E12.71992
G1 X621.498 Y55.954 E14.39367
G1 X616.317 Y55.965 E14.59912
G1 X613.776 Y55.567 E14.70109
G1 X611.479 Y54.413 E14.80305
G1 X609.644 Y52.611 E14.90502
G1 X608.592 Y50.728 E14.99056
G1 X607.735 Y48.578 E15.08232
G1 X607.145 Y45.500 E15.20660
G1 X607.145 Y34.590 E15.63921
G1 E13.63921 F2400.00000
G92 E0
G1 X661.776 Y44.047 F6000.000
G1 E2.00000 F2400.00000
G1 F2100
G1 X616.913 Y44.047 E3.77895
G1 X616.913 Y35.953 E4.09988
G1 X661.776 Y35.953 E5.87883
G1 X661.776 Y43.957 E6.19618
G1 X662.092 Y44.362 F6000.000
G1 F2100
G1 X616.598 Y44.362 E8.00014
G1 X616.598 Y35.638 E8.34608
G1 X662.092 Y35.638 E10.15003
G1 X662.092 Y44.272 E10.49240
G1 X662.407 Y44.677 F6000.000
G1 F2100
G1 X616.283 Y44.677 E12.32136
G1 X616.283 Y35.323 E12.69230
G1 X662.407 Y35.323 E14.52127
G1 X662.407 Y44.587 E14.88864
G1 X662.722 Y44.993 F6000.000
G1 F2100
G1 X615.967 Y44.993 E16.74261
G1 X615.967 Y35.007 E17.13856
G1 X662.722 Y35.007 E18.99253
G1 X662.722 Y44.903 E19.38491
G1 X663.038 Y45.308 F6000.000
G1 F1680
G1 X615.652 Y45.308 E21.26389
G1 X615.652 Y34.692 E21.68485
G1 X663.038 Y34.692 E23.56383
G1 X663.038 Y45.218 E23.98122
G1 X662.439 Y45.264 F6000.000
G1 E21.98122 F2400.00000
G92 E0
G1 X661.416 Y43.776 F6000.000
G1 E2.00000 F2400.00000
G1 F2100
G1 X661.506 Y43.687 E2.00505
G1 X661.506 Y43.237 E2.02302
G1 X660.967 Y43.776 E2.05348
G1 X660.517 Y43.776 E2.07145
G1 X661.506 Y42.788 E2.12732
G1 X661.506 Y42.338 E2.14528
G1 X660.068 Y43.776 E2.22656
G1 X659.618 Y43.776 E2.24453
G1 X661.506 Y41.889 E2.35122
G1 X661.506 Y41.439 E2.36919
G1 X659.169 Y43.776 E2.50129
G1 X658.719 Y43.776 E2.51926
G1 X661.506 Y40.990 E2.67677
G1 X661.506 Y40.540 E2.69474
G1 X658.270 Y43.776 E2.87766
G1 X657.820 Y43.776 E2.89563
G1 X661.506 Y40.090 E3.10396
G1 X661.506 Y39.641 E3.12193
G1 X657.371 Y43.776 E3.35567
G1 X656.921 Y43.776 E3.37364
G1 X661.506 Y39.191 E3.63280
G1 X661.506 Y38.742 E3.65076
G1 X656.472 Y43.776 E3.93533
G1 X656.022 Y43.776 E3.95330
G1 X661.506 Y38.292 E4.26327
G1 X661.506 Y37.843 E4.28124
G1 X655.572 Y43.776 E4.61662
G1 X655.123 Y43.776 E4.63459
G1 X661.506 Y37.393 E4.99539
G1 X661.506 Y36.944 E5.01335
G1 X654.673 Y43.776 E5.39956
G1 X654.224 Y43.776 E5.41753
G1 X661.506 Y36.494 E5.82914
G1 X661.506 Y36.224 E5.83995
G1 X661.326 Y36.224 E5.84711
G1 X653.774 Y43.776 E6.27401
G1 X653.325 Y43.776 E6.29198
G1 X660.877 Y36.224 E6.71887
G1 X660.427 Y36.224 E6.73684
G1 X652.875 Y43.776 E7.16374
G1 X652.426 Y43.776 E7.18171
G1 X659.978 Y36.224 E7.60860
G1 X659.528 Y36.224 E7.62657
G1 X651.976 Y43.776 E8.05347
G1 X651.527 Y43.776 E8.07143
G1 X659.079 Y36.224 E8.49833
G1 X658.629 Y36.224 E8.51630
G1 X651.077 Y43.776 E8.94320
G1 X650.628 Y43.776 E8.96116
G1 X658.180 Y36.224 E9.38806
G1 X657.730 Y36.224 E9.40603
G1 X650.178 Y43.776 E9.83293
G1 X649.729 Y43.776 E9.85089
G1 X657.281 Y36.224 E10.27779
G1 X656.831 Y36.224 E10.29576
G1 X649.279 Y43.776 E10.72266
G1 X648.830 Y43.776 E10.74062
G1 X656.382 Y36.224 E11.16752
G1 X655.932 Y36.224 E11.18549
G1 X648.380 Y43.776 E11.61239
G1 X647.931 Y43.776 E11.63035
G1 X655.483 Y36.224 E12.05725
G1 X655.033 Y36.224 E12.07522
G1 X647.481 Y43.776 E12.50211
G1 X647.032 Y43.776 E12.52008
G1 X654.584 Y36.224 E12.94698
G1 X654.134 Y36.224 E12.96495
G1 X646.582 Y43.776 E13.39184
G1 X646.133 Y43.776 E13.40981
G1 X653.685 Y36.224 E13.83671
G1 X653.235 Y36.224 E13.85468
G1 X645.683 Y43.776 E14.28157
G1 X645.234 Y43.776 E14.29954
G1 X652.786 Y36.224 E14.72644
G1 X652.336 Y36.224 E14.74441
G1 X644.784 Y43.776 E15.17130
G1 X644.335 Y43.776 E15.18927
G1 X651.886 Y36.224 E15.61617
G1 X651.437 Y36.224 E15.63414
G1 X643.885 Y43.776 E16.06103
G1 X643.435 Y43.776 E16.07900
G1 X650.987 Y36.224 E16.50590
G1 X650.538 Y36.224 E16.52387
G1 X642.986 Y43.776 E16.95076
G1 X642.536 Y43.776 E16.96873
G1 X650.088 Y36.224 E17.39563
G1 X649.639 Y36.224 E17.41360
G1 X642.087 Y43.776 E17.84049
G1 X641.637 Y43.776 E17.85846
G1 X649.189 Y36.224 E18.28536
G1 X648.740 Y36.224 E18.30332
G1 X641.188 Y43.776 E18.73022
G1 X640.738 Y43.776 E18.74819
G1 X648.290 Y36.224 E19.17509
G1 X647.841 Y36.224 E19.19305
G1 X640.289 Y43.776 E19.61995
G1 X639.839 Y43.776 E19.63792
G1 X647.391 Y36.224 E20.06482
G1 X646.942 Y36.224 E20.08278
G1 X639.390 Y43.776 E20.50968
G1 X638.940 Y43.776 E20.52765
G1 X646.492 Y36.224 E20.95455
G1 X646.043 Y36.224 E20.97251
G1 X638.491 Y43.776 E21.39941
G1 X638.041 Y43.776 E21.41738
G1 X645.593 Y36.224 E21.84427
G1 X645.144 Y36.224 E21.86224
G1 X637.592 Y43.776 E22.28914
G1 X637.142 Y43.776 E22.30711
G1 X644.694 Y36.224 E22.73400
G1 X644.245 Y36.224 E22.75197
G1 X636.693 Y43.776 E23.17887
G1 X636.243 Y43.776 E23.19684
G1 X643.795 Y36.224 E23.62373
G1 X643.346 Y36.224 E23.64170
G1 X635.794 Y43.776 E24.06860
G1 X635.344 Y43.776 E24.08657
G1 X642.896 Y36.224 E24.51346
G1 X642.447 Y36.224 E24.53143
G1 X634.895 Y43.776 E24.95833
G1 X634.445 Y43.776 E24.97630
G1 X641.997 Y36.224 E25.40319
G1 X641.548 Y36.224 E25.42116
G1 X633.996 Y43.776 E25.84806
G1 X633.546 Y43.776 E25.86603
G1 X641.098 Y36.224 E26.29292
G1 X640.649 Y36.224 E26.31089
G1 X633.097 Y43.776 E26.73779
G1 X632.647 Y43.776 E26.75575
G1 X640.199 Y36.224 E27.18265
G1 X639.749 Y36.224 E27.20062
G1 X632.198 Y43.776 E27.62752
G1 X631.748 Y43.776 E27.64548
G1 X639.300 Y36.224 E28.07238
G1 X638.850 Y36.224 E28.09035
G1 X631.298 Y43.776 E28.51725
G1 X630.849 Y43.776 E28.53521
G1 X638.401 Y36.224 E28.96211
G1 X637.951 Y36.224 E28.98008
G1 X630.399 Y43.776 E29.40698
G1 X629.950 Y43.776 E29.42494
G1 X637.502 Y36.224 E29.85184
G1 X637.052 Y36.224 E29.86981
G1 X629.500 Y43.776 E30.29671
G1 X629.051 Y43.776 E30.31467
G1 X636.603 Y36.224 E30.74157
G1 X636.153 Y36.224 E30.75954
G1 X628.601 Y43.776 E31.18643
G1 X628.152 Y43.776 E31.20440
G1 X635.704 Y36.224 E31.63130
G1 X635.254 Y36.224 E31.64927
G1 X627.702 Y43.776 E32.07616
G1 X627.253 Y43.776 E32.09413
G1 X634.805 Y36.224 E32.52103
G1 X634.355 Y36.224 E32.53900
G1 X626.803 Y43.776 E32.96589
G1 X626.354 Y43.776 E32.98386
G1 X633.906 Y36.224 E33.41076
G1 X633.456 Y36.224 E33.42873
G1 X625.904 Y43.776 E33.85562
G1 X625.455 Y43.776 E33.87359
G1 X633.007 Y36.224 E34.30049
G1 X632.557 Y36.224 E34.31846
G1 X625.005 Y43.776 E34.74535
G1 X624.556 Y43.776 E34.76332
G1 X632.108 Y36.224 E35.19022
G1 X631.658 Y36.224 E35.20819
G1 X624.106 Y43.776 E35.63508
G1 X623.657 Y43.776 E35.65305
G1 X631.209 Y36.224 E36.07995
G1 X630.759 Y36.224 E36.09791
G1 X623.207 Y43.776 E36.52481
G1 X622.758 Y43.776 E36.54278
G1 X630.310 Y36.224 E36.96968
G1 X629.860 Y36.224 E36.98764
G1 X622.308 Y43.776 E37.41454
G1 X621.859 Y43.776 E37.43251
G1 X629.411 Y36.224 E37.85941
G1 X628.961 Y36.224 E37.87737
G1 X621.409 Y43.776 E38.30427
G1 X620.960 Y43.776 E38.32224
G1 X628.511 Y36.224 E38.74914
G1 X628.062 Y36.224 E38.76710
G1 X620.510 Y43.776 E39.19400
G1 X620.060 Y43.776 E39.21197
G1 X627.612 Y36.224 E39.63886
G1 X627.163 Y36.224 E39.65683
G1 X619.611 Y43.776 E40.08373
G1 X619.161 Y43.776 E40.10170
G1 X626.713 Y36.224 E40.52859
G1 X626.264 Y36.224 E40.54656
G1 X618.712 Y43.776 E40.97346
G1 X618.262 Y43.776 E40.99143
G1 X625.814 Y36.224 E41.41832
G1 X625.365 Y36.224 E41.43629
G1 X617.813 Y43.776 E41.86319
G1 X617.363 Y43.776 E41.88116
G1 X624.915 Y36.224 E42.30805
G1 X624.466 Y36.224 E42.32602
G1 X617.184 Y43.506 E42.73764
G1 X617.184 Y43.056 E42.75560
G1 X624.016 Y36.224 E43.14181
G1 X623.567 Y36.224 E43.15978
G1 X617.184 Y42.607 E43.52057
G1 X617.184 Y42.157 E43.53854
G1 X623.117 Y36.224 E43.87393
G1 X622.668 Y36.224 E43.89189
G1 X617.184 Y41.708 E44.20187
G1 X617.184 Y41.258 E44.21984
G1 X622.218 Y36.224 E44.50440
G1 X621.769 Y36.224 E44.52237
G1 X617.184 Y40.809 E44.78152
G1 X617.184 Y40.359 E44.79949
G1 X621.319 Y36.224 E45.03324
G1 X620.870 Y36.224 E45.05120
G1 X617.184 Y39.910 E45.25954
G1 X617.184 Y39.460 E45.27750
G1 X620.420 Y36.224 E45.46043
G1 X619.971 Y36.224 E45.47839
G1 X617.184 Y39.010 E45.63591
G1 X617.184 Y38.561 E45.65388
G1 X619.521 Y36.224 E45.78598
G1 X619.072 Y36.224 E45.80395
G1 X617.184 Y38.111 E45.91064
G1 X617.184 Y37.662 E45.92860
G1 X618.622 Y36.224 E46.00989
G1 X618.173 Y36.224 E46.02785
G1 X617.184 Y37.212 E46.08372
G1 X617.184 Y36.763 E46.10169
G1 X617.723 Y36.224 E46.13215
G1 X617.274 Y36.224 E46.15012
G1 X617.184 Y36.313 E46.15516
G1 U0.620 V0.620 Z0.620 F6000.000
G1 X659.887 Y42.158 F6000.000
G1 F3000
G1 X618.471 Y42.158 E49.94228
G1 X618.471 Y37.842 E50.33685
G1 X659.887 Y37.842 E54.12397
G1 X659.887 Y42.068 E54.51030
G1 X660.663 Y42.933 F6000.000
G1 F3000
G1 X617.695 Y42.933 E58.43927
G1 X617.695 Y37.067 E58.97568
G1 X660.663 Y37.067 E62.90464
G1 X660.663 Y42.843 E63.43282
G1 X661.438 Y43.709 F6000.000
G1 F3000
G1 X616.919 Y43.709 E67.50363
G1 X616.919 Y36.291 E68.18189
G1 X661.438 Y36.291 E72.25270
G1 X661.438 Y43.619 E72.92272
G1 X662.214 Y44.484 F6000.000
G1 F3000
G1 X616.144 Y44.484 E77.13538
G1 X616.144 Y35.516 E77.95548
G1 X662.214 Y35.516 E82.16813
G1 X662.214 Y44.394 E82.98000
G1 X662.900 Y45.170 F6000.000
G1 F2400
G1 X615.458 Y45.170 E86.31130
G1 X615.458 Y34.830 E87.03737
G1 X662.900 Y34.830 E90.36867
G1 X662.900 Y45.080 E91.08841
G1 X662.301 Y45.127 F6000.000
G1 X659.221 Y38.728 F6000.000
G1 F3000
G1 X659.002 Y38.508 E91.11744
G1 X657.880 Y38.508 E91.22235
G1 X659.221 Y39.850 E91.39975
G1 X659.221 Y40.972 E91.50466
G1 X656.758 Y38.508 E91.83042
G1 X655.636 Y38.508 E91.93533
G1 X658.619 Y41.492 E92.32987
G1 X657.498 Y41.492 E92.43478
G1 X654.514 Y38.508 E92.82932
G1 X653.393 Y38.508 E92.93423
G1 X656.376 Y41.492 E93.32877
G1 X655.254 Y41.492 E93.43368
G1 X652.271 Y38.508 E93.82822
G1 X651.149 Y38.508 E93.93313
G1 X654.132 Y41.492 E94.32767
G1 X653.010 Y41.492 E94.43258
G1 X650.027 Y38.508 E94.82712
G1 X648.905 Y38.508 E94.93203
G1 X651.889 Y41.492 E95.32657
G1 X650.767 Y41.492 E95.43148
G1 X647.784 Y38.508 E95.82602
G1 X646.662 Y38.508 E95.93093
G1 X649.645 Y41.492 E96.32548
G1 X648.523 Y41.492 E96.43038
G1 X645.540 Y38.508 E96.82493
G1 X644.418 Y38.508 E96.92983
G1 X647.401 Y41.492 E97.32438
G1 X646.280 Y41.492 E97.42929
G1 X643.296 Y38.508 E97.82383
G1 X642.175 Y38.508 E97.92874
G1 X645.158 Y41.492 E98.32328
G1 X644.036 Y41.492 E98.42819
G1 X641.053 Y38.508 E98.82273
G1 X639.931 Y38.508 E98.92764
G1 X642.914 Y41.492 E99.32218
G1 X641.792 Y41.492 E99.42709
G1 X638.809 Y38.508 E99.82163
G1 X637.687 Y38.508 E99.92654
G1 X640.670 Y41.492 E100.32108
G1 X639.549 Y41.492 E100.42599
G1 X636.565 Y38.508 E100.82053
G1 X635.444 Y38.508 E100.92544
G1 X638.427 Y41.492 E101.31998
G1 X637.305 Y41.492 E101.42489
G1 X634.322 Y38.508 E101.81943
G1 X633.200 Y38.508 E101.92434
G1 X636.183 Y41.492 E102.31889
G1 X635.061 Y41.492 E102.42379
G1 X632.078 Y38.508 E102.81834
G1 X630.956 Y38.508 E102.92324
G1 X633.940 Y41.492 E103.31779
G1 X632.818 Y41.492 E103.42270
G1 X629.835 Y38.508 E103.81724
G1 X628.713 Y38.508 E103.92215
G1 X631.696 Y41.492 E104.31669
G1 X630.574 Y41.492 E104.42160
G1 X627.591 Y38.508 E104.81614
G1 X626.469 Y38.508 E104.92105
G1 X629.452 Y41.492 E105.31559
G1 X628.331 Y41.492 E105.42050
G1 X625.347 Y38.508 E105.81504
G1 X624.226 Y38.508 E105.91995
G1 X627.209 Y41.492 E106.31449
G1 X626.087 Y41.492 E106.41940
G1 X623.104 Y38.508 E106.81394
G1 X621.982 Y38.508 E106.91885
G1 X624.965 Y41.492 E107.31339
G1 X623.843 Y41.492 E107.41830
G1 X620.860 Y38.508 E107.81284
G1 X619.738 Y38.508 E107.91775
G1 X622.721 Y41.492 E108.31230
G1 X621.600 Y41.492 E108.41720
G1 X619.136 Y39.028 E108.74297
G1 X619.136 Y40.150 E108.84788
G1 X620.478 Y41.492 E109.02528
G1 X619.356 Y41.492 E109.13019
G1 X619.136 Y41.272 E109.15923
G1 U0.920 V0.920 Z0.920 F6000.000
G1 X659.887 Y42.158 F6000.000
G1 F3000
G1 X618.149 Y42.158 E112.97573
G1 X618.149 Y37.842 E113.37029
G1 X659.887 Y37.842 E117.18679
G1 X659.887 Y42.068 E117.57313
G1 X660.663 Y42.933 F6000.000
G1 F3000
G1 X617.374 Y42.933 E121.53148
G1 X617.374 Y37.067 E122.06789
G1 X660.663 Y37.067 E126.02623
G1 X660.663 Y42.843 E126.55442
G1 X661.438 Y43.709 F6000.000
G1 F3000
G1 X616.598 Y43.709 E130.65461
G1 X616.598 Y36.291 E131.33286
G1 X661.438 Y36.291 E135.43305
G1 X661.438 Y43.619 E136.10308
G1 X662.214 Y44.484 F6000.000
G1 F3000
G1 X615.822 Y44.484 E140.34512
G1 X615.822 Y35.516 E141.16522
G1 X662.214 Y35.516 E145.40725
G1 X662.214 Y44.394 E146.21912
G1 X662.900 Y45.170 F6000.000
G1 F2400
G1 X615.137 Y45.170 E149.57299
G1 X615.137 Y34.830 E150.29905
G1 X662.900 Y34.830 E153.65291
G1 X662.900 Y45.080 E154.37266
G1 X662.301 Y45.127 F6000.000
G1 X659.002 Y41.492 F6000.000
G1 F3000
G1 X659.221 Y41.272 E154.40116
G1 X659.221 Y40.171 E154.50227
G1 X657.900 Y41.492 E154.67375
G1 X656.799 Y41.492 E154.77486
G1 X659.221 Y39.070 E155.08933
G1 X659.221 Y38.508 E155.14084
G1 X658.681 Y38.508 E155.19043
G1 X655.698 Y41.492 E155.57775
G1 X654.597 Y41.492 E155.67886
G1 X657.580 Y38.508 E156.06618
G1 X656.478 Y38.508 E156.16729
G1 X653.495 Y41.492 E156.55461
G1 X652.394 Y41.492 E156.65572
G1 X655.377 Y38.508 E157.04304
G1 X654.276 Y38.508 E157.14415
G1 X651.293 Y41.492 E157.53147
G1 X650.191 Y41.492 E157.63257
G1 X653.175 Y38.508 E158.01990
G1 X652.073 Y38.508 E158.12100
G1 X649.090 Y41.492 E158.50833
G1 X647.989 Y41.492 E158.60943
G1 X650.972 Y38.508 E158.99676
G1 X649.871 Y38.508 E159.09786
G1 X646.888 Y41.492 E159.48518
G1 X645.786 Y41.492 E159.58629
G1 X648.769 Y38.508 E159.97361
G1 X647.668 Y38.508 E160.07472
G1 X644.685 Y41.492 E160.46204
G1 X643.584 Y41.492 E160.56315
G1 X646.567 Y38.508 E160.95047
G1 X645.466 Y38.508 E161.05158
G1 X642.482 Y41.492 E161.43890
G1 X641.381 Y41.492 E161.54000
G1 X644.364 Y38.508 E161.92733
G1 X643.263 Y38.508 E162.02843
G1 X640.280 Y41.492 E162.41576
G1 X639.179 Y41.492 E162.51686
G1 X642.162 Y38.508 E162.90419
G1 X641.060 Y38.508 E163.00529
G1 X638.077 Y41.492 E163.39261
G1 X636.976 Y41.492 E163.49372
G1 X639.959 Y38.508 E163.88104
G1 X638.858 Y38.508 E163.98215
G1 X635.875 Y41.492 E164.36947
G1 X634.773 Y41.492 E164.47058
G1 X637.757 Y38.508 E164.85790
G1 X636.655 Y38.508 E164.95901
G1 X633.672 Y41.492 E165.34633
G1 X632.571 Y41.492 E165.44743
G1 X635.554 Y38.508 E165.83476
