; generated by Slic3r 1.3.0-dev on 2018-05-28 at 14:39:29

; external perimeters extrusion width = 0.66mm (7.15mm^3/s)
; perimeters extrusion width = 0.84mm (11.63mm^3/s)
; infill extrusion width = 0.75mm (10.28mm^3/s)
; solid infill extrusion width = 0.84mm (11.63mm^3/s)
; top infill extrusion width = 0.84mm (11.63mm^3/s)

M107
M104 S205 ; set temperature
G28 ; home all axes
G32; probe home individual Z axis
G29 S1; load bed mesh

; Filament gcode

M109 S205 ; set temperature and wait for it to be reached
G21 ; set units to millimeters
G90 ; use absolute coordinates
M82 ; use absolute distances for extrusion
G92 E0
M584 U3 Z2 V4; Actuate motors independently
G92 U10.000 V10.000 Z10.000
G1 U0.320 V0.320 Z0.320 F6000.000
G1 E-2.00000 F2400.00000
G92 E0
G1 X621.315 Y73.674 F6000.000
G1 E2.00000 F2400.00000
G1 F1680
G1 X621.713 Y71.084 E2.10389
G1 X622.869 Y68.733 E2.20778
G1 X624.678 Y66.837 E2.31168
G1 X627.672 Y65.348 E2.44428
G1 X641.123 Y61.674 E2.99718
G1 X643.397 Y61.369 E3.08815
G1 X663.397 Y61.369 E3.88121
G1 X665.986 Y61.767 E3.98510
G1 X668.337 Y62.923 E4.08900
G1 X670.233 Y64.732 E4.19289
G1 X671.499 Y67.026 E4.29678
G1 X672.027 Y70.000 E4.41656
G1 X672.027 Y90.000 E5.20962
G1 X671.630 Y92.590 E5.31351
G1 X670.473 Y94.941 E5.41740
G1 X668.665 Y96.836 E5.52129
G1 X665.735 Y98.308 E5.65129
G1 X652.683 Y101.982 E6.18894
G1 X650.345 Y102.304 E6.28255
G1 X629.946 Y102.304 E7.09143
G1 X627.356 Y101.907 E7.19532
G1 X625.005 Y100.750 E7.29921
G1 X623.110 Y98.942 E7.40311
G1 X621.844 Y96.648 E7.50700
G1 X621.315 Y93.674 E7.62677
G1 X621.315 Y73.764 E8.41627
G1 X621.631 Y73.674 F6000.000
G1 F1680
G1 X622.028 Y71.133 E8.51823
G1 X623.183 Y68.836 E8.62020
G1 X624.984 Y67.001 E8.72216
G1 X627.755 Y65.652 E8.84435
G1 X641.206 Y61.978 E9.39725
G1 X643.397 Y61.685 E9.48490
G1 X663.397 Y61.685 E10.27796
G1 X665.937 Y62.082 E10.37992
G1 X668.235 Y63.237 E10.48189
G1 X670.070 Y65.039 E10.58385
G1 X671.266 Y67.314 E10.68582
G1 X671.712 Y70.000 E10.79376
G1 X671.712 Y90.000 E11.58683
G1 X671.314 Y92.541 E11.68879
G1 X670.160 Y94.838 E11.79076
G1 X668.358 Y96.673 E11.89272
G1 X665.650 Y98.004 E12.01239
G1 X652.598 Y101.678 E12.55004
G1 X650.345 Y101.989 E12.64023
G1 X629.946 Y101.989 E13.44911
G1 X627.405 Y101.591 E13.55108
G1 X625.108 Y100.437 E13.65304
G1 X623.273 Y98.635 E13.75501
G1 X622.076 Y96.359 E13.85697
G1 X621.631 Y93.674 E13.96492
G1 X621.631 Y73.764 E14.75441
G1 E12.75441 F2400.00000
G92 E0
G1 X661.943 Y88.547 F6000.000
G1 E2.00000 F2400.00000
G1 F2100
G1 X644.850 Y88.547 E2.67781
G1 X644.850 Y71.453 E3.35561
G1 X661.943 Y71.453 E4.03342
G1 X661.943 Y88.457 E4.70765
G1 X662.259 Y88.862 F6000.000
G1 F2100
G1 X644.535 Y88.862 E5.41046
G1 X644.535 Y71.138 E6.11328
G1 X662.259 Y71.138 E6.81609
G1 X662.259 Y88.772 E7.51533
G1 X662.574 Y89.177 F6000.000
G1 F2100
G1 X644.219 Y89.177 E8.24315
G1 X644.219 Y70.823 E8.97097
G1 X662.574 Y70.823 E9.69879
G1 X662.574 Y89.087 E10.42304
G1 X662.889 Y89.493 F6000.000
G1 F2100
G1 X643.904 Y89.493 E11.17587
G1 X643.904 Y70.507 E11.92870
G1 X662.889 Y70.507 E12.68153
G1 X662.889 Y89.403 E13.43078
G1 X663.205 Y89.808 F6000.000
G1 F1680
G1 X643.589 Y89.808 E14.20862
G1 X643.589 Y70.192 E14.98645
G1 X663.205 Y70.192 E15.76429
G1 X663.205 Y89.718 E16.53855
G1 X662.625 Y89.653 F6000.000
G1 E14.53855 F2400.00000
G92 E0
G1 X661.583 Y88.276 F6000.000
G1 E2.00000 F2400.00000
G1 F2100
G1 X661.673 Y88.187 E2.00507
G1 X661.673 Y87.736 E2.02316
G1 X661.132 Y88.276 E2.05380
G1 X660.681 Y88.276 E2.07189
G1 X661.673 Y87.285 E2.12812
G1 X661.673 Y86.834 E2.14621
G1 X660.230 Y88.276 E2.22802
G1 X659.779 Y88.276 E2.24611
G1 X661.673 Y86.383 E2.35350
G1 X661.673 Y85.931 E2.37159
G1 X659.328 Y88.276 E2.50457
G1 X658.877 Y88.276 E2.52266
G1 X661.673 Y85.480 E2.68121
G1 X661.673 Y85.029 E2.69930
G1 X658.426 Y88.276 E2.88344
G1 X657.975 Y88.276 E2.90153
G1 X661.673 Y84.578 E3.11125
G1 X661.673 Y84.127 E3.12934
G1 X657.524 Y88.276 E3.36464
G1 X657.073 Y88.276 E3.38273
G1 X661.673 Y83.676 E3.64361
G1 X661.673 Y83.225 E3.66170
G1 X656.622 Y88.276 E3.94816
G1 X656.171 Y88.276 E3.96625
G1 X661.673 Y82.774 E4.27830
G1 X661.673 Y82.323 E4.29639
G1 X655.720 Y88.276 E4.63401
G1 X655.269 Y88.276 E4.65210
G1 X661.673 Y81.872 E5.01531
G1 X661.673 Y81.421 E5.03340
G1 X654.818 Y88.276 E5.42219
G1 X654.367 Y88.276 E5.44028
G1 X661.673 Y80.970 E5.85465
G1 X661.673 Y80.519 E5.87274
G1 X653.916 Y88.276 E6.31269
G1 X653.465 Y88.276 E6.33078
G1 X661.673 Y80.068 E6.79632
G1 X661.673 Y79.617 E6.81441
G1 X653.014 Y88.276 E7.30552
G1 X652.563 Y88.276 E7.32361
G1 X661.673 Y79.166 E7.84031
G1 X661.673 Y78.715 E7.85840
G1 X652.112 Y88.276 E8.40068
G1 X651.661 Y88.276 E8.41877
G1 X661.673 Y78.264 E8.98663
G1 X661.673 Y77.813 E9.00472
G1 X651.210 Y88.276 E9.59816
G1 X650.759 Y88.276 E9.61625
G1 X661.673 Y77.362 E10.23528
G1 X661.673 Y76.911 E10.25337
G1 X650.307 Y88.276 E10.89797
G1 X649.856 Y88.276 E10.91606
G1 X661.673 Y76.460 E11.58625
G1 X661.673 Y76.009 E11.60434
G1 X649.405 Y88.276 E12.30011
G1 X648.954 Y88.276 E12.31820
G1 X661.673 Y75.558 E13.03955
G1 X661.673 Y75.107 E13.05764
G1 X648.503 Y88.276 E13.80457
G1 X648.052 Y88.276 E13.82266
G1 X661.673 Y74.656 E14.59517
G1 X661.673 Y74.205 E14.61326
G1 X647.601 Y88.276 E15.41136
G1 X647.150 Y88.276 E15.42945
G1 X661.673 Y73.754 E16.25312
G1 X661.673 Y73.303 E16.27121
G1 X646.699 Y88.276 E17.12047
G1 X646.248 Y88.276 E17.13856
G1 X661.673 Y72.852 E18.01340
G1 X661.673 Y72.401 E18.03149
G1 X645.797 Y88.276 E18.93191
G1 X645.346 Y88.276 E18.95000
G1 X661.673 Y71.950 E19.87601
G1 X661.673 Y71.724 E19.88505
G1 X661.447 Y71.724 E19.89410
G1 X645.121 Y88.050 E20.82010
G1 X645.121 Y87.599 E20.83819
G1 X660.996 Y71.724 E21.73861
G1 X660.545 Y71.724 E21.75670
G1 X645.121 Y87.148 E22.63154
G1 X645.121 Y86.697 E22.64963
G1 X660.094 Y71.724 E23.49889
G1 X659.643 Y71.724 E23.51698
G1 X645.121 Y86.246 E24.34066
G1 X645.121 Y85.795 E24.35875
G1 X659.192 Y71.724 E25.15684
G1 X658.741 Y71.724 E25.17493
G1 X645.121 Y85.344 E25.94745
G1 X645.121 Y84.893 E25.96553
G1 X658.290 Y71.724 E26.71247
G1 X657.839 Y71.724 E26.73056
G1 X645.121 Y84.442 E27.45191
G1 X645.121 Y83.991 E27.47000
G1 X657.388 Y71.724 E28.16577
G1 X656.937 Y71.724 E28.18386
G1 X645.121 Y83.540 E28.85404
G1 X645.121 Y83.089 E28.87213
G1 X656.486 Y71.724 E29.51674
G1 X656.035 Y71.724 E29.53483
G1 X645.121 Y82.638 E30.15385
G1 X645.121 Y82.187 E30.17194
G1 X655.584 Y71.724 E30.76539
G1 X655.133 Y71.724 E30.78347
G1 X645.121 Y81.736 E31.35134
G1 X645.121 Y81.285 E31.36943
G1 X654.682 Y71.724 E31.91171
G1 X654.231 Y71.724 E31.92979
G1 X645.121 Y80.834 E32.44649
G1 X645.121 Y80.383 E32.46458
G1 X653.780 Y71.724 E32.95570
G1 X653.329 Y71.724 E32.97379
G1 X645.121 Y79.932 E33.43932
G1 X645.121 Y79.481 E33.45741
G1 X652.877 Y71.724 E33.89737
G1 X652.426 Y71.724 E33.91546
G1 X645.121 Y79.030 E34.32983
G1 X645.121 Y78.579 E34.34792
G1 X651.975 Y71.724 E34.73671
G1 X651.524 Y71.724 E34.75480
G1 X645.121 Y78.128 E35.11801
G1 X645.121 Y77.677 E35.13609
G1 X651.073 Y71.724 E35.47372
G1 X650.622 Y71.724 E35.49181
G1 X645.121 Y77.226 E35.80386
G1 X645.121 Y76.775 E35.82195
G1 X650.171 Y71.724 E36.10841
G1 X649.720 Y71.724 E36.12650
G1 X645.121 Y76.324 E36.38738
G1 X645.121 Y75.873 E36.40547
G1 X649.269 Y71.724 E36.64077
G1 X648.818 Y71.724 E36.65886
G1 X645.121 Y75.422 E36.86858
G1 X645.121 Y74.971 E36.88667
G1 X648.367 Y71.724 E37.07081
G1 X647.916 Y71.724 E37.08890
G1 X645.121 Y74.520 E37.24745
G1 X645.121 Y74.069 E37.26554
G1 X647.465 Y71.724 E37.39852
G1 X647.014 Y71.724 E37.41661
G1 X645.121 Y73.617 E37.52400
G1 X645.121 Y73.166 E37.54209
G1 X646.563 Y71.724 E37.62390
G1 X646.112 Y71.724 E37.64199
G1 X645.121 Y72.715 E37.69822
G1 X645.121 Y72.264 E37.71631
G1 X645.661 Y71.724 E37.74696
G1 X645.210 Y71.724 E37.76504
G1 X645.121 Y71.813 E37.77010
G1 U0.620 V0.620 Z0.620 F6000.000
G1 X660.054 Y86.658 F6000.000
G1 F3000
G1 X646.739 Y86.658 E38.98763
G1 X646.739 Y73.342 E40.20515
G1 X660.054 Y73.342 E41.42268
G1 X660.054 Y86.568 E42.63197
G1 X660.830 Y87.433 F6000.000
G1 F3000
G1 X645.963 Y87.433 E43.99134
G1 X645.963 Y72.567 E45.35071
G1 X660.830 Y72.567 E46.71008
G1 X660.830 Y87.343 E48.06122
G1 X661.605 Y88.209 F6000.000
G1 F3000
G1 X645.188 Y88.209 E49.56244
G1 X645.188 Y71.791 E51.06365
G1 X661.605 Y71.791 E52.56486
G1 X661.605 Y88.119 E54.05785
G1 X662.381 Y88.984 F6000.000
G1 F3000
G1 X644.412 Y88.984 E55.70091
G1 X644.412 Y71.016 E57.34397
G1 X662.381 Y71.016 E58.98703
G1 X662.381 Y88.894 E60.62186
G1 X663.067 Y89.670 F6000.000
G1 F2400
G1 X643.727 Y89.670 E61.97989
G1 X643.727 Y70.330 E63.33793
G1 X663.067 Y70.330 E64.69597
G1 X663.067 Y89.580 E66.04769
G1 X662.487 Y89.515 F6000.000
G1 X659.388 Y74.228 F6000.000
G1 F3000
G1 X659.169 Y74.008 E66.07668
G1 X658.048 Y74.008 E66.18132
G1 X659.388 Y75.348 E66.35829
G1 X659.388 Y76.469 E66.46293
G1 X656.928 Y74.008 E66.78787
G1 X655.808 Y74.008 E66.89251
G1 X659.388 Y77.589 E67.36544
G1 X659.388 Y78.709 E67.47007
G1 X654.687 Y74.008 E68.09098
G1 X653.567 Y74.008 E68.19561
G1 X659.388 Y79.830 E68.96450
G1 X659.388 Y80.950 E69.06913
G1 X652.447 Y74.008 E69.98599
G1 X651.326 Y74.008 E70.09063
G1 X659.388 Y82.070 E71.15547
G1 X659.388 Y83.191 E71.26010
G1 X650.206 Y74.008 E72.47292
G1 X649.086 Y74.008 E72.57755
G1 X659.388 Y84.311 E73.93835
G1 X659.388 Y85.431 E74.04298
G1 X647.965 Y74.008 E75.55175
G1 X647.405 Y74.008 E75.60407
G1 X647.405 Y74.569 E75.65639
G1 X658.828 Y85.992 E77.16516
G1 X657.708 Y85.992 E77.26980
G1 X647.405 Y75.689 E78.63059
G1 X647.405 Y76.809 E78.73523
G1 X656.587 Y85.992 E79.94804
G1 X655.467 Y85.992 E80.05268
G1 X647.405 Y77.930 E81.11752
G1 X647.405 Y79.050 E81.22215
G1 X654.347 Y85.992 E82.13901
G1 X653.226 Y85.992 E82.24365
G1 X647.405 Y80.170 E83.01253
G1 X647.405 Y81.291 E83.11717
G1 X652.106 Y85.992 E83.73808
G1 X650.986 Y85.992 E83.84271
G1 X647.405 Y82.411 E84.31564
G1 X647.405 Y83.531 E84.42028
G1 X649.865 Y85.992 E84.74523
G1 X648.745 Y85.992 E84.84986
G1 X647.405 Y84.652 E85.02684
G1 X647.405 Y85.772 E85.13147
G1 X647.624 Y85.991 E85.16045
G1 U0.920 V0.920 Z0.920 F6000.000
G1 X660.054 Y86.658 F6000.000
G1 F3000
G1 X646.739 Y86.658 E86.37797
G1 X646.739 Y73.342 E87.59550
G1 X660.054 Y73.342 E88.81302
G1 X660.054 Y86.568 E90.02232
G1 X660.830 Y87.433 F6000.000
G1 F3000
G1 X645.963 Y87.433 E91.38169
G1 X645.963 Y72.567 E92.74106
G1 X660.830 Y72.567 E94.10043
G1 X660.830 Y87.343 E95.45157
G1 X661.605 Y88.209 F6000.000
G1 F3000
G1 X645.188 Y88.209 E96.95278
G1 X645.188 Y71.791 E98.45400
G1 X661.605 Y71.791 E99.95521
G1 X661.605 Y88.119 E101.44820
G1 X662.381 Y88.984 F6000.000
G1 F3000
G1 X644.412 Y88.984 E103.09125
G1 X644.412 Y71.016 E104.73431
G1 X662.381 Y71.016 E106.37737
G1 X662.381 Y88.894 E108.01220
G1 X663.067 Y89.670 F6000.000
G1 F2400
G1 X643.727 Y89.670 E109.37024
G1 X643.727 Y70.330 E110.72828
G1 X663.067 Y70.330 E112.08631
G1 X663.067 Y89.580 E113.43803
G1 X662.487 Y89.515 F6000.000
G1 X659.169 Y85.992 F6000.000
G1 F3000
G1 X659.388 Y85.772 E113.46703
G1 X659.388 Y84.652 E113.57166
G1 X658.048 Y85.992 E113.74863
G1 X656.928 Y85.992 E113.85327
G1 X659.388 Y83.531 E114.17822
G1 X659.388 Y82.411 E114.28286
G1 X655.808 Y85.992 E114.75578
G1 X654.687 Y85.992 E114.86042
G1 X659.388 Y81.291 E115.48132
G1 X659.388 Y80.170 E115.58596
G1 X653.567 Y85.992 E116.35484
G1 X652.447 Y85.992 E116.45948
G1 X659.388 Y79.050 E117.37634
G1 X659.388 Y77.930 E117.48097
G1 X651.326 Y85.992 E118.54581
G1 X650.206 Y85.992 E118.65045
G1 X659.388 Y76.809 E119.86326
G1 X659.388 Y75.689 E119.96790
G1 X649.086 Y85.992 E121.32869
G1 X647.965 Y85.992 E121.43333
G1 X659.388 Y74.569 E122.94210
G1 X659.388 Y74.008 E122.99441
G1 X658.828 Y74.008 E123.04673
G1 X647.405 Y85.431 E124.55550
G1 X647.405 Y84.311 E124.66014
G1 X657.708 Y74.008 E126.02093
G1 X656.587 Y74.008 E126.12557
G1 X647.405 Y83.191 E127.33838
G1 X647.405 Y82.070 E127.44302
G1 X655.467 Y74.008 E128.50786
G1 X654.347 Y74.008 E128.61250
G1 X647.405 Y80.950 E129.52936
G1 X647.405 Y79.830 E129.63399
G1 X653.226 Y74.008 E130.40288
G1 X652.106 Y74.008 E130.50751
G1 X647.405 Y78.709 E131.12842
G1 X647.405 Y77.589 E131.23305
G1 X650.986 Y74.008 E131.70598
G1 X649.865 Y74.008 E131.81062
G1 X647.405 Y76.469 E132.13557
G1 X647.405 Y75.348 E132.24020
G1 X648.745 Y74.008 E132.41718
G1 X647.625 Y74.008 E132.52181
G1 X647.405 Y74.228 E132.55079
M106 S244.8
G1 U1.220 V1.220 Z1.220 F6000.000
G1 X660.054 Y86.658 F6000.000
G1 F3000
G1 X646.739 Y86.658 E133.76831
G1 X646.739 Y73.342 E134.98584
G1 X660.054 Y73.342 E136.20336
G1 X660.054 Y86.568 E137.41266
G1 X660.830 Y87.433 F6000.000
G1 F3000
G1 X645.963 Y87.433 E138.77203
G1 X645.963 Y72.567 E140.13140
G1 X660.830 Y72.567 E141.49077
G1 X660.830 Y87.343 E142.84191
G1 X661.605 Y88.209 F6000.000
G1 F3000
G1 X645.188 Y88.209 E144.34312
G1 X645.188 Y71.791 E145.84433
G1 X661.605 Y71.791 E147.34555
G1 X661.605 Y88.119 E148.83853
G1 X662.381 Y88.984 F6000.000
G1 F3000
G1 X644.412 Y88.984 E150.48159
G1 X644.412 Y71.016 E152.12465
G1 X662.381 Y71.016 E153.76771
G1 X662.381 Y88.894 E155.40254
G1 X663.067 Y89.670 F6000.000
G1 F2400
G1 X643.727 Y89.670 E156.76058
G1 X643.727 Y70.330 E158.11861
G1 X663.067 Y70.330 E159.47665
G1 X663.067 Y89.580 E160.82837
G1 X662.487 Y89.515 F6000.000
G1 X659.427 Y79.566 F6000.000
G1 F3000
G1 X653.830 Y73.970 E161.46809
G1 X647.366 Y73.970 E161.99058
G1 X659.427 Y86.030 E163.36922
G1 X652.963 Y86.030 E163.89170
G1 X647.366 Y80.434 E164.53143
G1 U1.520 V1.520 Z1.520 F6000.000
G1 X660.054 Y86.658 F6000.000
G1 F3000
G1 X646.739 Y86.658 E165.74895
G1 X646.739 Y73.342 E166.96648
G1 X660.054 Y73.342 E168.18400
G1 X660.054 Y86.568 E169.39330
G1 X660.830 Y87.433 F6000.000
G1 F3000
G1 X645.963 Y87.433 E170.75267
G1 X645.963 Y72.567 E172.11204
G1 X660.830 Y72.567 E173.47140
G1 X660.830 Y87.343 E174.82254
G1 X661.605 Y88.209 F6000.000
G1 F3000
G1 X645.188 Y88.209 E176.32376
G1 X645.188 Y71.791 E177.82497
G1 X661.605 Y71.791 E179.32619
G1 X661.605 Y88.119 E180.81917
G1 X662.381 Y88.984 F6000.000
G1 F3000
G1 X644.412 Y88.984 E182.46223
G1 X644.412 Y71.016 E184.10529
G1 X662.381 Y71.016 E185.74835
G1 X662.381 Y88.894 E187.38318
G1 X663.067 Y89.670 F6000.000
G1 F2400
G1 X643.727 Y89.670 E188.74121
G1 X643.727 Y70.330 E190.09925
G1 X663.067 Y70.330 E191.45729
G1 X663.067 Y89.580 E192.80901
G1 X662.487 Y89.515 F6000.000
G1 X653.830 Y86.030 F6000.000
G1 F3000
G1 X659.427 Y80.434 E193.44873
G1 X659.427 Y73.970 E193.97122
G1 X647.366 Y86.030 E195.34985
G1 X647.366 Y79.566 E195.87234
G1 X652.963 Y73.970 E196.51206
G1 U1.820 V1.820 Z1.820 F6000.000
G1 X660.054 Y86.658 F6000.000
G1 F3000
G1 X646.739 Y86.658 E197.72959
G1 X646.739 Y73.342 E198.94711
G1 X660.054 Y73.342 E200.16464
G1 X660.054 Y86.568 E201.37393
G1 X660.830 Y87.433 F6000.000
G1 F3000
G1 X645.963 Y87.433 E202.73330
G1 X645.963 Y72.567 E204.09267
G1 X660.830 Y72.567 E205.45204
G1 X660.830 Y87.343 E206.80318
G1 X661.605 Y88.209 F6000.000
G1 F3000
G1 X645.188 Y88.209 E208.30439
G1 X645.188 Y71.791 E209.80561
G1 X661.605 Y71.791 E211.30682
G1 X661.605 Y88.119 E212.79981
G1 X662.381 Y88.984 F6000.000
G1 F3000
G1 X644.412 Y88.984 E214.44287
G1 X644.412 Y71.016 E216.08592
G1 X662.381 Y71.016 E217.72898
G1 X662.381 Y88.894 E219.36381
G1 X663.067 Y89.670 F6000.000
G1 F2400
G1 X643.727 Y89.670 E220.72185
G1 X643.727 Y70.330 E222.07989
G1 X663.067 Y70.330 E223.43792
G1 X663.067 Y89.580 E224.78964
G1 X662.487 Y89.515 F6000.000
G1 X659.427 Y79.566 F6000.000
G1 F3000
G1 X653.830 Y73.970 E225.42937
G1 X647.366 Y73.970 E225.95185
G1 X659.427 Y86.030 E227.33049
G1 X652.963 Y86.030 E227.85298
G1 X647.366 Y80.434 E228.49270
G1 U2.120 V2.120 Z2.120 F6000.000
G1 X660.054 Y86.658 F6000.000
G1 F3000
G1 X646.739 Y86.658 E229.71022
G1 X646.739 Y73.342 E230.92775
G1 X660.054 Y73.342 E232.14527
G1 X660.054 Y86.568 E233.35457
G1 X660.830 Y87.433 F6000.000
G1 F3000
G1 X645.963 Y87.433 E234.71394
G1 X645.963 Y72.567 E236.07331
G1 X660.830 Y72.567 E237.43268
G1 X660.830 Y87.343 E238.78382
G1 X661.605 Y88.209 F6000.000
G1 F3000
G1 X645.188 Y88.209 E240.28503
G1 X645.188 Y71.791 E241.78624
G1 X661.605 Y71.791 E243.28746
