; generated by Slic3r 1.3.0-dev on 2018-06-29 at 15:52:40

; external perimeters extrusion width = 0.69mm (7.51mm^3/s)
; perimeters extrusion width = 0.60mm (8.03mm^3/s)
; infill extrusion width = 0.30mm (3.53mm^3/s)
; solid infill extrusion width = 0.30mm (2.83mm^3/s)
; top infill extrusion width = 0.30mm (2.26mm^3/s)

M107
G28 ; home all axes
G32; probe home individual Z axis
G29 S1; load bed mesh
M109 S205 ; set temperature and wait for it to be reached
M117 Purge extruder
G92 E0 ; reset extruder
G1 X400
G1 Z1.0 F3000.0 ; move z up little to prevent scratching of surface
G1 X400 Y20 Z0.3 F5000.0 ; move to start-line position
G1 X400 Y200.0 Z0.3 F1500.0 E15 ; draw 1st line
G1 X400.5 Y200.0 Z0.3 F5000.0 ; move to side a little
G1 X400.5 Y20 Z0.3 F1500.0 E30 ; draw 2nd line
; G1 E27 F3000 ; retract filament 3mm
G92 E0 ; reset extruder
; done purging extruder
G1 Z1.0 F3000 ; move z up little to prevent scratching of surface
M117 Printing!

; Filament gcode

G21 ; set units to millimeters
G90 ; use absolute coordinates
M82 ; use absolute distances for extrusion
G92 E0
M584 U3 Z2 V4; Actuate motors independently
G92 U10.000 V10.000 Z10.000
G1 U0.270 V0.270 Z0.270 F6000.000
G1 E-2.00000 F2400.00000
G92 E0
G1 X440.787 Y248.291 F6000.000
G1 E2.00000 F2400.00000
G1 F960
G1 X441.235 Y247.689 E2.03834
G1 X441.418 Y247.505 E2.05162
G1 X442.157 Y246.970 E2.09830
G1 X442.419 Y246.843 E2.11317
G1 X443.295 Y246.596 E2.15977
G1 X443.584 Y246.565 E2.17459
G1 X476.392 Y245.294 E3.85393
G1 X476.748 Y245.294 E3.87212
G1 X477.743 Y245.482 E3.92395
G1 X477.949 Y245.561 E3.93521
G1 X478.816 Y246.092 E3.98723
G1 X479.025 Y246.281 E4.00160
G1 X479.709 Y247.267 E4.06301
G1 X479.853 Y247.624 E4.08272
G1 X479.945 Y247.875 E4.09637
G1 X480.069 Y248.329 E4.12044
G1 X480.124 Y248.627 E4.13592
G1 X480.184 Y249.336 E4.17232
G1 X480.150 Y250.128 E4.21289
G1 X475.766 Y292.746 E6.40418
G1 X475.509 Y295.013 E6.52092
G1 X475.088 Y297.235 E6.63658
G1 X474.572 Y299.172 E6.73909
G1 X473.852 Y301.227 E6.85046
G1 X472.980 Y303.168 E6.95933
G1 X471.960 Y304.976 E7.06547
G1 X470.799 Y306.630 E7.16882
G1 X470.608 Y306.870 E7.18451
G1 X469.502 Y308.110 E7.26954
G1 X469.263 Y308.348 E7.28675
G1 X468.074 Y309.396 E7.36784
G1 X467.781 Y309.622 E7.38676
G1 X466.523 Y310.465 E7.46421
G1 X466.173 Y310.666 E7.48485
G1 X464.862 Y311.294 E7.55923
G1 X464.457 Y311.451 E7.58141
G1 X463.108 Y311.857 E7.65349
G1 X462.662 Y311.953 E7.67682
G1 X461.293 Y312.131 E7.74746
G1 X460.825 Y312.153 E7.77141
G1 X459.451 Y312.102 E7.84174
G1 X458.989 Y312.046 E7.86552
G1 X457.627 Y311.766 E7.93665
G1 X457.196 Y311.641 E7.95957
G1 X455.862 Y311.135 E8.03255
G1 X455.481 Y310.957 E8.05407
G1 X454.192 Y310.231 E8.12972
G1 X453.867 Y310.018 E8.14961
G1 X452.638 Y309.082 E8.22864
G1 X452.370 Y308.849 E8.24678
G1 X451.216 Y307.714 E8.32958
G1 X451.000 Y307.474 E8.34611
G1 X449.934 Y306.153 E8.43293
G1 X449.762 Y305.914 E8.44797
G1 X448.664 Y304.190 E8.55256
G1 X447.709 Y302.320 E8.65993
G1 X446.984 Y300.546 E8.75798
G1 X446.253 Y298.226 E8.88234
G1 X445.760 Y296.045 E8.99673
G1 X445.451 Y294.009 E9.10208
G1 X440.209 Y251.437 E11.29599
G1 X440.166 Y250.636 E11.33700
G1 X440.182 Y250.274 E11.35556
G1 X440.239 Y249.813 E11.37931
G1 X440.275 Y249.616 E11.38955
G1 X440.409 Y249.125 E11.41559
G1 X440.477 Y248.932 E11.42606
G1 X440.744 Y248.369 E11.45789
G1 X441.209 Y248.524 F6000.000
G1 F960
G1 X441.580 Y248.026 E11.48965
G1 X441.760 Y247.844 E11.50273
G1 X442.372 Y247.402 E11.54139
G1 X442.623 Y247.280 E11.55565
G1 X443.349 Y247.075 E11.59426
G1 X443.627 Y247.046 E11.60852
G1 X476.411 Y245.776 E13.28661
G1 X476.745 Y245.776 E13.30371
G1 X477.570 Y245.931 E13.34665
G1 X477.776 Y246.011 E13.35791
G1 X478.494 Y246.451 E13.40101
G1 X478.696 Y246.634 E13.41495
G1 X479.263 Y247.451 E13.46583
G1 X479.401 Y247.790 E13.48453
G1 X479.492 Y248.040 E13.49818
G1 X479.595 Y248.417 E13.51812
G1 X479.650 Y248.714 E13.53360
G1 X479.702 Y249.359 E13.56671
G1 X479.670 Y250.079 E13.60355
G1 X475.286 Y292.693 E15.79468
G1 X475.035 Y294.925 E15.90958
G1 X474.622 Y297.111 E16.02335
G1 X474.106 Y299.048 E16.12585
G1 X473.397 Y301.065 E16.23524
G1 X472.541 Y302.969 E16.34199
G1 X471.542 Y304.737 E16.44587
G1 X470.407 Y306.350 E16.54676
G1 X469.142 Y307.789 E16.64477
G1 X468.944 Y307.986 E16.65903
G1 X467.755 Y309.034 E16.74011
G1 X467.512 Y309.221 E16.75578
G1 X466.255 Y310.065 E16.83323
G1 X465.965 Y310.231 E16.85034
G1 X464.653 Y310.860 E16.92471
G1 X464.318 Y310.989 E16.94309
G1 X462.969 Y311.396 E17.01516
G1 X462.600 Y311.475 E17.03448
G1 X461.230 Y311.653 E17.10512
G1 X460.843 Y311.671 E17.12497
G1 X459.469 Y311.620 E17.19530
G1 X459.086 Y311.574 E17.21500
G1 X457.724 Y311.294 E17.28613
G1 X457.367 Y311.190 E17.30512
G1 X456.033 Y310.684 E17.37809
G1 X455.718 Y310.537 E17.39592
G1 X454.429 Y309.811 E17.47158
G1 X454.159 Y309.634 E17.48805
G1 X452.930 Y308.698 E17.56708
G1 X452.708 Y308.506 E17.58211
G1 X451.555 Y307.370 E17.66491
G1 X451.375 Y307.172 E17.67860
G1 X450.310 Y305.850 E17.76541
G1 X450.167 Y305.653 E17.77787
G1 X449.092 Y303.968 E17.88010
G1 X448.155 Y302.137 E17.98527
G1 X447.430 Y300.363 E18.08332
G1 X446.723 Y298.118 E18.20369
G1 X446.236 Y295.973 E18.31621
G1 X445.928 Y293.937 E18.42156
G1 X440.687 Y251.378 E20.61479
G1 X440.648 Y250.654 E20.65188
G1 X440.663 Y250.297 E20.67013
G1 X440.708 Y249.933 E20.68892
G1 X440.749 Y249.702 E20.70092
G1 X440.864 Y249.285 E20.72303
G1 X440.932 Y249.092 E20.73351
G1 X441.165 Y248.603 E20.76121
G1 X441.631 Y248.758 F6000.000
G1 F960
G1 X441.925 Y248.363 E20.78639
G1 X442.102 Y248.184 E20.79926
G1 X442.588 Y247.833 E20.82992
G1 X442.827 Y247.716 E20.84357
G1 X443.403 Y247.554 E20.87418
G1 X443.670 Y247.526 E20.88788
G1 X476.510 Y246.257 E22.56886
G1 X476.743 Y246.258 E22.58074
G1 X477.397 Y246.381 E22.61479
G1 X477.602 Y246.460 E22.62605
G1 X478.172 Y246.810 E22.66022
G1 X478.368 Y246.986 E22.67373
G1 X478.817 Y247.635 E22.71408
G1 X479.039 Y248.206 E22.74542
G1 X479.121 Y248.504 E22.76123
G1 X479.204 Y249.046 E22.78929
G1 X479.219 Y249.586 E22.81693
G1 X479.191 Y250.030 E22.83965
G1 X474.807 Y292.641 E25.03061
G1 X474.561 Y294.837 E25.14368
G1 X474.157 Y296.987 E25.25555
G1 X473.640 Y298.923 E25.35805
G1 X472.943 Y300.904 E25.46545
G1 X472.102 Y302.769 E25.57009
G1 X471.123 Y304.498 E25.67170
G1 X470.014 Y306.070 E25.77014
G1 X468.782 Y307.469 E25.86545
G1 X468.625 Y307.624 E25.87676
G1 X467.436 Y308.673 E25.95784
G1 X467.244 Y308.821 E25.97026
G1 X465.986 Y309.665 E26.04772
G1 X465.756 Y309.796 E26.06128
G1 X464.445 Y310.425 E26.13565
G1 X464.179 Y310.528 E26.15022
G1 X462.830 Y310.934 E26.22228
G1 X462.537 Y310.997 E26.23760
G1 X461.168 Y311.175 E26.30824
G1 X460.861 Y311.189 E26.32398
G1 X459.486 Y311.138 E26.39431
G1 X459.183 Y311.102 E26.40994
G1 X457.821 Y310.822 E26.48106
G1 X457.538 Y310.740 E26.49612
G1 X456.204 Y310.234 E26.56909
G1 X455.954 Y310.117 E26.58323
G1 X454.665 Y309.391 E26.65888
G1 X454.452 Y309.251 E26.67194
G1 X453.223 Y308.315 E26.75097
G1 X453.047 Y308.162 E26.76288
G1 X451.750 Y306.869 E26.85653
G1 X450.685 Y305.548 E26.94334
G1 X449.520 Y303.747 E27.05306
G1 X448.602 Y301.955 E27.15604
G1 X447.876 Y300.181 E27.25409
G1 X447.192 Y298.011 E27.37046
G1 X446.713 Y295.901 E27.48112
G1 X446.405 Y293.864 E27.58646
G1 X441.166 Y251.319 E29.77901
G1 X441.129 Y250.672 E29.81218
G1 X441.145 Y250.321 E29.83013
G1 X441.183 Y250.012 E29.84607
G1 X441.224 Y249.788 E29.85770
G1 X441.319 Y249.445 E29.87590
G1 X441.387 Y249.252 E29.88637
G1 X441.587 Y248.837 E29.90995
G1 X442.052 Y248.992 F6000.000
G1 F960
G1 X442.270 Y248.700 E29.92856
G1 X442.444 Y248.524 E29.94121
G1 X442.803 Y248.265 E29.96387
G1 X443.032 Y248.153 E29.97690
G1 X443.457 Y248.033 E29.99952
G1 X443.713 Y248.006 E30.01266
G1 X476.448 Y246.740 E31.68825
G1 X476.740 Y246.740 E31.70319
G1 X477.223 Y246.831 E31.72834
G1 X477.429 Y246.910 E31.73961
G1 X477.850 Y247.168 E31.76486
G1 X478.040 Y247.339 E31.77794
G1 X478.372 Y247.818 E31.80775
G1 X478.587 Y248.371 E31.83809
G1 X478.647 Y248.592 E31.84977
G1 X478.723 Y249.070 E31.87454
G1 X478.738 Y249.557 E31.89946
G1 X478.711 Y249.980 E31.92116
G1 X474.328 Y292.588 E34.11196
G1 X474.087 Y294.749 E34.22320
G1 X473.691 Y296.863 E34.33317
G1 X473.175 Y298.799 E34.43567
G1 X472.489 Y300.743 E34.54108
G1 X471.663 Y302.569 E34.64361
G1 X470.705 Y304.258 E34.74295
G1 X469.622 Y305.791 E34.83893
G1 X468.307 Y307.263 E34.93989
G1 X466.975 Y308.421 E35.03013
G1 X465.548 Y309.362 E35.11758
G1 X464.237 Y309.990 E35.19195
G1 X464.040 Y310.066 E35.20272
G1 X462.692 Y310.472 E35.27477
G1 X462.475 Y310.519 E35.28609
G1 X461.106 Y310.697 E35.35673
G1 X460.879 Y310.708 E35.36836
G1 X459.504 Y310.657 E35.43869
G1 X459.280 Y310.630 E35.45023
G1 X457.918 Y310.349 E35.52136
G1 X457.709 Y310.289 E35.53249
G1 X456.375 Y309.783 E35.60545
G1 X456.190 Y309.696 E35.61590
G1 X454.901 Y308.971 E35.69155
G1 X454.744 Y308.867 E35.70120
G1 X453.385 Y307.819 E35.78901
G1 X452.125 Y306.567 E35.87982
G1 X451.061 Y305.245 E35.96663
G1 X449.948 Y303.525 E36.07140
G1 X449.048 Y301.773 E36.17219
G1 X448.322 Y299.998 E36.27024
G1 X447.662 Y297.903 E36.38262
G1 X447.189 Y295.829 E36.49141
G1 X446.876 Y293.755 E36.59867
G1 X441.644 Y251.260 E38.78862
G1 X441.611 Y250.689 E38.81787
G1 X441.626 Y250.344 E38.83552
G1 X441.659 Y250.091 E38.84860
G1 X441.773 Y249.605 E38.87412
G1 X441.841 Y249.412 E38.88459
G1 X442.009 Y249.070 E38.90405
G1 X442.474 Y249.225 F6000.000
G1 F960
G1 X442.614 Y249.037 E38.91608
G1 X442.786 Y248.864 E38.92853
G1 X443.018 Y248.696 E38.94318
G1 X443.236 Y248.589 E38.95560
G1 X443.511 Y248.512 E38.97022
G1 X443.800 Y248.483 E38.98509
G1 X476.467 Y247.221 E40.65714
G1 X476.737 Y247.222 E40.67099
G1 X477.050 Y247.281 E40.68726
G1 X477.255 Y247.360 E40.69852
G1 X477.528 Y247.527 E40.71485
G1 X477.711 Y247.692 E40.72750
G1 X477.926 Y248.002 E40.74678
G1 X478.134 Y248.537 E40.77611
G1 X478.241 Y249.094 E40.80512
G1 X478.257 Y249.527 E40.82732
G1 X478.232 Y249.931 E40.84801
G1 X473.849 Y292.536 E43.03865
G1 X473.613 Y294.662 E43.14805
G1 X473.225 Y296.738 E43.25612
G1 X472.709 Y298.675 E43.35862
G1 X472.035 Y300.581 E43.46204
G1 X471.224 Y302.370 E43.56247
G1 X470.286 Y304.019 E43.65954
G1 X469.229 Y305.511 E43.75306
G1 X468.063 Y306.827 E43.84299
G1 X466.707 Y308.020 E43.93538
G1 X465.339 Y308.927 E44.01930
G1 X463.901 Y309.605 E44.10060
G1 X462.553 Y310.011 E44.17264
G1 X461.043 Y310.219 E44.25058
G1 X459.522 Y310.175 E44.32841
G1 X457.880 Y309.838 E44.41415
G1 X456.427 Y309.276 E44.49385
G1 X455.138 Y308.551 E44.56950
G1 X453.723 Y307.475 E44.66042
G1 X452.501 Y306.264 E44.74840
G1 X451.436 Y304.943 E44.83520
G1 X450.376 Y303.304 E44.93503
G1 X449.494 Y301.590 E45.03363
G1 X448.743 Y299.746 E45.13544
G1 X448.132 Y297.795 E45.24006
G1 X447.679 Y295.822 E45.34358
G1 X447.355 Y293.696 E45.45356
G1 X442.122 Y251.201 E47.64351
G1 X442.093 Y250.707 E47.66884
G1 X442.118 Y250.267 E47.69138
G1 X442.203 Y249.840 E47.71367
G1 X442.296 Y249.572 E47.72814
G1 X442.430 Y249.304 E47.74348
G1 E45.74348 F2400.00000
G92 E0
G1 X472.768 Y290.623 F6000.000
G1 E2.00000 F2400.00000
G1 F960
G1 X472.703 Y292.420 E2.09195
G1 X472.479 Y294.461 E2.19697
G1 X472.109 Y296.452 E2.30053
G1 X471.598 Y298.367 E2.40194
G1 X470.953 Y300.185 E2.50058
G1 X470.181 Y301.881 E2.59591
G1 X469.293 Y303.436 E2.68751
G1 X468.299 Y304.831 E2.77508
G1 X467.214 Y306.048 E2.85850
G1 X466.050 Y307.074 E2.93783
G1 X464.824 Y307.896 E3.01338
G1 X463.554 Y308.505 E3.08542
G1 X462.242 Y308.901 E3.15550
G1 X460.917 Y309.074 E3.22385
G1 X459.588 Y309.024 E3.29188
G1 X458.269 Y308.753 E3.36076
G1 X456.978 Y308.264 E3.43133
G1 X455.719 Y307.556 E3.50523
G1 X454.519 Y306.642 E3.58241
G1 X453.388 Y305.529 E3.66354
G1 X452.342 Y304.231 E3.74881
G1 X451.394 Y302.763 E3.83820
G1 X450.556 Y301.143 E3.93150
G1 X449.839 Y299.390 E4.02836
G1 X449.252 Y297.526 E4.12830
G1 X448.805 Y295.581 E4.23040
G1 X448.499 Y293.558 E4.33505
G1 X448.341 Y291.502 E4.44049
G1 X448.333 Y289.433 E4.54635
G1 X448.474 Y287.374 E4.65188
G1 X448.763 Y285.353 E4.75634
G1 X449.196 Y283.392 E4.85902
G1 X449.768 Y281.518 E4.95927
G1 X450.470 Y279.751 E5.05649
G1 X451.296 Y278.115 E5.15021
G1 X452.232 Y276.630 E5.24005
G1 X453.268 Y275.312 E5.32578
G1 X454.390 Y274.178 E5.40736
G1 X455.584 Y273.242 E5.48496
G1 X456.833 Y272.512 E5.55897
G1 X458.124 Y271.997 E5.63006
G1 X459.441 Y271.701 E5.69910
G1 X460.770 Y271.627 E5.76717
G1 X462.092 Y271.775 E5.83520
G1 X463.406 Y272.145 E5.90504
G1 X464.685 Y272.733 E5.97702
G1 X465.918 Y273.532 E6.05217
G1 X467.089 Y274.536 E6.13107
G1 X468.184 Y275.733 E6.21403
G1 X469.188 Y277.109 E6.30115
G1 X470.089 Y278.647 E6.39231
G1 X470.871 Y280.323 E6.48693
G1 X471.534 Y282.134 E6.58555
G1 X472.060 Y284.040 E6.68668
G1 X472.445 Y286.023 E6.79001
G1 X472.671 Y288.011 E6.89234
G1 X471.720 Y288.080 E6.94111
G1 X471.661 Y287.425 E6.97475
G1 X471.370 Y285.428 E7.07796
G1 X470.939 Y283.514 E7.17829
G1 X470.379 Y281.714 E7.27475
G1 X469.699 Y280.037 E7.36729
G1 X468.922 Y278.517 E7.45458
G1 X468.075 Y277.178 E7.53563
G1 X467.153 Y275.999 E7.61221
G1 X466.178 Y274.998 E7.68371
G1 X465.164 Y274.172 E7.75059
G1 X464.131 Y273.524 E7.81295
G1 X463.081 Y273.045 E7.87197
G1 X462.035 Y272.737 E7.92773
G1 X460.976 Y272.593 E7.98239
G1 X459.906 Y272.612 E8.03713
G1 X458.837 Y272.793 E8.09260
G1 X457.773 Y273.140 E8.14985
G1 X456.719 Y273.658 E8.20990
G1 X455.671 Y274.361 E8.27446
G1 X454.641 Y275.260 E8.34439
G1 X453.654 Y276.344 E8.41936
G1 X452.733 Y277.601 E8.49907
G1 X451.896 Y279.017 E8.58322
G1 X451.132 Y280.639 E8.67489
G1 X450.485 Y282.399 E8.77083
G1 X449.964 Y284.283 E8.87080
G1 X449.582 Y286.278 E8.97469
G1 X449.353 Y288.330 E9.08031
G1 X449.278 Y290.400 E9.18622
G1 X449.359 Y292.465 E9.29195
G1 X449.594 Y294.502 E9.39685
G1 X449.971 Y296.451 E9.49833
G1 X450.481 Y298.297 E9.59634
G1 X451.116 Y300.028 E9.69062
G1 X451.853 Y301.607 E9.77976
G1 X452.672 Y303.014 E9.86301
G1 X453.225 Y303.813 E9.91274
G1 X454.161 Y304.951 E9.98810
G1 X455.149 Y305.915 E10.05869
G1 X456.164 Y306.698 E10.12424
G1 X457.192 Y307.304 E10.18529
G1 X458.232 Y307.740 E10.24296
G1 X459.286 Y308.012 E10.29863
G1 X460.354 Y308.122 E10.35357
G1 X461.328 Y308.081 E10.40345
G1 X462.391 Y307.881 E10.45877
G1 X463.451 Y307.514 E10.51612
G1 X464.508 Y306.971 E10.57694
G1 X465.560 Y306.237 E10.64252
G1 X466.584 Y305.316 E10.71296
G1 X467.556 Y304.221 E10.78788
G1 X468.471 Y302.940 E10.86839
G1 X469.179 Y301.726 E10.94026
G1 X469.945 Y300.109 E11.03178
G1 X470.596 Y298.354 E11.12753
G1 X471.121 Y296.470 E11.22752
G1 X471.505 Y294.487 E11.33088
G1 X471.738 Y292.438 E11.43635
G1 X471.807 Y290.623 E11.52922
G1 X472.678 Y290.623 E11.57372
G1 X472.651 Y291.212 F6000.000
G1 X472.279 Y290.864 F6000.000
G1 F960
G1 X472.216 Y292.465 E11.64206
G1 X472.001 Y294.391 E11.72470
G1 X471.637 Y296.345 E11.80951
G1 X471.051 Y298.491 E11.90440
G1 X470.378 Y300.303 E11.98683
G1 X469.748 Y301.660 E12.05065
G1 X468.888 Y303.177 E12.12507
G1 X467.923 Y304.531 E12.19596
G1 X466.915 Y305.664 E12.26067
G1 X465.867 Y306.601 E12.32063
G1 X464.765 Y307.367 E12.37788
G1 X464.583 Y307.476 E12.38691
G1 X463.621 Y307.953 E12.43274
G1 X463.378 Y308.052 E12.44394
G1 X462.527 Y308.328 E12.48209
G1 X462.139 Y308.424 E12.49912
G1 X461.397 Y308.542 E12.53118
G1 X460.894 Y308.586 E12.55272
G1 X460.324 Y308.586 E12.57705
G1 X459.646 Y308.539 E12.60603
G1 X459.187 Y308.467 E12.62586
G1 X458.404 Y308.286 E12.66013
G1 X458.098 Y308.189 E12.67384
G1 X457.184 Y307.825 E12.71581
G1 X456.967 Y307.718 E12.72612
G1 X455.885 Y307.084 E12.77962
G1 X454.834 Y306.278 E12.83611
G1 X453.801 Y305.265 E12.89783
G1 X452.733 Y303.949 E12.97014
G1 X452.271 Y303.258 E13.00558
G1 X451.817 Y302.518 E13.04262
G1 X451.442 Y301.834 E13.07589
G1 X451.000 Y300.937 E13.11852
G1 X450.685 Y300.218 E13.15203
G1 X450.299 Y299.224 E13.19752
G1 X450.036 Y298.450 E13.23238
G1 X449.725 Y297.398 E13.27919
G1 X449.515 Y296.567 E13.31576
G1 X449.286 Y295.489 E13.36274
G1 X449.127 Y294.566 E13.40272
G1 X448.985 Y293.502 E13.44847
G1 X448.889 Y292.493 E13.49173
G1 X448.830 Y291.483 E13.53490
G1 X448.807 Y290.392 E13.58145
