; generated by Slic3r 1.3.0-dev on 2018-05-18 at 17:31:32

; external perimeters extrusion width = 0.44mm (3.18mm^3/s)
; perimeters extrusion width = 0.56mm (5.17mm^3/s)
; infill extrusion width = 0.50mm (4.57mm^3/s)
; solid infill extrusion width = 0.56mm (5.17mm^3/s)
; top infill extrusion width = 0.56mm (5.17mm^3/s)

M107
M104 S210 ; set temperature
G28 ; home all axes
G32; probe home individual Z axis
G29 S1; load bed mesh

; Filament gcode

M109 S210 ; set temperature and wait for it to be reached
G21 ; set units to millimeters
G90 ; use absolute coordinates
M82 ; use absolute distances for extrusion
G92 E0
M584 U3 Z2 V4; Actuate motors independently
G92 U10.000 V10.000 Z10.000
G1 U0.320 V0.320 Z0.320 F6000.000
G1 E-2.00000 F2400.00000
G92 E0
G1 X616.385 Y94.142 F6000.000
G1 E2.00000 F2400.00000
G1 F1680
G1 X616.769 Y93.212 E2.04221
G1 X617.700 Y92.826 E2.08447
G1 X637.700 Y92.826 E2.92349
G1 X638.630 Y93.211 E2.96570
G1 X639.015 Y94.142 E3.00796
G1 X639.015 Y116.888 E3.96220
G1 X638.631 Y117.818 E4.00440
G1 X637.700 Y118.203 E4.04666
G1 X617.700 Y118.203 E4.88569
G1 X616.770 Y117.819 E4.92790
G1 X616.385 Y116.888 E4.97015
G1 X616.385 Y94.202 E5.92187
G1 E3.92187 F2400.00000
G92 E0
G1 X636.247 Y112.689 F6000.000
G1 E2.00000 F2400.00000
G1 F2100
G1 X619.153 Y112.689 E2.71709
G1 X619.153 Y95.595 E3.43418
G1 X636.247 Y95.595 E4.15127
G1 X636.247 Y112.629 E4.86584
G1 X636.562 Y113.004 F6000.000
G1 F2100
G1 X618.838 Y113.004 E5.60939
G1 X618.838 Y95.280 E6.35294
G1 X636.562 Y95.280 E7.09648
G1 X636.562 Y112.944 E7.83751
G1 X636.877 Y113.319 F6000.000
G1 F2100
G1 X618.523 Y113.319 E8.60752
G1 X618.523 Y94.964 E9.37752
G1 X636.877 Y94.964 E10.14753
G1 X636.877 Y113.259 E10.91501
G1 X637.193 Y113.634 F6000.000
G1 F2100
G1 X618.207 Y113.634 E11.71147
G1 X618.207 Y94.649 E12.50793
G1 X637.193 Y94.649 E13.30439
G1 X637.193 Y113.574 E14.09834
G1 X637.508 Y113.950 F6000.000
G1 F1680
G1 X617.892 Y113.950 E14.92125
G1 X617.892 Y94.334 E15.74417
G1 X637.508 Y94.334 E16.56709
G1 X637.508 Y113.890 E17.38749
G1 X637.122 Y113.846 F6000.000
G1 E15.38749 F2400.00000
G92 E0
G1 X635.887 Y112.418 F6000.000
G1 E2.00000 F2400.00000
G1 F2100
G1 X635.976 Y112.328 E2.00536
G1 X635.976 Y111.877 E2.02450
G1 X635.436 Y112.418 E2.05692
G1 X634.985 Y112.418 E2.07606
G1 X635.976 Y111.426 E2.13555
G1 X635.976 Y110.975 E2.15469
G1 X634.534 Y112.418 E2.24124
G1 X634.083 Y112.418 E2.26038
G1 X635.976 Y110.524 E2.37399
G1 X635.976 Y110.073 E2.39313
G1 X633.632 Y112.418 E2.53381
G1 X633.180 Y112.418 E2.55295
G1 X635.976 Y109.622 E2.72070
G1 X635.976 Y109.171 E2.73983
G1 X632.729 Y112.418 E2.93464
G1 X632.278 Y112.418 E2.95378
G1 X635.976 Y108.720 E3.17565
G1 X635.976 Y108.269 E3.19479
G1 X631.827 Y112.418 E3.44373
G1 X631.376 Y112.418 E3.46287
G1 X635.976 Y107.818 E3.73887
G1 X635.976 Y107.367 E3.75801
G1 X630.925 Y112.418 E4.06108
G1 X630.474 Y112.418 E4.08021
G1 X635.976 Y106.916 E4.41034
G1 X635.976 Y106.465 E4.42948
G1 X630.023 Y112.418 E4.78668
G1 X629.572 Y112.418 E4.80582
G1 X635.976 Y106.014 E5.19008
G1 X635.976 Y105.563 E5.20921
G1 X629.121 Y112.418 E5.62054
G1 X628.670 Y112.418 E5.63967
G1 X635.976 Y105.112 E6.07806
G1 X635.976 Y104.661 E6.09720
G1 X628.219 Y112.418 E6.56265
G1 X627.768 Y112.418 E6.58179
G1 X635.976 Y104.210 E7.07431
G1 X635.976 Y103.759 E7.09345
G1 X627.317 Y112.418 E7.61303
G1 X626.866 Y112.418 E7.63216
G1 X635.976 Y103.308 E8.17881
G1 X635.976 Y102.857 E8.19795
G1 X626.415 Y112.418 E8.77166
G1 X625.964 Y112.418 E8.79080
G1 X635.976 Y102.406 E9.39157
G1 X635.976 Y101.955 E9.41071
G1 X625.513 Y112.418 E10.03855
G1 X625.062 Y112.418 E10.05768
G1 X635.976 Y101.504 E10.71259
G1 X635.976 Y101.053 E10.73172
G1 X624.611 Y112.418 E11.41369
G1 X624.160 Y112.418 E11.43283
G1 X635.976 Y100.602 E12.14186
G1 X635.976 Y100.151 E12.16100
G1 X623.709 Y112.418 E12.89709
G1 X623.258 Y112.418 E12.91623
G1 X635.976 Y99.700 E13.67939
G1 X635.976 Y99.249 E13.69853
G1 X622.807 Y112.418 E14.48875
G1 X622.356 Y112.418 E14.50789
G1 X635.976 Y98.798 E15.32518
G1 X635.976 Y98.347 E15.34432
G1 X621.905 Y112.418 E16.18867
G1 X621.454 Y112.418 E16.20781
G1 X635.976 Y97.895 E17.07922
G1 X635.976 Y97.444 E17.09836
G1 X621.003 Y112.418 E17.99684
G1 X620.552 Y112.418 E18.01598
G1 X635.976 Y96.993 E18.94153
G1 X635.976 Y96.542 E18.96066
G1 X620.101 Y112.418 E19.91327
G1 X619.650 Y112.418 E19.93241
G1 X635.976 Y96.091 E20.91208
G1 X635.976 Y95.866 E20.92165
G1 X635.750 Y95.866 E20.93122
G1 X619.424 Y112.192 E21.91090
G1 X619.424 Y111.741 E21.93003
G1 X635.299 Y95.866 E22.88264
G1 X634.848 Y95.866 E22.90178
G1 X619.424 Y111.290 E23.82733
G1 X619.424 Y110.839 E23.84647
G1 X634.397 Y95.866 E24.74495
G1 X633.946 Y95.866 E24.76408
G1 X619.424 Y110.388 E25.63550
G1 X619.424 Y109.937 E25.65464
G1 X633.495 Y95.866 E26.49899
G1 X633.044 Y95.866 E26.51813
G1 X619.424 Y109.486 E27.33542
G1 X619.424 Y109.035 E27.35456
G1 X632.593 Y95.866 E28.14478
G1 X632.142 Y95.866 E28.16392
G1 X619.424 Y108.584 E28.92708
G1 X619.424 Y108.133 E28.94622
G1 X631.691 Y95.866 E29.68231
G1 X631.240 Y95.866 E29.70145
G1 X619.424 Y107.682 E30.41048
G1 X619.424 Y107.231 E30.42962
G1 X630.789 Y95.866 E31.11159
G1 X630.338 Y95.866 E31.13072
G1 X619.424 Y106.780 E31.78563
G1 X619.424 Y106.329 E31.80476
G1 X629.887 Y95.866 E32.43260
G1 X629.436 Y95.866 E32.45174
G1 X619.424 Y105.878 E33.05252
G1 X619.424 Y105.427 E33.07165
G1 X628.985 Y95.866 E33.64536
G1 X628.534 Y95.866 E33.66450
G1 X619.424 Y104.976 E34.21115
G1 X619.424 Y104.525 E34.23028
G1 X628.083 Y95.866 E34.74987
G1 X627.632 Y95.866 E34.76900
G1 X619.424 Y104.074 E35.26152
G1 X619.424 Y103.623 E35.28066
G1 X627.181 Y95.866 E35.74611
G1 X626.730 Y95.866 E35.76525
G1 X619.424 Y103.172 E36.20364
G1 X619.424 Y102.721 E36.22278
G1 X626.279 Y95.866 E36.63410
G1 X625.828 Y95.866 E36.65324
G1 X619.424 Y102.270 E37.03750
G1 X619.424 Y101.819 E37.05664
G1 X625.377 Y95.866 E37.41383
G1 X624.926 Y95.866 E37.43297
G1 X619.424 Y101.368 E37.76310
G1 X619.424 Y100.917 E37.78224
G1 X624.475 Y95.866 E38.08531
G1 X624.024 Y95.866 E38.10444
G1 X619.424 Y100.465 E38.38045
G1 X619.424 Y100.014 E38.39958
G1 X623.573 Y95.866 E38.64852
G1 X623.122 Y95.866 E38.66766
G1 X619.424 Y99.563 E38.88954
G1 X619.424 Y99.112 E38.90867
G1 X622.671 Y95.866 E39.10348
G1 X622.220 Y95.866 E39.12262
G1 X619.424 Y98.661 E39.29037
G1 X619.424 Y98.210 E39.30950
G1 X621.769 Y95.866 E39.45019
G1 X621.318 Y95.866 E39.46932
G1 X619.424 Y97.759 E39.58294
G1 X619.424 Y97.308 E39.60208
G1 X620.866 Y95.866 E39.68863
G1 X620.415 Y95.866 E39.70777
G1 X619.424 Y96.857 E39.76726
G1 X619.424 Y96.406 E39.78640
G1 X619.964 Y95.866 E39.81882
G1 X619.513 Y95.866 E39.83796
G1 X619.424 Y95.955 E39.84331
M104 S205 ; set temperature
G1 U0.520 V0.520 Z0.520 F6000.000
G1 X635.472 Y111.913 F6000.000
G1 F3000
G1 X619.928 Y111.913 E40.51160
G1 X619.928 Y96.370 E41.17989
G1 X635.472 Y96.370 E41.84819
G1 X635.472 Y111.853 E42.51390
G1 X635.989 Y112.431 F6000.000
G1 F3000
G1 X619.411 Y112.431 E43.22666
G1 X619.411 Y95.853 E43.93941
G1 X635.989 Y95.853 E44.65217
G1 X635.989 Y112.371 E45.36235
G1 X636.506 Y112.948 F6000.000
G1 F3000
G1 X618.894 Y112.948 E46.11957
G1 X618.894 Y95.336 E46.87679
G1 X636.506 Y95.336 E47.63401
G1 X636.506 Y112.888 E48.38865
G1 X637.023 Y113.465 F6000.000
G1 F3000
G1 X618.377 Y113.465 E49.19033
G1 X618.377 Y94.819 E49.99202
G1 X637.023 Y94.819 E50.79370
G1 X637.023 Y113.405 E51.59281
G1 X637.480 Y113.922 F6000.000
G1 F2400
G1 X617.920 Y113.922 E52.23863
G1 X617.920 Y94.362 E52.88444
G1 X637.480 Y94.362 E53.53026
G1 X637.480 Y113.862 E54.17410
G1 X637.094 Y113.818 F6000.000
G1 X635.028 Y96.960 F6000.000
G1 F3000
G1 X634.881 Y96.814 E54.18316
G1 X634.137 Y96.814 E54.21571
G1 X635.028 Y97.705 E54.27080
G1 X635.028 Y98.449 E54.30335
G1 X633.393 Y96.814 E54.40447
G1 X632.649 Y96.814 E54.43702
G1 X635.028 Y99.193 E54.58418
G1 X635.028 Y99.937 E54.61673
G1 X631.905 Y96.814 E54.80993
G1 X631.161 Y96.814 E54.84248
G1 X635.028 Y100.681 E55.08170
G1 X635.028 Y101.425 E55.11425
G1 X630.417 Y96.814 E55.39951
G1 X629.673 Y96.814 E55.43206
G1 X635.028 Y102.169 E55.76335
G1 X635.028 Y102.913 E55.79590
G1 X628.929 Y96.814 E56.17323
G1 X628.185 Y96.814 E56.20578
G1 X635.028 Y103.657 E56.62914
G1 X635.028 Y104.401 E56.66169
G1 X627.441 Y96.814 E57.13109
G1 X626.697 Y96.814 E57.16364
G1 X635.028 Y105.145 E57.67906
G1 X635.028 Y105.889 E57.71161
G1 X625.953 Y96.814 E58.27307
G1 X625.209 Y96.814 E58.30563
G1 X635.028 Y106.633 E58.91312
G1 X635.028 Y107.377 E58.94567
G1 X624.465 Y96.814 E59.59920
G1 X623.721 Y96.814 E59.63175
G1 X635.028 Y108.121 E60.33131
G1 X635.028 Y108.865 E60.36386
G1 X622.976 Y96.814 E61.10946
G1 X622.232 Y96.814 E61.14201
G1 X635.028 Y109.609 E61.93364
G1 X635.028 Y110.353 E61.96619
G1 X621.488 Y96.814 E62.80385
G1 X620.744 Y96.814 E62.83640
G1 X635.028 Y111.098 E63.72010
G1 X635.028 Y111.470 E63.73637
G1 X634.656 Y111.470 E63.75265
G1 X620.372 Y97.186 E64.63634
G1 X620.372 Y97.930 E64.66890
G1 X633.912 Y111.470 E65.50656
G1 X633.168 Y111.470 E65.53911
G1 X620.372 Y98.674 E66.33074
G1 X620.372 Y99.418 E66.36329
G1 X632.424 Y111.470 E67.10889
G1 X631.680 Y111.470 E67.14144
G1 X620.372 Y100.162 E67.84101
G1 X620.372 Y100.906 E67.87356
G1 X630.935 Y111.470 E68.52709
G1 X630.191 Y111.470 E68.55964
G1 X620.372 Y101.650 E69.16713
G1 X620.372 Y102.394 E69.19969
G1 X629.447 Y111.470 E69.76115
G1 X628.703 Y111.470 E69.79370
G1 X620.372 Y103.139 E70.30913
G1 X620.372 Y103.883 E70.34168
G1 X627.959 Y111.470 E70.81108
G1 X627.215 Y111.470 E70.84363
G1 X620.372 Y104.627 E71.26699
G1 X620.372 Y105.371 E71.29954
G1 X626.471 Y111.470 E71.67687
G1 X625.727 Y111.470 E71.70942
G1 X620.372 Y106.115 E72.04071
G1 X620.372 Y106.859 E72.07327
G1 X624.983 Y111.470 E72.35853
G1 X624.239 Y111.470 E72.39108
G1 X620.372 Y107.603 E72.63031
G1 X620.372 Y108.347 E72.66286
G1 X623.495 Y111.470 E72.85605
G1 X622.751 Y111.470 E72.88860
G1 X620.372 Y109.091 E73.03576
G1 X620.372 Y109.835 E73.06831
G1 X622.007 Y111.470 E73.16944
G1 X621.263 Y111.470 E73.20199
G1 X620.372 Y110.579 E73.25708
G1 X620.372 Y111.323 E73.28963
G1 X620.519 Y111.469 E73.29868
G1 U0.720 V0.720 Z0.720 F6000.000
G1 X635.472 Y111.913 F6000.000
G1 F3000
G1 X619.928 Y111.913 E73.96698
G1 X619.928 Y96.370 E74.63527
G1 X635.472 Y96.370 E75.30356
G1 X635.472 Y111.853 E75.96927
G1 X635.989 Y112.431 F6000.000
G1 F3000
G1 X619.411 Y112.431 E76.68203
G1 X619.411 Y95.853 E77.39479
G1 X635.989 Y95.853 E78.10754
G1 X635.989 Y112.371 E78.81772
G1 X636.506 Y112.948 F6000.000
G1 F3000
G1 X618.894 Y112.948 E79.57494
G1 X618.894 Y95.336 E80.33216
G1 X636.506 Y95.336 E81.08938
G1 X636.506 Y112.888 E81.84402
G1 X637.023 Y113.465 F6000.000
G1 F3000
G1 X618.377 Y113.465 E82.64571
G1 X618.377 Y94.819 E83.44739
G1 X637.023 Y94.819 E84.24908
G1 X637.023 Y113.405 E85.04818
G1 X637.480 Y113.922 F6000.000
G1 F2400
G1 X617.920 Y113.922 E85.69400
G1 X617.920 Y94.362 E86.33982
G1 X637.480 Y94.362 E86.98564
G1 X637.480 Y113.862 E87.62947
G1 X637.094 Y113.818 F6000.000
G1 X634.881 Y111.470 F6000.000
G1 F3000
G1 X635.028 Y111.323 E87.63853
G1 X635.028 Y110.579 E87.67108
G1 X634.137 Y111.470 E87.72617
G1 X633.393 Y111.470 E87.75872
G1 X635.028 Y109.835 E87.85985
G1 X635.028 Y109.091 E87.89240
G1 X632.649 Y111.470 E88.03956
G1 X631.905 Y111.470 E88.07211
G1 X635.028 Y108.347 E88.26530
G1 X635.028 Y107.603 E88.29785
G1 X631.161 Y111.470 E88.53707
G1 X630.417 Y111.470 E88.56963
G1 X635.028 Y106.859 E88.85488
G1 X635.028 Y106.115 E88.88743
G1 X629.673 Y111.470 E89.21873
G1 X628.929 Y111.470 E89.25128
G1 X635.028 Y105.371 E89.62860
G1 X635.028 Y104.627 E89.66115
G1 X628.185 Y111.470 E90.08451
G1 X627.441 Y111.470 E90.11707
G1 X635.028 Y103.883 E90.58646
G1 X635.028 Y103.139 E90.61901
G1 X626.697 Y111.470 E91.13444
G1 X625.953 Y111.470 E91.16699
G1 X635.028 Y102.395 E91.72845
G1 X635.028 Y101.650 E91.76100
G1 X625.209 Y111.470 E92.36849
G1 X624.465 Y111.470 E92.40104
G1 X635.028 Y100.906 E93.05457
G1 X635.028 Y100.162 E93.08712
G1 X623.721 Y111.470 E93.78668
G1 X622.976 Y111.470 E93.81923
G1 X635.028 Y99.418 E94.56483
G1 X635.028 Y98.674 E94.59738
G1 X622.232 Y111.470 E95.38901
G1 X621.488 Y111.470 E95.42156
G1 X635.028 Y97.930 E96.25922
G1 X635.028 Y97.186 E96.29177
G1 X620.744 Y111.470 E97.17547
G1 X620.372 Y111.470 E97.19174
G1 X620.372 Y111.098 E97.20802
G1 X634.656 Y96.814 E98.09172
G1 X633.912 Y96.814 E98.12427
G1 X620.372 Y110.354 E98.96193
G1 X620.372 Y109.609 E98.99448
G1 X633.168 Y96.814 E99.78611
G1 X632.424 Y96.814 E99.81867
G1 X620.372 Y108.865 E100.56426
G1 X620.372 Y108.121 E100.59681
G1 X631.680 Y96.814 E101.29638
G1 X630.935 Y96.814 E101.32893
G1 X620.372 Y107.377 E101.98246
G1 X620.372 Y106.633 E102.01501
G1 X630.191 Y96.814 E102.62251
G1 X629.447 Y96.814 E102.65506
G1 X620.372 Y105.889 E103.21652
G1 X620.372 Y105.145 E103.24907
G1 X628.703 Y96.814 E103.76450
G1 X627.959 Y96.814 E103.79705
G1 X620.372 Y104.401 E104.26645
G1 X620.372 Y103.657 E104.29900
G1 X627.215 Y96.814 E104.72236
G1 X626.471 Y96.814 E104.75491
G1 X620.372 Y102.913 E105.13224
G1 X620.372 Y102.169 E105.16479
G1 X625.727 Y96.814 E105.49609
G1 X624.983 Y96.814 E105.52864
G1 X620.372 Y101.425 E105.81390
G1 X620.372 Y100.681 E105.84645
G1 X624.239 Y96.814 E106.08568
G1 X623.495 Y96.814 E106.11823
G1 X620.372 Y99.937 E106.31142
G1 X620.372 Y99.193 E106.34397
G1 X622.751 Y96.814 E106.49113
G1 X622.007 Y96.814 E106.52368
G1 X620.372 Y98.449 E106.62481
G1 X620.372 Y97.705 E106.65736
G1 X621.263 Y96.814 E106.71246
G1 X620.519 Y96.814 E106.74501
G1 X620.372 Y96.960 E106.75405
M106 S239.7
G1 U0.920 V0.920 Z0.920 F6000.000
G1 X635.472 Y111.913 F6000.000
G1 F3000
G1 X619.928 Y111.913 E107.42235
G1 X619.928 Y96.370 E108.09064
G1 X635.472 Y96.370 E108.75893
G1 X635.472 Y111.853 E109.42465
G1 X635.989 Y112.431 F6000.000
G1 F3000
G1 X619.411 Y112.431 E110.13740
G1 X619.411 Y95.853 E110.85016
G1 X635.989 Y95.853 E111.56291
G1 X635.989 Y112.371 E112.27309
G1 X636.506 Y112.948 F6000.000
G1 F3000
G1 X618.894 Y112.948 E113.03031
G1 X618.894 Y95.336 E113.78753
G1 X636.506 Y95.336 E114.54475
G1 X636.506 Y112.888 E115.29939
G1 X637.023 Y113.465 F6000.000
G1 F3000
G1 X618.377 Y113.465 E116.10108
G1 X618.377 Y94.819 E116.90276
G1 X637.023 Y94.819 E117.70445
G1 X637.023 Y113.405 E118.50355
G1 X637.480 Y113.922 F6000.000
G1 F2400
G1 X617.920 Y113.922 E119.14937
G1 X617.920 Y94.362 E119.79519
G1 X637.480 Y94.362 E120.44101
G1 X637.480 Y113.862 E121.08485
G1 X637.094 Y113.818 F6000.000
G1 X635.054 Y98.567 F6000.000
G1 F3000
G1 X633.275 Y96.788 E121.18046
G1 X628.965 Y96.788 E121.34424
G1 X635.054 Y102.877 E121.67148
G1 X635.054 Y107.186 E121.83526
G1 X624.656 Y96.788 E122.39412
G1 X620.347 Y96.788 E122.55791
G1 X635.054 Y111.495 E123.34840
G1 X630.744 Y111.495 E123.51218
G1 X620.347 Y101.098 E124.07104
G1 X620.347 Y105.407 E124.23483
G1 X626.435 Y111.495 E124.56206
G1 X622.125 Y111.495 E124.72585
G1 X620.347 Y109.716 E124.82146
G1 U1.120 V1.120 Z1.120 F6000.000
G1 X635.472 Y111.913 F6000.000
G1 F3000
G1 X619.928 Y111.913 E125.48975
G1 X619.928 Y96.370 E126.15804
G1 X635.472 Y96.370 E126.82634
G1 X635.472 Y111.853 E127.49205
G1 X635.989 Y112.431 F6000.000
G1 F3000
G1 X619.411 Y112.431 E128.20481
G1 X619.411 Y95.853 E128.91756
G1 X635.989 Y95.853 E129.63032
G1 X635.989 Y112.371 E130.34050
G1 X636.506 Y112.948 F6000.000
G1 F3000
G1 X618.894 Y112.948 E131.09772
G1 X618.894 Y95.336 E131.85494
G1 X636.506 Y95.336 E132.61216
G1 X636.506 Y112.888 E133.36680
G1 X637.023 Y113.465 F6000.000
G1 F3000
G1 X618.377 Y113.465 E134.16848
G1 X618.377 Y94.819 E134.97017
G1 X637.023 Y94.819 E135.77185
G1 X637.023 Y113.405 E136.57096
G1 X637.480 Y113.922 F6000.000
G1 F2400
G1 X617.920 Y113.922 E137.21678
G1 X617.920 Y94.362 E137.86259
G1 X637.480 Y94.362 E138.50841
G1 X637.480 Y113.862 E139.15225
G1 X637.094 Y113.818 F6000.000
G1 X633.275 Y111.495 F6000.000
G1 F3000
G1 X635.054 Y109.716 E139.24786
G1 X635.054 Y105.407 E139.41165
G1 X628.965 Y111.495 E139.73888
G1 X624.656 Y111.495 E139.90267
G1 X635.054 Y101.098 E140.46153
G1 X635.054 Y96.788 E140.62531
G1 X620.347 Y111.495 E141.41580
G1 X620.347 Y107.186 E141.57958
