; generated by Slic3r 1.3.0-dev on 2018-06-01 at 12:34:02

; external perimeters extrusion width = 0.66mm (7.15mm^3/s)
; perimeters extrusion width = 0.84mm (11.63mm^3/s)
; infill extrusion width = 0.75mm (10.28mm^3/s)
; solid infill extrusion width = 0.84mm (11.63mm^3/s)
; top infill extrusion width = 0.84mm (11.63mm^3/s)

M107
G28 ; home all axes
G32; probe home individual Z axis
G29 S1; load bed mesh
M109 S205 ; set temperature and wait for it to be reached
M117 Purge extruder
G92 E0 ; reset extruder
G1 X100
G1 Z1.0 F3000.0 ; move z up little to prevent scratching of surface
G1 X100 Y20 Z0.3 F5000.0 ; move to start-line position
G1 X100 Y200.0 Z0.3 F1500.0 E15 ; draw 1st line
G1 X100.5 Y200.0 Z0.3 F5000.0 ; move to side a little
G1 X100.5 Y20 Z0.3 F1500.0 E30 ; draw 2nd line
; G1 E27 F3000 ; retract filament 3mm
G92 E0 ; reset extruder
; done purging extruder
G1 Z1.0 F3000 ; move z up little to prevent scratching of surface
M117 Printing!

; Filament gcode

G21 ; set units to millimeters
G90 ; use absolute coordinates
M82 ; use absolute distances for extrusion
G92 E0
M584 U3 Z2 V4; Actuate motors independently
G92 U10.000 V10.000 Z10.000
G1 U0.320 V0.320 Z0.320 F6000.000
G1 E-2.00000 F2400.00000
G92 E0
G1 X388.939 Y181.348 F6000.000
G1 E2.00000 F2400.00000
G1 F1680
G1 X389.619 Y179.925 E2.06254
G1 X390.304 Y178.722 E2.11746
G1 X391.073 Y177.581 E2.17200
G1 X391.859 Y176.599 E2.22186
G1 X392.746 Y175.661 E2.27306
G1 X393.222 Y175.222 E2.29875
G1 X394.106 Y174.510 E2.34376
G1 X394.957 Y173.940 E2.38438
G1 X395.907 Y173.425 E2.42722
G1 X396.896 Y173.014 E2.46968
G1 X397.841 Y172.731 E2.50882
G1 X398.806 Y172.551 E2.54773
G1 X399.494 Y172.486 E2.57513
G1 X400.447 Y172.483 E2.61294
G1 X401.316 Y172.569 E2.64755
G1 X402.266 Y172.760 E2.68598
G1 X402.683 Y172.877 E2.70314
G1 X403.616 Y173.215 E2.74250
G1 X404.520 Y173.646 E2.78219
G1 X405.334 Y174.128 E2.81975
G1 X406.091 Y174.664 E2.85651
G1 X406.951 Y175.384 E2.90098
G1 X407.759 Y176.184 E2.94609
G1 X408.520 Y177.063 E2.99218
G1 X409.277 Y178.085 E3.04259
G1 X409.988 Y179.224 E3.09584
G1 X410.606 Y180.384 E3.14796
G1 X411.200 Y181.696 E3.20506
G1 X411.723 Y183.078 E3.26366
G1 X412.203 Y184.641 E3.32851
G1 X412.578 Y186.199 E3.39205
G1 X412.864 Y187.795 E3.45634
G1 X413.060 Y189.426 E3.52149
G1 X413.164 Y191.047 E3.58588
G1 X413.182 Y191.770 E3.61458
G1 X413.152 Y193.517 E3.68383
G1 X412.168 Y222.823 E4.84658
G1 X412.136 Y223.390 E4.86911
G1 X412.059 Y223.960 E4.89190
G1 X411.954 Y224.481 E4.91296
G1 X411.809 Y225.039 E4.93582
G1 X411.629 Y225.582 E4.95854
G1 X411.415 Y226.093 E4.98049
G1 X411.172 Y226.558 E5.00128
G1 X410.889 Y226.990 E5.02177
G1 X410.343 Y227.702 E5.05737
G1 X409.802 Y228.343 E5.09060
G1 X408.905 Y229.341 E5.14381
G1 X408.523 Y229.714 E5.16499
G1 X407.450 Y230.652 E5.22149
G1 X406.293 Y231.536 E5.27923
G1 X406.024 Y231.722 E5.29222
G1 X405.056 Y232.295 E5.33682
G1 X404.555 Y232.558 E5.35926
G1 X403.717 Y232.908 E5.39527
G1 X402.984 Y233.174 E5.42620
G1 X401.580 Y233.500 E5.48334
G1 X400.925 Y233.561 E5.50940
G1 X399.958 Y233.625 E5.54787
G1 X398.567 Y233.523 E5.60316
G1 X397.682 Y233.339 E5.63899
G1 X396.962 Y233.160 E5.66842
G1 X396.285 Y232.912 E5.69702
G1 X395.548 Y232.611 E5.72857
G1 X394.973 Y232.315 E5.75421
G1 X394.011 Y231.751 E5.79846
G1 X393.733 Y231.560 E5.81182
G1 X392.623 Y230.716 E5.86709
G1 X391.501 Y229.745 E5.92593
G1 X391.095 Y229.348 E5.94847
G1 X390.256 Y228.425 E5.99791
G1 X389.691 Y227.757 E6.03262
G1 X389.038 Y226.898 E6.07539
G1 X388.746 Y226.429 E6.09731
G1 X388.527 Y225.985 E6.11693
G1 X388.337 Y225.512 E6.13715
G1 X388.169 Y224.992 E6.15884
G1 X388.044 Y224.510 E6.17857
G1 X387.928 Y223.937 E6.20177
G1 X387.866 Y223.486 E6.21979
G1 X387.828 Y222.983 E6.23981
G1 X386.813 Y192.696 E7.44144
G1 X386.831 Y190.948 E7.51078
G1 X386.960 Y189.131 E7.58298
G1 X387.188 Y187.415 E7.65165
G1 X387.438 Y186.087 E7.70523
G1 X387.852 Y184.413 E7.77359
G1 X388.331 Y182.899 E7.83656
G1 X388.904 Y181.431 E7.89906
G1 X389.224 Y181.484 F6000.000
G1 F1680
G1 X389.893 Y180.081 E7.96070
G1 X390.566 Y178.897 E8.01471
G1 X391.319 Y177.778 E8.06818
G1 X392.105 Y176.797 E8.11804
G1 X392.975 Y175.879 E8.16817
G1 X393.420 Y175.467 E8.19224
G1 X394.281 Y174.772 E8.23612
G1 X395.133 Y174.202 E8.27674
G1 X396.056 Y173.703 E8.31837
G1 X397.016 Y173.305 E8.35954
G1 X397.930 Y173.034 E8.39737
G1 X398.863 Y172.861 E8.43498
G1 X399.496 Y172.801 E8.46022
G1 X400.417 Y172.797 E8.49671
G1 X401.285 Y172.883 E8.53131
G1 X402.202 Y173.069 E8.56842
G1 X402.577 Y173.174 E8.58388
G1 X403.482 Y173.500 E8.62202
G1 X404.360 Y173.917 E8.66054
G1 X405.173 Y174.399 E8.69802
G1 X405.890 Y174.906 E8.73285
G1 X406.700 Y175.582 E8.77469
G1 X407.521 Y176.391 E8.82040
G1 X408.267 Y177.252 E8.86555
G1 X409.010 Y178.254 E8.91503
G1 X409.710 Y179.374 E8.96740
G1 X410.328 Y180.532 E9.01944
G1 X410.906 Y181.808 E9.07500
G1 X411.428 Y183.189 E9.13352
G1 X411.897 Y184.716 E9.19687
G1 X412.268 Y186.256 E9.25967
G1 X412.551 Y187.834 E9.32324
G1 X412.746 Y189.447 E9.38768
G1 X412.850 Y191.066 E9.45202
G1 X412.867 Y191.765 E9.47975
G1 X412.837 Y193.506 E9.54878
G1 X411.853 Y222.813 E10.71153
G1 X411.823 Y223.350 E10.73286
G1 X411.750 Y223.897 E10.75477
G1 X411.645 Y224.418 E10.77583
G1 X411.504 Y224.959 E10.79799
G1 X411.330 Y225.482 E10.81986
G1 X411.124 Y225.970 E10.84085
G1 X410.894 Y226.410 E10.86056
G1 X410.632 Y226.806 E10.87940
G1 X410.101 Y227.499 E10.91399
G1 X409.568 Y228.132 E10.94683
G1 X408.684 Y229.116 E10.99926
G1 X408.316 Y229.477 E11.01971
G1 X407.256 Y230.404 E11.07553
G1 X406.102 Y231.285 E11.13312
G1 X405.845 Y231.462 E11.14547
G1 X404.896 Y232.023 E11.18922
G1 X404.409 Y232.279 E11.21103
G1 X403.626 Y232.605 E11.24466
G1 X402.908 Y232.868 E11.27496
G1 X401.512 Y233.192 E11.33180
G1 X400.899 Y233.247 E11.35618
G1 X399.980 Y233.311 E11.39273
G1 X398.591 Y233.209 E11.44794
G1 X397.749 Y233.031 E11.48207
G1 X397.070 Y232.864 E11.50979
G1 X396.404 Y232.620 E11.53793
G1 X395.668 Y232.319 E11.56947
G1 X395.155 Y232.055 E11.59235
G1 X394.188 Y231.490 E11.63674
G1 X393.924 Y231.309 E11.64945
G1 X392.814 Y230.465 E11.70472
G1 X391.708 Y229.507 E11.76274
G1 X391.328 Y229.136 E11.78381
G1 X390.489 Y228.213 E11.83325
G1 X389.931 Y227.554 E11.86752
G1 X389.302 Y226.725 E11.90879
G1 X389.020 Y226.274 E11.92988
G1 X388.814 Y225.854 E11.94841
G1 X388.633 Y225.403 E11.96770
G1 X388.474 Y224.913 E11.98813
G1 X388.351 Y224.436 E12.00765
G1 X388.238 Y223.883 E12.03003
G1 X388.179 Y223.454 E12.04720
G1 X388.143 Y222.972 E12.06635
G1 X387.128 Y192.686 E13.26798
G1 X387.147 Y190.951 E13.33677
G1 X387.273 Y189.173 E13.40746
G1 X387.500 Y187.456 E13.47612
G1 X387.747 Y186.145 E13.52902
G1 X388.152 Y184.508 E13.59589
G1 X388.632 Y182.995 E13.65885
G1 X389.190 Y181.567 E13.71963
G1 E11.71963 F2400.00000
G92 E0
G1 X409.537 Y200.546 F6000.000
G1 E2.00000 F2400.00000
G1 F2100
G1 X409.013 Y201.914 E2.05809
G1 X408.419 Y203.199 E2.11424
G1 X407.758 Y204.401 E2.16865
G1 X407.028 Y205.520 E2.22161
G1 X406.533 Y206.179 E2.25429
G1 X405.810 Y207.017 E2.29818
G1 X405.069 Y207.743 E2.33932
G1 X404.301 Y208.370 E2.37865
G1 X403.690 Y208.786 E2.40796
G1 X402.979 Y209.183 E2.44025
G1 X402.237 Y209.504 E2.47230
G1 X401.366 Y209.759 E2.50829
G1 X400.684 Y209.873 E2.53571
G1 X399.975 Y209.913 E2.56386
G1 X399.686 Y209.905 E2.57530
G1 X398.998 Y209.830 E2.60278
G1 X398.162 Y209.638 E2.63678
G1 X397.488 Y209.399 E2.66513
G1 X396.800 Y209.075 E2.69529
G1 X396.439 Y208.871 E2.71173
G1 X395.724 Y208.395 E2.74579
G1 X395.035 Y207.842 E2.78083
G1 X394.367 Y207.211 E2.81725
G1 X393.771 Y206.557 E2.85236
G1 X393.079 Y205.680 E2.89666
G1 X392.434 Y204.729 E2.94220
G1 X391.839 Y203.709 E2.98904
G1 X391.160 Y202.333 E3.04988
G1 X390.631 Y201.037 E3.10540
G1 X390.177 Y199.687 E3.16188
G1 X389.800 Y198.288 E3.21931
G1 X389.500 Y196.837 E3.27805
G1 X389.347 Y195.871 E3.31684
G1 X389.174 Y194.259 E3.38114
G1 X389.096 Y192.642 E3.44533
G1 X389.115 Y191.016 E3.50979
G1 X389.230 Y189.388 E3.57454
G1 X389.446 Y187.755 E3.63986
G1 X389.674 Y186.551 E3.68843
G1 X390.043 Y185.058 E3.74941
G1 X390.494 Y183.635 E3.80860
G1 X391.023 Y182.284 E3.86616
G1 X391.631 Y181.007 E3.92224
G1 X392.232 Y179.947 E3.97053
G1 X392.894 Y178.961 E4.01764
G1 X393.603 Y178.075 E4.06263
G1 X394.369 Y177.269 E4.10673
G1 X394.696 Y176.967 E4.12439
G1 X395.432 Y176.371 E4.16192
G1 X396.169 Y175.877 E4.19712
G1 X396.922 Y175.472 E4.23101
G1 X397.694 Y175.155 E4.26410
G1 X398.411 Y174.944 E4.29375
G1 X399.154 Y174.809 E4.32370
G1 X399.574 Y174.769 E4.34042
G1 X400.301 Y174.763 E4.36925
G1 X401.015 Y174.834 E4.39768
G1 X401.964 Y175.046 E4.43625
G1 X402.707 Y175.311 E4.46754
G1 X403.416 Y175.646 E4.49862
G1 X404.117 Y176.062 E4.53095
G1 X404.674 Y176.456 E4.55801
G1 X405.392 Y177.054 E4.59507
G1 X405.938 Y177.592 E4.62545
G1 X406.725 Y178.477 E4.67242
G1 X407.374 Y179.351 E4.71558
G1 X407.998 Y180.347 E4.76220
G1 X408.568 Y181.417 E4.81025
G1 X409.081 Y182.550 E4.85958
G1 X409.570 Y183.841 E4.91431
G1 X409.994 Y185.223 E4.97162
G1 X410.338 Y186.648 E5.02975
G1 X410.602 Y188.113 E5.08879
G1 X410.784 Y189.615 E5.14879
G1 X410.883 Y191.162 E5.21027
G1 X410.898 Y191.764 E5.23412
G1 X410.870 Y193.419 E5.29977
G1 X410.745 Y195.051 E5.36467
G1 X410.523 Y196.657 E5.42896
G1 X410.205 Y198.230 E5.49260
G1 X409.788 Y199.775 E5.55606
G1 X409.565 Y200.460 E5.58462
G1 X409.837 Y200.643 F6000.000
G1 F2100
G1 X409.304 Y202.036 E5.64376
G1 X408.701 Y203.342 E5.70078
G1 X408.028 Y204.564 E5.75609
G1 X407.287 Y205.701 E5.80994
G1 X406.779 Y206.377 E5.84346
G1 X406.040 Y207.233 E5.88829
G1 X405.279 Y207.978 E5.93051
G1 X404.490 Y208.623 E5.97095
G1 X403.856 Y209.055 E6.00136
G1 X403.118 Y209.466 E6.03485
G1 X402.352 Y209.798 E6.06795
G1 X401.434 Y210.067 E6.10589
G1 X400.719 Y210.187 E6.13465
G1 X399.979 Y210.228 E6.16401
G1 X399.665 Y210.220 E6.17648
G1 X398.945 Y210.142 E6.20520
G1 X398.073 Y209.941 E6.24067
G1 X397.368 Y209.691 E6.27035
G1 X396.655 Y209.355 E6.30159
G1 X396.274 Y209.140 E6.31893
G1 X395.537 Y208.649 E6.35405
G1 X394.827 Y208.080 E6.39013
G1 X394.142 Y207.432 E6.42752
G1 X393.530 Y206.761 E6.46353
G1 X392.824 Y205.866 E6.50874
G1 X392.167 Y204.897 E6.55516
G1 X391.561 Y203.858 E6.60285
G1 X390.873 Y202.462 E6.66457
G1 X390.335 Y201.147 E6.72093
G1 X389.875 Y199.778 E6.77819
G1 X389.493 Y198.361 E6.83637
G1 X389.189 Y196.894 E6.89578
G1 X389.035 Y195.912 E6.93518
G1 X388.859 Y194.283 E7.00015
G1 X388.781 Y192.648 E7.06508
G1 X388.799 Y191.004 E7.13028
G1 X388.916 Y189.356 E7.19579
G1 X389.135 Y187.705 E7.26183
G1 X389.366 Y186.484 E7.31110
G1 X389.740 Y184.973 E7.37283
G1 X390.196 Y183.530 E7.43284
G1 X390.734 Y182.158 E7.49126
G1 X391.351 Y180.861 E7.54823
G1 X391.964 Y179.782 E7.59743
G1 X392.640 Y178.774 E7.64554
G1 X393.365 Y177.868 E7.69159
G1 X394.148 Y177.044 E7.73662
G1 X394.490 Y176.728 E7.75509
G1 X395.244 Y176.117 E7.79360
G1 X396.007 Y175.606 E7.82998
G1 X396.787 Y175.187 E7.86512
G1 X397.589 Y174.857 E7.89951
G1 X398.339 Y174.637 E7.93047
G1 X399.111 Y174.496 E7.96161
G1 X399.558 Y174.454 E7.97942
G1 X400.315 Y174.448 E8.00945
G1 X401.062 Y174.522 E8.03921
G1 X401.828 Y174.680 E8.07021
G1 X402.060 Y174.745 E8.07976
G1 X402.828 Y175.019 E8.11210
G1 X403.564 Y175.367 E8.14438
G1 X404.289 Y175.797 E8.17780
G1 X404.867 Y176.206 E8.20586
G1 X405.604 Y176.821 E8.24393
G1 X406.167 Y177.374 E8.27524
G1 X406.970 Y178.278 E8.32318
G1 X407.635 Y179.173 E8.36739
G1 X408.271 Y180.189 E8.41494
G1 X408.851 Y181.277 E8.46382
G1 X409.373 Y182.429 E8.51396
G1 X409.868 Y183.739 E8.56949
G1 X410.298 Y185.139 E8.62758
G1 X410.647 Y186.583 E8.68646
G1 X410.913 Y188.066 E8.74622
G1 X411.098 Y189.586 E8.80693
G1 X411.198 Y191.148 E8.86902
G1 X411.213 Y191.762 E8.89337
G1 X411.185 Y193.434 E8.95967
G1 X411.058 Y195.085 E9.02531
G1 X410.834 Y196.710 E9.09037
G1 X410.512 Y198.303 E9.15480
G1 X410.090 Y199.865 E9.21898
G1 X409.865 Y200.558 E9.24786
G1 X410.137 Y200.741 F6000.000
G1 F2100
G1 X409.595 Y202.159 E9.30806
G1 X408.982 Y203.484 E9.36593
G1 X408.299 Y204.726 E9.42216
G1 X407.545 Y205.882 E9.47689
G1 X407.024 Y206.575 E9.51124
G1 X406.270 Y207.449 E9.55702
G1 X405.490 Y208.213 E9.60033
G1 X404.679 Y208.876 E9.64188
G1 X404.022 Y209.324 E9.67339
G1 X403.258 Y209.749 E9.70806
G1 X402.467 Y210.091 E9.74222
G1 X401.503 Y210.376 E9.78210
G1 X400.753 Y210.501 E9.81222
G1 X399.984 Y210.544 E9.84278
G1 X399.644 Y210.535 E9.85627
G1 X398.893 Y210.453 E9.88624
G1 X397.985 Y210.244 E9.92317
G1 X397.248 Y209.983 E9.95419
G1 X396.510 Y209.636 E9.98651
G1 X396.110 Y209.409 E10.00474
G1 X395.350 Y208.904 E10.04094
G1 X394.620 Y208.318 E10.07805
G1 X393.917 Y207.653 E10.11641
G1 X393.289 Y206.965 E10.15333
G1 X392.569 Y206.052 E10.19945
G1 X391.900 Y205.065 E10.24673
G1 X391.283 Y204.008 E10.29529
G1 X390.585 Y202.592 E10.35788
G1 X390.039 Y201.257 E10.41507
G1 X389.573 Y199.869 E10.47311
G1 X389.186 Y198.434 E10.53205
G1 X388.879 Y196.950 E10.59213
G1 X388.722 Y195.954 E10.63213
G1 X388.545 Y194.308 E10.69778
G1 X388.466 Y192.653 E10.76346
G1 X388.484 Y190.991 E10.82940
G1 X388.602 Y189.324 E10.89566
G1 X388.824 Y187.655 E10.96243
G1 X389.058 Y186.417 E11.01239
G1 X389.436 Y184.887 E11.07486
G1 X389.899 Y183.425 E11.13569
G1 X390.444 Y182.033 E11.19498
G1 X391.072 Y180.715 E11.25283
G1 X391.695 Y179.616 E11.30296
G1 X392.385 Y178.587 E11.35206
G1 X393.128 Y177.660 E11.39917
G1 X393.926 Y176.820 E11.44514
G1 X394.283 Y176.490 E11.46442
G1 X395.057 Y175.863 E11.50390
G1 X395.844 Y175.336 E11.54145
G1 X396.652 Y174.901 E11.57785
G1 X397.485 Y174.559 E11.61353
G1 X398.266 Y174.330 E11.64581
G1 X399.068 Y174.183 E11.67815
G1 X399.542 Y174.139 E11.69704
G1 X400.330 Y174.133 E11.72826
G1 X401.110 Y174.210 E11.75936
G1 X401.903 Y174.373 E11.79146
G1 X402.156 Y174.444 E11.80187
G1 X402.949 Y174.728 E11.83526
G1 X403.712 Y175.089 E11.86874
G1 X404.461 Y175.532 E11.90325
G1 X405.059 Y175.956 E11.93232
G1 X405.816 Y176.587 E11.97139
G1 X406.396 Y177.157 E12.00364
G1 X407.215 Y178.079 E12.05255
G1 X407.896 Y178.995 E12.09779
G1 X408.544 Y180.031 E12.14629
G1 X409.134 Y181.138 E12.19601
G1 X409.664 Y182.308 E12.24695
G1 X410.167 Y183.637 E12.30327
G1 X410.602 Y185.056 E12.36214
G1 X410.955 Y186.518 E12.42177
G1 X411.225 Y188.019 E12.48226
G1 X411.412 Y189.557 E12.54368
G1 X411.513 Y191.134 E12.60637
G1 X411.528 Y191.761 E12.63122
G1 X411.500 Y193.449 E12.69818
G1 X411.372 Y195.118 E12.76456
G1 X411.145 Y196.763 E12.83038
G1 X410.819 Y198.375 E12.89560
G1 X410.393 Y199.955 E12.96050
G1 X410.165 Y200.655 E12.98970
G1 X410.437 Y200.839 F6000.000
G1 F2100
G1 X409.885 Y202.282 E13.05095
G1 X409.264 Y203.626 E13.10969
G1 X408.570 Y204.889 E13.16682
G1 X407.803 Y206.063 E13.22244
G1 X407.270 Y206.773 E13.25763
G1 X406.500 Y207.665 E13.30435
G1 X405.700 Y208.448 E13.34874
G1 X404.867 Y209.129 E13.39140
G1 X404.187 Y209.592 E13.42403
G1 X403.398 Y210.033 E13.45988
G1 X402.583 Y210.385 E13.49510
G1 X402.358 Y210.465 E13.50456
G1 X401.571 Y210.684 E13.53693
G1 X400.788 Y210.815 E13.56841
G1 X399.988 Y210.859 E13.60017
G1 X399.623 Y210.849 E13.61468
G1 X398.840 Y210.765 E13.64590
G1 X397.897 Y210.547 E13.68429
G1 X397.128 Y210.275 E13.71665
G1 X396.365 Y209.916 E13.75005
G1 X395.945 Y209.679 E13.76918
G1 X395.163 Y209.158 E13.80644
G1 X394.413 Y208.556 E13.84459
G1 X393.692 Y207.874 E13.88392
G1 X393.049 Y207.170 E13.92175
G1 X392.315 Y206.239 E13.96877
G1 X391.633 Y205.233 E14.01692
G1 X391.005 Y204.157 E14.06634
G1 X390.297 Y202.721 E14.12981
G1 X389.744 Y201.367 E14.18784
G1 X389.271 Y199.961 E14.24666
G1 X388.879 Y198.507 E14.30635
G1 X388.569 Y197.007 E14.36710
G1 X388.409 Y195.995 E14.40771
G1 X388.230 Y194.332 E14.47404
G1 X388.150 Y192.659 E14.54045
G1 X388.169 Y190.978 E14.60713
G1 X388.288 Y189.292 E14.67415
G1 X388.512 Y187.605 E14.74164
G1 X388.750 Y186.349 E14.79229
G1 X389.132 Y184.802 E14.85552
G1 X389.601 Y183.319 E14.91717
G1 X390.155 Y181.907 E14.97731
G1 X390.792 Y180.569 E15.03606
G1 X391.427 Y179.450 E15.08710
G1 X392.131 Y178.401 E15.13720
G1 X392.890 Y177.453 E15.18536
G1 X393.705 Y176.595 E15.23227
G1 X394.077 Y176.251 E15.25237
G1 X394.870 Y175.609 E15.29282
