; generated by Slic3r 1.3.0-dev on 2018-03-21 at 11:03:24

; external perimeters extrusion width = 0.55mm (4.37mm^3/s)
; perimeters extrusion width = 0.70mm (11.44mm^3/s)
; infill extrusion width = 0.62mm (13.45mm^3/s)
; solid infill extrusion width = 0.70mm (3.81mm^3/s)
; top infill extrusion width = 0.70mm (2.86mm^3/s)

M107
M104 S200 ; set temperature
G28 ; home all axes
G1 Z5 F5000 ; lift nozzle

; Filament gcode

M109 S200 ; set temperature and wait for it to be reached
G21 ; set units to millimeters
G90 ; use absolute coordinates
M82 ; use absolute distances for extrusion
G92 E0
G1 Z9.700 F7800.000
G1 E-2.00000 F2400.00000
G92 E0
G1 X76.940 Y89.621 F7800.000
G1 E2.00000 F2400.00000
G1 F1800
G1 X78.872 Y88.385 E2.07096
G1 X81.421 Y87.875 E2.15140
G1 X86.071 Y87.875 E2.29526
G1 X88.330 Y88.272 E2.36622
G1 X90.318 Y89.415 E2.43719
G1 X91.797 Y91.168 E2.50815
G1 X92.590 Y93.320 E2.57911
G1 X92.696 Y94.500 E2.61576
G1 X92.696 Y105.500 E2.95612
G1 X92.299 Y107.759 E3.02708
G1 X91.155 Y109.747 E3.09804
G1 X89.403 Y111.226 E3.16900
G1 X87.251 Y112.019 E3.23997
G1 X86.071 Y112.125 E3.27662
G1 X81.421 Y112.125 E3.42048
G1 X79.163 Y111.728 E3.49144
G1 X77.174 Y110.585 E3.56240
G1 X75.695 Y108.832 E3.63336
G1 X74.909 Y106.714 E3.70327
G1 X74.361 Y103.709 E3.79777
G1 X74.295 Y103.168 E3.81463
G1 X74.245 Y102.356 E3.83980
G1 X74.245 Y98.763 E3.95098
G1 X74.277 Y98.112 E3.97116
G1 X74.344 Y97.474 E3.99100
G1 X74.854 Y93.628 E4.11104
G1 X75.545 Y91.441 E4.18200
G1 X76.894 Y89.680 E4.25064
G1 E2.25064 F2400.00000
G92 E0
G1 X85.096 Y104.525 F7800.000
G1 E2.00000 F2400.00000
G1 F1800
G1 X82.381 Y104.525 E2.08401
G1 X82.358 Y103.096 E2.12824
G1 X81.927 Y102.741 E2.14552
G1 X81.892 Y102.683 E2.14761
G1 X81.852 Y102.355 E2.15784
G1 X81.875 Y102.159 E2.16394
G1 X81.911 Y102.077 E2.16672
G1 X82.365 Y101.605 E2.18697
G1 X82.365 Y99.359 E2.25645
G1 X81.971 Y99.108 E2.27091
G1 X81.908 Y99.040 E2.27380
G1 X81.874 Y98.962 E2.27642
G1 X81.850 Y98.755 E2.28287
G1 X81.869 Y98.559 E2.28896
G1 X81.944 Y98.402 E2.29434
G1 X82.360 Y98.088 E2.31048
G1 X82.387 Y95.475 E2.39134
G1 X85.096 Y95.475 E2.47517
G1 X85.096 Y104.450 E2.75287
G1 X85.721 Y105.150 F7800.000
G1 F1800
G1 X81.766 Y105.150 E2.87525
G1 X81.738 Y103.401 E2.92938
G1 X81.532 Y103.237 E2.93752
G1 X81.420 Y103.112 E2.94270
G1 X81.337 Y102.972 E2.94774
G1 X81.279 Y102.814 E2.95294
G1 X81.222 Y102.356 E2.96723
G1 X81.266 Y101.992 E2.97856
G1 X81.384 Y101.723 E2.98765
G1 X81.740 Y101.353 E3.00355
G1 X81.740 Y99.702 E3.05462
G1 X81.566 Y99.591 E3.06102
G1 X81.377 Y99.385 E3.06967
G1 X81.264 Y99.127 E3.07840
G1 X81.222 Y98.760 E3.08982
G1 X81.255 Y98.422 E3.10032
G1 X81.347 Y98.160 E3.10893
G1 X81.493 Y97.959 E3.11659
G1 X81.739 Y97.774 E3.12612
G1 X81.768 Y94.850 E3.21660
G1 X85.721 Y94.850 E3.33891
G1 X85.721 Y105.075 E3.65528
G1 X85.261 Y104.955 F7800.000
G1 X84.228 Y104.143 F7800.000
G1 F1800
G1 X84.714 Y103.657 E3.67759
G1 X84.714 Y102.730 E3.70765
G1 X83.301 Y104.143 E3.77247
G1 X82.753 Y104.143 E3.79027
G1 X82.747 Y103.771 E3.80234
G1 X84.714 Y101.804 E3.89261
G1 X84.714 Y100.877 E3.92267
G1 X82.634 Y102.957 E4.01811
G1 X82.242 Y102.625 E4.03479
G1 X82.747 Y102.100 E4.05844
G1 X82.747 Y101.918 E4.06434
G1 X84.714 Y99.951 E4.15459
G1 X84.714 Y99.024 E4.18466
G1 X82.747 Y100.991 E4.27491
G1 X82.747 Y100.064 E4.30497
G1 X84.714 Y98.097 E4.39522
G1 X84.714 Y97.171 E4.42528
G1 X82.673 Y99.212 E4.51893
G1 X82.301 Y98.975 E4.53324
G1 X82.739 Y98.645 E4.55106
G1 X82.743 Y98.215 E4.56500
G1 X84.714 Y96.244 E4.65542
G1 X84.714 Y95.857 E4.66799
G1 X84.175 Y95.857 E4.68548
G1 X82.753 Y97.279 E4.75073
G1 X82.762 Y96.343 E4.78110
G1 X83.248 Y95.857 E4.80341
G1 Z10.000 F7800.000
G1 X85.622 Y104.664 F7800.000
G1 F900
G1 X82.628 Y104.664 E4.88419
G1 X82.613 Y103.909 E4.90456
G1 X82.624 Y95.336 E5.13585
G1 X85.622 Y95.336 E5.21675
G1 X85.622 Y104.589 E5.46638
G1 X82.053 Y100.032 F7800.000
G1 F900
G1 X81.547 Y99.842 E5.47752
G1 X81.244 Y99.649 E5.48491
G1 X81.041 Y99.427 E5.49113
G1 X80.918 Y99.147 E5.49743
G1 X80.873 Y98.761 E5.50544
G1 X80.886 Y98.634 E5.50806
G1 X81.087 Y98.585 E5.51232
G1 X81.472 Y99.179 E5.52691
G1 X82.053 Y99.639 E5.54217
G1 X82.066 Y94.775 E5.64241
G1 X86.183 Y94.775 E5.72727
G1 X86.183 Y105.225 E5.94265
G1 X82.078 Y105.225 E6.02725
G1 X82.044 Y103.483 E6.06315
G1 X82.053 Y100.107 E6.13274
G1 X82.172 Y99.547 F7800.000
G1 E4.13274 F2400.00000
G92 E0
G1 X81.217 Y102.387 F7800.000
G1 E2.00000 F2400.00000
G1 F900
G1 X81.316 Y102.748 E2.00771
G1 X82.034 Y103.474 E2.02877
G1 X81.902 Y103.671 E2.03367
G1 X81.566 Y103.534 E2.04116
G1 X81.367 Y103.418 E2.04591
G1 X81.207 Y103.291 E2.05010
G1 X81.087 Y103.156 E2.05384
G1 X80.996 Y103.004 E2.05748
G1 X80.933 Y102.832 E2.06127
G1 X80.874 Y102.356 E2.07115
G1 X80.920 Y101.972 E2.07912
G1 X81.049 Y101.678 E2.08574
G1 X81.262 Y101.446 E2.09224
G1 X81.575 Y101.260 E2.09973
G1 X81.861 Y101.171 E2.10591
G1 X81.980 Y101.365 E2.11060
G1 X81.309 Y102.044 E2.13027
G1 X81.236 Y102.314 E2.13604
G1 X80.903 Y102.591 F7800.000
G1 E0.13604 F2400.00000
G92 E0
G1 X80.859 Y98.545 F7800.000
G1 E2.00000 F2400.00000
G1 F900
G1 X81.008 Y98.125 E2.00919
G1 X81.166 Y97.906 E2.01475
G1 X81.395 Y97.734 E2.02065
G1 X81.720 Y97.595 E2.02794
G1 X81.905 Y97.550 E2.03187
G1 X82.016 Y97.731 E2.03624
G1 X81.317 Y98.545 E2.05836
G1 X80.934 Y98.545 E2.06625
G1 X81.091 Y98.164 F7800.000
G1 X85.234 Y96.219 F7800.000
G1 F1200
G1 X84.740 Y95.724 E2.08680
G1 X83.760 Y95.724 E2.11558
G1 X85.234 Y97.198 E2.17684
G1 X85.234 Y98.177 E2.20562
G1 X83.011 Y95.954 E2.29802
G1 X83.010 Y96.932 E2.32677
G1 X85.234 Y99.156 E2.41922
G1 X85.234 Y100.136 E2.44800
G1 X83.009 Y97.910 E2.54050
G1 X83.007 Y98.888 E2.56924
G1 X85.234 Y101.115 E2.66179
G1 X85.234 Y102.094 E2.69057
G1 X83.006 Y99.866 E2.78317
G1 X83.005 Y100.844 E2.81192
G1 X85.234 Y103.074 E2.90456
G1 X85.234 Y104.053 E2.93334
G1 X83.004 Y101.823 E3.02604
G1 X83.003 Y102.801 E3.05478
G1 X84.478 Y104.276 E3.11610
G1 X83.499 Y104.276 E3.14488
G1 X83.004 Y103.781 E3.16543
G1 Z10.300 F7800.000
G1 X82.979 Y95.336 F7800.000
G1 F890.017
G1 X85.980 Y95.336 E3.24639
G1 X85.980 Y104.664 E3.49805
G1 X82.985 Y104.664 E3.57885
G1 X82.971 Y103.986 E3.59716
G1 X82.979 Y95.411 E3.82849
G1 E1.82849 F2400.00000
G92 E0
G1 X82.409 Y97.427 F7800.000
G1 E2.00000 F2400.00000
G1 F1800
G1 X82.421 Y94.775 E2.05467
G1 X86.541 Y94.775 E2.13958
G1 X86.541 Y105.225 E2.35496
G1 X82.436 Y105.225 E2.43956
G1 X82.407 Y103.831 E2.46830
G1 X81.847 Y103.727 E2.48004
G1 X81.560 Y103.640 E2.48622
G1 X81.316 Y103.536 E2.49168
G1 X81.115 Y103.418 E2.49649
G1 X80.960 Y103.295 E2.50057
G1 X80.854 Y103.166 E2.50400
G1 X80.854 Y102.536 E2.51699
G1 X81.333 Y103.019 E2.53100
G1 X81.706 Y103.179 E2.53937
G1 X82.410 Y103.255 E2.55397
G1 X82.410 Y101.568 E2.58874
G1 X81.671 Y101.640 E2.60404
G1 X81.311 Y101.787 E2.61206
G1 X80.854 Y102.250 E2.62545
G1 X80.854 Y101.616 E2.63852
G1 X81.011 Y101.446 E2.64328
G1 X81.323 Y101.260 E2.65078
G1 X81.715 Y101.138 E2.65923
G1 X82.410 Y101.072 E2.67362
G1 X82.410 Y100.106 E2.69354
G1 X81.587 Y99.952 E2.71080
G1 X81.295 Y99.842 E2.71723
G1 X80.993 Y99.649 E2.72462
G1 X80.854 Y99.498 E2.72884
G1 X80.854 Y98.999 E2.73914
G1 X81.063 Y98.937 E2.74362
G1 X81.221 Y99.179 E2.74959
G1 X81.395 Y99.317 E2.75417
G1 X81.606 Y99.417 E2.75897
G1 X81.868 Y99.486 E2.76456
G1 X82.410 Y99.562 E2.77585
G1 X82.410 Y97.969 E2.80869
G1 X81.931 Y98.018 E2.81861
G1 X81.589 Y98.107 E2.82590
G1 X81.315 Y98.255 E2.83232
G1 X80.854 Y98.791 E2.84689
G1 X80.854 Y97.989 E2.86342
G1 X80.914 Y97.906 E2.86552
G1 X81.143 Y97.734 E2.87142
G1 X81.468 Y97.595 E2.87872
G1 X81.903 Y97.489 E2.88794
G1 X82.335 Y97.436 E2.89690
G1 X82.908 Y97.399 F7800.000
G1 X83.861 Y95.724 F7800.000
G1 F1186.69
G1 X83.367 Y96.219 E2.91744
G1 X83.366 Y97.198 E2.94622
G1 X84.840 Y95.724 E3.00746
G1 X85.592 Y95.724 E3.02954
G1 X85.592 Y95.951 E3.03621
G1 X83.365 Y98.178 E3.12871
G1 X83.364 Y99.158 E3.15749
G1 X85.592 Y96.930 E3.25003
G1 X85.592 Y97.909 E3.27878
G1 X83.363 Y100.137 E3.37136
G1 X83.362 Y101.117 E3.40014
G1 X85.592 Y98.888 E3.49275
G1 X85.592 Y99.866 E3.52150
G1 X83.361 Y102.097 E3.61416
G1 X83.360 Y103.076 E3.64293
G1 X85.592 Y100.845 E3.73563
G1 X85.592 Y101.824 E3.76438
G1 X83.359 Y104.056 E3.85711
G1 X83.360 Y104.276 E3.86357
G1 X84.118 Y104.276 E3.88583
G1 X85.592 Y102.803 E3.94704
G1 X85.592 Y103.781 E3.97579
G1 X85.097 Y104.276 E3.99633
M106 S255
G1 Z10.600 F7800.000
G1 X83.334 Y95.336 F7800.000
G1 F880.227
G1 X86.338 Y95.336 E4.07735
G1 X86.338 Y104.664 E4.32901
G1 X83.341 Y104.664 E4.40984
G1 X83.312 Y103.373 E4.44470
G1 X83.328 Y103.366 E4.44517
G1 X83.334 Y95.411 E4.65977
G1 E2.65977 F2400.00000
G92 E0
G1 X82.767 Y97.403 F7800.000
G1 E2.00000 F2400.00000
G1 F1800
G1 X82.784 Y94.775 E2.05417
G1 X86.898 Y94.775 E2.13896
G1 X86.898 Y105.225 E2.35434
G1 X82.793 Y105.225 E2.43896
G1 X82.762 Y103.841 E2.46750
G1 X81.928 Y103.789 E2.48471
G1 X81.595 Y103.727 E2.49170
G1 X81.212 Y103.599 E2.50002
G1 X81.212 Y103.075 E2.51082
G1 X81.454 Y103.179 E2.51625
G1 X81.903 Y103.228 E2.52554
G1 X82.342 Y103.181 E2.53465
G1 X82.768 Y102.997 E2.54421
G1 X82.768 Y101.823 E2.56841
G1 X82.319 Y101.642 E2.57838
G1 X81.864 Y101.597 E2.58781
G1 X81.419 Y101.640 E2.59701
G1 X81.212 Y101.725 E2.60163
G1 X81.212 Y101.220 E2.61204
G1 X81.465 Y101.138 E2.61752
G1 X81.907 Y101.096 E2.62668
G1 X82.232 Y101.117 E2.63339
G1 X82.768 Y101.228 E2.64467
G1 X82.768 Y100.118 E2.66755
G1 X82.256 Y100.100 E2.67810
G1 X81.753 Y100.042 E2.68853
G1 X81.339 Y99.953 E2.69726
G1 X81.212 Y99.905 E2.70006
G1 X81.212 Y99.379 E2.71091
G1 X81.616 Y99.486 E2.71953
G1 X81.947 Y99.533 E2.72642
G1 X82.768 Y99.566 E2.74335
G1 X82.768 Y97.970 E2.77624
G1 X82.012 Y97.984 E2.79182
G1 X81.679 Y98.018 E2.79871
G1 X81.212 Y98.139 E2.80867
G1 X81.212 Y97.596 E2.81986
G1 X81.651 Y97.489 E2.82918
G1 X82.191 Y97.423 E2.84039
G1 X82.692 Y97.406 E2.85071
G1 X83.267 Y97.392 F7800.000
G1 X85.949 Y96.219 F7800.000
G1 F1173.64
G1 X85.455 Y95.724 E2.87128
G1 X84.475 Y95.724 E2.90008
G1 X85.949 Y97.198 E2.96137
G1 X85.949 Y98.178 E2.99017
G1 X83.722 Y95.951 E3.08277
G1 X83.721 Y96.930 E3.11155
G1 X85.949 Y99.158 E3.20418
G1 X85.949 Y100.137 E3.23298
G1 X83.721 Y97.909 E3.32564
G1 X83.720 Y98.888 E3.35442
G1 X85.949 Y101.117 E3.44711
G1 X85.949 Y102.096 E3.47591
G1 X83.719 Y99.866 E3.56863
G1 X83.718 Y100.845 E3.59741
G1 X85.949 Y103.076 E3.69016
G1 X85.949 Y104.056 E3.71897
G1 X83.718 Y101.824 E3.81175
G1 X83.717 Y102.803 E3.84053
G1 X85.190 Y104.276 E3.90176
G1 X84.210 Y104.276 E3.93056
G1 X83.715 Y103.781 E3.95112
G1 X83.033 Y103.419 F7800.000
G1 F1173.64
G1 X82.423 Y103.496 E3.95172
G1 X82.380 Y103.461 E3.95178
M106 S249.9
G1 Z10.900 F7800.000
G1 X83.686 Y102.636 F7800.000
G1 F900
G1 X83.690 Y95.336 E4.14872
G1 X86.695 Y95.336 E4.22980
G1 X86.695 Y104.664 E4.48146
G1 X83.699 Y104.664 E4.56230
G1 X83.667 Y103.230 E4.60100
G1 X83.158 Y103.252 E4.61473
G1 X83.370 Y102.444 E4.63726
G1 X83.622 Y102.597 E4.64519
G1 X83.125 Y101.639 F7800.000
G1 F900
G1 X83.125 Y100.098 E4.67695
G1 X82.563 Y100.119 E4.68855
G1 X82.007 Y100.100 E4.70000
G1 X81.569 Y100.039 E4.70912
G1 X81.569 Y99.528 E4.71966
G1 X82.559 Y99.567 E4.74007
G1 X83.125 Y99.547 E4.75175
G1 X83.125 Y97.986 E4.78391
G1 X81.893 Y97.970 E4.80932
G1 X81.569 Y98.004 E4.81601
G1 X81.569 Y97.472 E4.82696
G1 X81.941 Y97.423 E4.83468
G1 X82.579 Y97.401 E4.84785
G1 X83.125 Y97.426 E4.85910
G1 X83.142 Y94.775 E4.91373
G1 X87.256 Y94.775 E4.99852
G1 X87.256 Y105.225 E5.21390
G1 X83.150 Y105.225 E5.29851
G1 X83.119 Y103.815 E5.32758
G1 X82.516 Y103.841 E5.34003
G1 X81.569 Y103.782 E5.35957
G1 X81.569 Y103.236 E5.37081
G1 X82.090 Y103.181 E5.38161
G1 X82.452 Y103.025 E5.38973
G1 X82.708 Y102.757 E5.39736
G1 X82.802 Y102.403 E5.40491
G1 X82.704 Y102.053 E5.41240
G1 X82.439 Y101.792 E5.42007
G1 X82.067 Y101.642 E5.42833
G1 X81.569 Y101.593 E5.43864
G1 X81.569 Y101.091 E5.44900
G1 X81.980 Y101.117 E5.45748
G1 X82.272 Y101.177 E5.46362
G1 X82.528 Y101.276 E5.46927
G1 X83.061 Y101.600 E5.48214
G1 X83.618 Y101.722 F7800.000
G1 X82.922 Y103.047 F7800.000
G1 F1200
G1 X82.671 Y103.401 E5.48648
G1 X82.130 Y103.525 E5.49202
G1 X82.129 Y103.461 F7800.000
G1 F1200
G1 X82.172 Y103.496 E5.49208
G1 X82.825 Y103.414 E5.49272
G1 X85.812 Y104.276 F7800.000
G1 F1200
G1 X86.307 Y103.781 E5.51327
G1 X86.307 Y102.802 E5.54205
G1 X84.833 Y104.276 E5.60329
G1 X84.073 Y104.276 E5.62562
G1 X84.068 Y104.062 E5.63193
G1 X86.307 Y101.823 E5.72495
G1 X86.307 Y100.844 E5.75373
G1 X84.074 Y103.076 E5.84651
G1 X84.075 Y102.097 E5.87530
G1 X86.307 Y99.865 E5.96806
G1 X86.307 Y98.886 E5.99683
G1 X84.075 Y101.117 E6.08957
G1 X84.076 Y100.137 E6.11836
G1 X86.307 Y97.906 E6.21108
G1 X86.307 Y96.927 E6.23985
G1 X84.076 Y99.158 E6.33255
G1 X84.077 Y98.178 E6.36134
G1 X86.307 Y95.948 E6.45401
G1 X86.307 Y95.724 E6.46059
G1 X85.551 Y95.724 E6.48279
G1 X84.077 Y97.198 E6.54405
G1 X84.078 Y96.219 E6.57284
G1 X84.572 Y95.724 E6.59340
G1 Z11.200 F7800.000
G1 X84.057 Y104.664 F7800.000
G1 F900
G1 X84.036 Y103.696 E6.61951
G1 X84.043 Y95.936 E6.82887
G1 X83.885 Y95.790 E6.83467
G1 X84.029 Y95.658 E6.83994
G1 X84.042 Y95.336 E6.84864
G1 X87.053 Y95.336 E6.92986
G1 X87.053 Y104.664 E7.18152
G1 X84.132 Y104.664 E7.26032
G1 X83.476 Y103.726 F7800.000
G1 F900
G1 X82.894 Y103.814 E7.27244
G1 X82.264 Y103.841 E7.28544
G1 X81.927 Y103.820 E7.29240
G1 X81.927 Y103.143 E7.30636
G1 X82.201 Y103.025 E7.31250
G1 X82.396 Y102.821 E7.31831
G1 X82.590 Y103.271 E7.32841
G1 X83.483 Y103.186 E7.34688
G1 X83.483 Y100.027 E7.41199
G1 X82.976 Y100.095 E7.42252
G1 X82.312 Y100.119 E7.43622
G1 X81.927 Y100.102 E7.44416
G1 X81.927 Y99.552 E7.45550
G1 X82.309 Y99.568 E7.46337
G1 X83.483 Y99.512 E7.48760
G1 X83.483 Y98.004 E7.51867
G1 X81.927 Y97.976 E7.55074
G1 X81.927 Y97.416 E7.56228
G1 X82.328 Y97.401 E7.57054
G1 X82.925 Y97.428 E7.58287
G1 X83.483 Y97.506 E7.59447
G1 X83.483 Y96.182 E7.62177
G1 X83.328 Y96.040 E7.62610
G1 X83.271 Y95.959 E7.62814
G1 X83.229 Y95.791 E7.63169
G1 X83.271 Y95.622 E7.63530
G1 X83.328 Y95.541 E7.63734
G1 X83.478 Y95.403 E7.64153
G1 X83.503 Y94.775 E7.65448
G1 X87.613 Y94.775 E7.73920
G1 X87.613 Y105.225 E7.95457
G1 X83.508 Y105.225 E8.03919
G1 X83.478 Y103.801 E8.06855
G1 X83.233 Y103.289 F7800.000
G1 X82.777 Y102.488 F7800.000
G1 F900
G1 X82.570 Y102.475 E8.07282
G1 X82.452 Y102.053 E8.08184
G1 X82.187 Y101.792 E8.08951
G1 X81.927 Y101.687 E8.09530
G1 X81.927 Y101.141 E8.10654
G1 X82.276 Y101.276 E8.11425
G1 X82.499 Y101.412 E8.11964
G1 X82.676 Y101.570 E8.12454
G1 X82.795 Y101.734 E8.12870
G1 X82.939 Y102.099 E8.13680
G1 X82.806 Y102.419 E8.14393
G1 X82.602 Y102.375 F7800.000
G1 E6.14393 F2400.00000
G92 E0
G1 X84.432 Y103.781 F7800.000
G1 E2.00000 F2400.00000
G1 F1200
G1 X84.926 Y104.276 E2.02056
G1 X85.906 Y104.276 E2.04935
G1 X84.425 Y102.795 E2.11091
G1 X84.426 Y101.817 E2.13968
G1 X86.664 Y104.055 E2.23273
G1 X86.664 Y103.075 E2.26152
G1 X84.427 Y100.838 E2.35453
G1 X84.428 Y99.859 E2.38330
G1 X86.664 Y102.096 E2.47627
G1 X86.664 Y101.116 E2.50507
G1 X84.429 Y98.881 E2.59800
G1 X84.430 Y97.902 E2.62677
G1 X86.664 Y100.137 E2.71966
G1 X86.664 Y99.157 E2.74846
G1 X84.431 Y96.924 E2.84132
G1 X84.431 Y95.945 E2.87008
G1 X86.664 Y98.178 E2.96290
G1 X86.664 Y97.198 E2.99170
G1 X85.190 Y95.724 E3.05298
G1 X86.170 Y95.724 E3.08177
G1 X86.664 Y96.219 E3.10233
G1 Z11.500 F7800.000
G1 X84.416 Y104.664 F7800.000
G1 F900
G1 X84.389 Y103.298 E3.13919
G1 X84.401 Y95.336 E3.35400
G1 X87.422 Y95.336 E3.43549
G1 X87.422 Y104.664 E3.68715
G1 X84.491 Y104.664 E3.76622
G1 X83.833 Y103.534 F7800.000
G1 F900
G1 X83.174 Y103.733 E3.78042
G1 X82.643 Y103.814 E3.79149
G1 X82.284 Y103.829 E3.79888
G1 X82.284 Y103.276 E3.81028
G1 X83.134 Y103.195 E3.82786
G1 X83.589 Y103.088 E3.83749
G1 X83.840 Y102.955 E3.84336
G1 X83.840 Y101.851 E3.86611
G1 X83.608 Y101.799 E3.87101
G1 X83.695 Y101.260 E3.88226
G1 X83.840 Y101.304 E3.88539
G1 X83.840 Y99.864 E3.91507
G1 X83.270 Y100.022 E3.92726
G1 X82.725 Y100.095 E3.93858
G1 X82.284 Y100.109 E3.94767
G1 X82.284 Y99.557 E3.95906
G1 X82.916 Y99.536 E3.97207
G1 X83.489 Y99.434 E3.98406
G1 X83.840 Y99.278 E3.99199
