; generated by Slic3r 1.3.0-dev on 2018-04-17 at 11:43:58

; external perimeters extrusion width = 0.44mm (2.54mm^3/s)
; perimeters extrusion width = 0.56mm (4.14mm^3/s)
; infill extrusion width = 0.50mm (3.66mm^3/s)
; solid infill extrusion width = 0.56mm (4.14mm^3/s)
; top infill extrusion width = 0.56mm (4.14mm^3/s)
; support material extrusion width = 0.44mm (3.18mm^3/s)

M107
M104 S210 ; set temperature
G28 ; home all axes
G32; probe home individual Z axis
G29 S1; load bed mesh

; Filament gcode

M109 S210 ; set temperature and wait for it to be reached
G21 ; set units to millimeters
G90 ; use absolute coordinates
M82 ; use absolute distances for extrusion
G92 E0
G1 U276.686 V59.908 Z168.297 F6000.000
G1 E-2.00000 F2400.00000
G92 E0
G1 X515.597 Y92.257 F6000.000
G1 E2.00000 F2400.00000
G1 F1680
G1 X520.682 Y92.257 E2.21330
G1 X520.682 Y107.743 E2.86293
G1 X515.603 Y107.743 E3.07600
G1 X515.587 Y106.011 E3.14863
G1 X515.596 Y92.317 E3.72312
G1 X515.288 Y91.942 F6000.000
G1 F1344
G1 X520.997 Y91.942 E3.96262
G1 X520.997 Y108.058 E4.63871
G1 X515.290 Y108.058 E4.87811
G1 X515.272 Y106.013 E4.96391
G1 X515.272 Y92.734 E5.52097
G1 X515.287 Y92.002 E5.55169
G1 X515.634 Y92.142 F6000.000
G1 X515.868 Y92.617 F6000.000
G1 F1680
G1 X515.957 Y92.528 E5.55702
G1 X516.406 Y92.528 E5.57599
G1 X515.867 Y93.067 E5.60817
G1 X515.867 Y93.516 E5.62716
G1 X516.855 Y92.528 E5.68618
G1 X517.304 Y92.528 E5.70515
G1 X515.867 Y93.965 E5.79103
G1 X515.866 Y94.415 E5.81001
G1 X517.753 Y92.528 E5.92272
G1 X518.202 Y92.528 E5.94169
G1 X515.866 Y94.864 E6.08125
G1 X515.866 Y95.314 E6.10024
G1 X518.651 Y92.528 E6.26664
G1 X519.100 Y92.528 E6.28561
G1 X515.865 Y95.763 E6.47886
G1 X515.865 Y96.212 E6.49784
G1 X519.549 Y92.528 E6.71794
G1 X519.998 Y92.528 E6.73691
G1 X515.865 Y96.662 E6.98385
G1 X515.864 Y97.111 E7.00283
G1 X520.411 Y92.564 E7.27444
G1 X520.411 Y93.013 E7.29341
G1 X515.864 Y97.560 E7.56504
G1 X515.864 Y98.010 E7.58402
G1 X520.411 Y93.462 E7.85567
G1 X520.411 Y93.912 E7.87464
G1 X515.863 Y98.459 E8.14631
G1 X515.863 Y98.908 E8.16529
G1 X520.411 Y94.361 E8.43698
G1 X520.411 Y94.810 E8.45594
G1 X515.863 Y99.358 E8.72765
G1 X515.862 Y99.807 E8.74663
G1 X520.411 Y95.259 E9.01836
G1 X520.411 Y95.708 E9.03733
G1 X515.862 Y100.256 E9.30907
G1 X515.862 Y100.706 E9.32805
G1 X520.411 Y96.157 E9.59982
G1 X520.411 Y96.606 E9.61878
G1 X515.862 Y101.155 E9.89057
G1 X515.861 Y101.605 E9.90955
G1 X520.411 Y97.055 E10.18135
G1 X520.411 Y97.504 E10.20032
G1 X515.861 Y102.054 E10.47214
G1 X515.861 Y102.503 E10.49112
G1 X520.411 Y97.953 E10.76296
G1 X520.411 Y98.402 E10.78193
G1 X515.860 Y102.953 E11.05379
G1 X515.860 Y103.402 E11.07277
G1 X520.411 Y98.851 E11.34465
G1 X520.411 Y99.300 E11.36362
G1 X515.860 Y103.851 E11.63551
G1 X515.859 Y104.301 E11.65450
G1 X520.411 Y99.749 E11.92641
G1 X520.411 Y100.198 E11.94538
G1 X515.859 Y104.750 E12.21731
G1 X515.859 Y105.199 E12.23630
G1 X520.411 Y100.647 E12.50825
G1 X520.411 Y101.096 E12.52722
G1 X515.858 Y105.649 E12.79919
G1 X515.858 Y106.098 E12.81816
G1 X520.411 Y101.545 E13.09012
G1 X520.411 Y101.994 E13.10909
G1 X515.862 Y106.543 E13.38082
G1 X515.866 Y106.988 E13.39963
G1 X520.411 Y102.443 E13.67112
G1 X520.411 Y102.892 E13.69009
G1 X515.870 Y107.433 E13.96135
G1 X515.871 Y107.472 E13.96300
G1 X516.280 Y107.472 E13.98030
G1 X520.411 Y103.341 E14.22707
G1 X520.411 Y103.790 E14.24604
G1 X516.729 Y107.472 E14.46598
G1 X517.178 Y107.472 E14.48495
G1 X520.411 Y104.239 E14.67806
G1 X520.411 Y104.688 E14.69703
G1 X517.627 Y107.472 E14.86332
G1 X518.076 Y107.472 E14.88229
G1 X520.411 Y105.137 E15.02175
G1 X520.411 Y105.586 E15.04072
G1 X518.525 Y107.472 E15.15336
G1 X518.975 Y107.472 E15.17233
G1 X520.411 Y106.036 E15.25814
G1 X520.411 Y106.485 E15.27711
G1 X519.424 Y107.472 E15.33610
G1 X519.873 Y107.472 E15.35507
G1 X520.411 Y106.934 E15.38723
G1 X520.411 Y107.383 E15.40620
G1 X520.322 Y107.472 E15.41153
G1 U276.686 V59.908 Z168.297 F6000.000
M104 S205 ; set temperature
G1 U276.886 V60.108 Z168.497 F6000.000
G1 X515.979 Y92.427 F6000.000
G1 F1920
G1 X520.772 Y92.427 E15.61762
G1 X520.772 Y107.573 E16.26882
G1 X515.989 Y107.573 E16.47446
G1 X515.979 Y92.487 E17.12308
G1 X515.534 Y91.970 F6000.000
G1 F1920
G1 X521.229 Y91.970 E17.31113
G1 X521.229 Y108.030 E17.84139
G1 X515.536 Y108.030 E18.02935
G1 X515.522 Y106.384 E18.08371
G1 X515.533 Y92.030 E18.55763
G1 X515.880 Y92.170 F6000.000
G1 X520.328 Y93.017 F6000.000
G1 F2400
G1 X520.182 Y92.871 E18.56669
G1 X519.438 Y92.871 E18.59925
G1 X520.328 Y93.762 E18.65436
G1 X520.328 Y94.506 E18.68692
G1 X518.693 Y92.871 E18.78808
G1 X517.949 Y92.871 E18.82064
G1 X520.328 Y95.250 E18.96785
G1 X520.328 Y95.994 E19.00041
G1 X517.205 Y92.871 E19.19367
G1 X516.461 Y92.871 E19.22623
G1 X520.328 Y96.738 E19.46554
G1 X520.328 Y97.483 E19.49810
G1 X516.424 Y93.578 E19.73971
G1 X516.424 Y94.323 E19.77230
G1 X520.328 Y98.227 E20.01388
G1 X520.328 Y98.971 E20.04644
G1 X516.425 Y95.067 E20.28799
G1 X516.425 Y95.812 E20.32058
G1 X520.328 Y99.715 E20.56209
G1 X520.328 Y100.459 E20.59465
G1 X516.426 Y96.557 E20.83614
G1 X516.426 Y97.301 E20.86872
G1 X520.328 Y101.203 E21.11018
G1 X520.328 Y101.948 E21.14274
G1 X516.427 Y98.046 E21.38416
G1 X516.427 Y98.791 E21.41675
G1 X520.328 Y102.692 E21.65813
G1 X520.328 Y103.436 E21.69070
G1 X516.428 Y99.536 E21.93205
G1 X516.428 Y100.280 E21.96464
G1 X520.328 Y104.180 E22.20596
G1 X520.328 Y104.924 E22.23853
G1 X516.429 Y101.025 E22.47982
G1 X516.429 Y101.770 E22.51240
G1 X520.328 Y105.669 E22.75367
G1 X520.328 Y106.413 E22.78623
G1 X516.430 Y102.514 E23.02746
G1 X516.430 Y103.259 E23.06004
G1 X520.300 Y107.129 E23.29951
G1 X519.556 Y107.129 E23.33207
G1 X516.431 Y104.004 E23.52546
G1 X516.431 Y104.748 E23.55805
G1 X518.812 Y107.129 E23.70535
G1 X518.068 Y107.129 E23.73791
G1 X516.432 Y105.493 E23.83914
G1 X516.432 Y106.238 E23.87172
G1 X517.323 Y107.129 E23.92686
G1 X516.579 Y107.129 E23.95942
G1 X516.433 Y106.983 E23.96848
G1 U277.086 V60.308 Z168.697 F6000.000
G1 X516.149 Y92.427 F6000.000
G1 F1920
G1 X520.972 Y92.427 E24.17585
G1 X520.972 Y107.573 E24.82705
G1 X516.157 Y107.573 E25.03407
G1 X516.149 Y92.487 E25.68269
G1 X515.702 Y91.970 F6000.000
G1 F1920
G1 X521.429 Y91.970 E25.87180
G1 X521.429 Y108.030 E26.40206
G1 X515.704 Y108.030 E26.59109
G1 X515.700 Y92.030 E27.11937
G1 X516.048 Y92.170 F6000.000
G1 X516.740 Y92.871 F6000.000
G1 F2400
G1 X516.593 Y93.017 E27.12845
G1 X516.594 Y93.763 E27.16114
G1 X517.486 Y92.871 E27.21644
G1 X518.231 Y92.871 E27.24915
G1 X516.594 Y94.508 E27.35069
G1 X516.595 Y95.254 E27.38338
G1 X518.977 Y92.871 E27.53115
G1 X519.723 Y92.871 E27.56385
G1 X516.595 Y95.999 E27.75785
G1 X516.595 Y96.745 E27.79054
G1 X520.469 Y92.871 E28.03077
G1 X520.528 Y92.871 E28.03337
G1 X520.528 Y93.558 E28.06348
G1 X516.596 Y97.490 E28.30735
G1 X516.596 Y98.236 E28.34004
G1 X520.528 Y94.303 E28.58390
G1 X520.528 Y95.049 E28.61660
G1 X516.597 Y98.981 E28.86043
G1 X516.597 Y99.726 E28.89312
G1 X520.528 Y95.795 E29.13693
G1 X520.528 Y96.541 E29.16963
G1 X516.597 Y100.472 E29.41341
G1 X516.598 Y101.217 E29.44610
G1 X520.528 Y97.287 E29.68986
G1 X520.528 Y98.033 E29.72257
G1 X516.598 Y101.963 E29.96630
G1 X516.599 Y102.708 E29.99899
G1 X520.528 Y98.778 E30.24269
G1 X520.528 Y99.524 E30.27540
G1 X516.599 Y103.454 E30.51908
G1 X516.599 Y104.199 E30.55177
G1 X520.528 Y100.270 E30.79543
G1 X520.528 Y101.016 E30.82814
G1 X516.600 Y104.944 E31.07177
G1 X516.600 Y105.690 E31.10446
G1 X520.528 Y101.762 E31.34807
G1 X520.528 Y102.508 E31.38078
G1 X516.600 Y106.435 E31.62437
G1 X516.601 Y107.129 E31.65478
G1 X516.653 Y107.129 E31.65706
G1 X520.528 Y103.253 E31.89740
G1 X520.528 Y103.999 E31.93011
G1 X517.399 Y107.129 E32.12420
G1 X518.144 Y107.129 E32.15691
G1 X520.528 Y104.745 E32.30475
G1 X520.528 Y105.491 E32.33746
G1 X518.890 Y107.129 E32.43904
G1 X519.636 Y107.129 E32.47175
G1 X520.528 Y106.237 E32.52708
G1 X520.528 Y106.983 E32.55979
G1 X520.382 Y107.129 E32.56887
M106 S255
G1 U277.286 V60.508 Z168.897 F6000.000
G1 X516.331 Y92.427 F6000.000
G1 F1153.41
G1 X521.172 Y92.427 E32.77702
G1 X521.172 Y107.573 E33.42822
G1 X516.331 Y107.573 E33.63637
G1 X516.331 Y92.487 E34.28499
G1 X515.874 Y91.970 F6000.000
G1 F1920
G1 X521.629 Y91.970 E34.47502
G1 X521.629 Y108.030 E35.00527
G1 X515.874 Y108.030 E35.19530
G1 X515.874 Y92.030 E35.72358
G1 X516.241 Y92.129 F6000.000
G1 X520.754 Y95.554 F6000.000
G1 F1441.77
G1 X518.045 Y92.845 E35.86920
G1 X516.749 Y92.845 E35.91844
G1 X516.749 Y94.782 E35.99203
G1 X520.754 Y98.787 E36.20729
G1 X520.754 Y102.019 E36.33013
G1 X516.749 Y98.014 E36.54538
G1 X516.749 Y101.246 E36.66822
G1 X520.754 Y105.251 E36.88348
G1 X520.754 Y107.155 E36.95585
G1 X519.426 Y107.155 E37.00632
G1 X516.749 Y104.478 E37.15020
G1 U277.486 V60.708 Z169.097 F6000.000
G1 X516.499 Y92.427 F6000.000
G1 F1157.52
G1 X521.372 Y92.427 E37.35973
G1 X521.372 Y107.573 E38.01093
G1 X516.499 Y107.573 E38.22047
G1 X516.499 Y92.487 E38.86909
G1 X516.042 Y91.970 F6000.000
G1 F1920
G1 X521.829 Y91.970 E39.06018
G1 X521.829 Y108.030 E39.59044
G1 X516.042 Y108.030 E39.78153
G1 X516.042 Y92.030 E40.30980
G1 X516.409 Y92.129 F6000.000
G1 X519.426 Y92.845 F6000.000
G1 F1446.9
G1 X516.917 Y95.354 E40.44466
G1 X516.917 Y98.586 E40.56750
G1 X520.954 Y94.549 E40.78449
G1 X520.954 Y97.781 E40.90733
G1 X516.917 Y101.818 E41.12431
G1 X516.917 Y105.050 E41.24715
G1 X520.954 Y101.013 E41.46414
G1 X520.954 Y104.245 E41.58697
G1 X518.045 Y107.155 E41.74335
G1 U277.686 V60.908 Z169.297 F6000.000
G1 X516.667 Y92.427 F6000.000
G1 F1161.63
G1 X521.573 Y92.427 E41.95427
G1 X521.573 Y107.573 E42.60547
G1 X516.667 Y107.573 E42.81639
G1 X516.667 Y92.487 E43.46501
G1 X516.210 Y91.970 F6000.000
G1 F1920
G1 X522.030 Y91.970 E43.65716
G1 X522.030 Y108.030 E44.18742
G1 X516.210 Y108.030 E44.37957
G1 X516.210 Y92.030 E44.90785
G1 X516.577 Y92.129 F6000.000
G1 X521.154 Y95.955 F6000.000
G1 F1452.03
G1 X518.045 Y92.845 E45.07498
G1 X517.085 Y92.845 E45.11145
G1 X517.085 Y95.117 E45.19781
G1 X521.154 Y99.187 E45.41653
G1 X521.154 Y102.419 E45.53937
G1 X517.085 Y98.350 E45.75809
G1 X517.085 Y101.582 E45.88092
G1 X521.154 Y105.651 E46.09964
G1 X521.154 Y107.155 E46.15680
G1 X519.426 Y107.155 E46.22248
G1 X517.085 Y104.814 E46.34831
G1 U277.886 V61.108 Z169.497 F6000.000
G1 X516.835 Y92.427 F6000.000
G1 F1165.74
G1 X521.773 Y92.427 E46.56062
G1 X521.773 Y107.573 E47.21182
G1 X516.835 Y107.573 E47.42412
G1 X516.835 Y92.487 E48.07274
G1 X516.378 Y91.970 F6000.000
G1 F1920
G1 X522.230 Y91.970 E48.26596
G1 X522.230 Y108.030 E48.79621
G1 X516.378 Y108.030 E48.98943
G1 X516.378 Y92.030 E49.51771
G1 X516.745 Y92.128 F6000.000
G1 X519.426 Y92.845 F6000.000
G1 F1457.18
G1 X517.253 Y95.018 E49.63452
G1 X517.253 Y98.251 E49.75735
G1 X521.354 Y94.149 E49.97780
G1 X521.354 Y97.381 E50.10064
G1 X517.253 Y101.483 E50.32109
G1 X517.253 Y104.715 E50.44393
G1 X521.354 Y100.613 E50.66437
G1 X521.354 Y103.845 E50.78721
G1 X518.045 Y107.155 E50.96510
G1 U278.086 V61.308 Z169.697 F6000.000
G1 X517.003 Y92.427 F6000.000
G1 F1267.17
G1 X521.973 Y92.427 E51.17878
G1 X521.973 Y107.573 E51.82998
G1 X517.003 Y107.573 E52.04367
G1 X517.003 Y92.487 E52.69229
G1 X516.546 Y91.970 F6000.000
G1 F1920
G1 X522.430 Y91.970 E52.88657
G1 X522.430 Y108.030 E53.41683
G1 X516.546 Y108.030 E53.61111
G1 X516.546 Y92.030 E54.13939
G1 X516.913 Y92.128 F6000.000
G1 X521.555 Y93.123 F6000.000
G1 F1583.96
G1 X521.277 Y92.845 E54.15431
G1 X518.045 Y92.845 E54.27715
G1 X521.555 Y96.355 E54.46579
G1 X521.555 Y99.587 E54.58862
G1 X517.421 Y95.453 E54.81080
G1 X517.421 Y98.685 E54.93364
G1 X521.555 Y102.819 E55.15582
G1 X521.555 Y106.051 E55.27866
G1 X517.421 Y101.917 E55.50084
G1 X517.421 Y105.149 E55.62367
G1 X519.426 Y107.155 E55.73146
G1 X517.559 Y107.155 E55.80244
G1 X517.559 Y105.287 E55.87341
G1 U278.286 V61.508 Z169.897 F6000.000
G1 X517.185 Y92.427 F6000.000
G1 F1268.33
G1 X522.173 Y92.427 E56.08785
G1 X522.173 Y107.573 E56.73905
G1 X517.185 Y107.573 E56.95348
G1 X517.185 Y92.487 E57.60210
G1 X516.728 Y91.970 F6000.000
G1 F1920
G1 X522.630 Y91.970 E57.79696
G1 X522.630 Y108.030 E58.32721
G1 X516.728 Y108.030 E58.52207
G1 X516.728 Y92.030 E59.05034
G1 X517.096 Y92.128 F6000.000
G1 X519.288 Y92.983 F6000.000
G1 F1585.42
G1 X517.604 Y92.983 E59.11438
G1 X517.604 Y94.668 E59.17841
G1 X519.426 Y92.845 E59.27637
G1 X521.755 Y92.845 E59.36487
G1 X521.755 Y93.749 E59.39921
G1 X517.604 Y97.900 E59.62232
G1 X517.604 Y101.132 E59.74516
G1 X521.755 Y96.981 E59.96827
G1 X521.755 Y100.213 E60.09111
G1 X517.604 Y104.364 E60.31422
G1 X517.604 Y107.155 E60.42029
G1 X518.045 Y107.155 E60.43706
G1 X521.755 Y103.445 E60.63646
G1 X521.755 Y106.677 E60.75930
G1 X521.277 Y107.155 E60.78498
G1 U278.486 V61.708 Z170.097 F6000.000
G1 X517.386 Y92.427 F6000.000
G1 F1266.78
G1 X522.373 Y92.427 E60.99941
G1 X522.373 Y107.573 E61.65061
G1 X517.386 Y107.573 E61.86504
G1 X517.386 Y92.487 E62.51367
G1 X516.929 Y91.970 F6000.000
G1 F1920
G1 X522.830 Y91.970 E62.70852
G1 X522.830 Y108.030 E63.23878
G1 X516.929 Y108.030 E63.43363
G1 X516.929 Y92.030 E63.96191
G1 X517.296 Y92.128 F6000.000
G1 X521.955 Y93.523 F6000.000
G1 F1583.48
G1 X521.277 Y92.845 E63.99834
G1 X518.045 Y92.845 E64.12118
G1 X521.955 Y96.755 E64.33133
G1 X521.955 Y99.987 E64.45417
G1 X517.804 Y95.836 E64.67728
G1 X517.804 Y99.068 E64.80012
G1 X521.955 Y103.219 E65.02323
G1 X521.955 Y106.451 E65.14607
G1 X517.804 Y102.300 E65.36918
G1 X517.804 Y105.532 E65.49202
G1 X519.426 Y107.155 E65.57923
G1 X517.942 Y107.155 E65.63565
G1 X517.942 Y105.670 E65.69208
G1 U278.686 V61.908 Z170.297 F6000.000
G1 X517.586 Y92.427 F6000.000
G1 F1265.23
G1 X522.573 Y92.427 E65.90652
G1 X522.573 Y107.573 E66.55772
G1 X517.586 Y107.573 E66.77215
G1 X517.586 Y92.487 E67.42077
G1 X517.129 Y91.970 F6000.000
G1 F1920
G1 X523.030 Y91.970 E67.61563
G1 X523.030 Y108.030 E68.14588
G1 X517.129 Y108.030 E68.34074
G1 X517.129 Y92.030 E68.86901
G1 X517.496 Y92.128 F6000.000
G1 X519.288 Y92.983 F6000.000
G1 F1581.54
G1 X518.004 Y92.983 E68.91784
G1 X518.004 Y94.268 E68.96666
G1 X519.426 Y92.845 E69.04311
G1 X522.155 Y92.845 E69.14681
G1 X522.155 Y93.349 E69.16594
G1 X518.004 Y97.500 E69.38906
G1 X518.004 Y100.732 E69.51190
G1 X522.155 Y96.581 E69.73501
G1 X522.155 Y99.813 E69.85785
G1 X518.004 Y103.964 E70.08096
G1 X518.004 Y107.155 E70.20224
G1 X518.045 Y107.155 E70.20380
G1 X522.155 Y103.045 E70.42471
G1 X522.155 Y106.277 E70.54754
G1 X521.277 Y107.155 E70.59473
G1 U278.886 V62.108 Z170.497 F6000.000
G1 X517.781 Y92.427 F6000.000
G1 F1261.09
G1 X522.773 Y92.427 E70.80936
G1 X522.773 Y107.573 E71.46056
G1 X517.785 Y107.573 E71.67502
G1 X517.781 Y92.487 E72.32364
G1 X517.327 Y91.970 F6000.000
G1 F1920
G1 X523.230 Y91.970 E72.51854
G1 X523.230 Y108.030 E73.04880
G1 X517.329 Y108.030 E73.24365
G1 X517.327 Y92.030 E73.77193
G1 X517.674 Y92.170 F6000.000
G1 X522.355 Y93.923 F6000.000
G1 F1576.37
G1 X521.277 Y92.845 E73.82988
G1 X518.200 Y92.845 E73.94683
G1 X518.200 Y93.000 E73.95272
G1 X522.355 Y97.155 E74.17606
G1 X522.355 Y100.387 E74.29889
G1 X518.201 Y96.233 E74.52219
G1 X518.201 Y99.466 E74.64506
G1 X522.355 Y103.619 E74.86831
G1 X522.355 Y106.851 E74.99115
G1 X518.202 Y102.699 E75.21436
G1 X518.203 Y105.932 E75.33723
G1 X519.426 Y107.155 E75.40297
G1 X518.341 Y107.155 E75.44422
G1 X518.341 Y106.069 E75.48547
G1 U279.086 V62.308 Z170.697 F6000.000
G1 X517.982 Y92.427 F6000.000
G1 F1256.52
G1 X522.973 Y92.427 E75.70009
G1 X522.973 Y107.573 E76.35129
G1 X517.976 Y107.573 E76.56615
G1 X517.981 Y92.487 E77.21477
G1 X517.527 Y91.970 F6000.000
G1 F1920
G1 X523.430 Y91.970 E77.40967
G1 X523.430 Y108.030 E77.93993
G1 X517.526 Y108.030 E78.13488
G1 X517.512 Y94.335 E78.58705
G1 X517.527 Y92.030 E78.66316
G1 X517.874 Y92.170 F6000.000
G1 X519.288 Y92.983 F6000.000
G1 F1570.65
G1 X518.400 Y92.983 E78.69695
G1 X518.399 Y93.872 E78.73074
G1 X519.426 Y92.845 E78.78594
G1 X522.555 Y92.845 E78.90486
G1 X522.555 Y92.948 E78.90878
G1 X518.398 Y97.105 E79.13221
G1 X518.397 Y100.339 E79.25509
G1 X522.555 Y96.180 E79.47859
G1 X522.555 Y99.412 E79.60143
G1 X518.396 Y103.572 E79.82499
G1 X518.395 Y106.805 E79.94787
