; generated by Slic3r 1.3.0-dev on 2018-03-22 at 18:35:20

; external perimeters extrusion width = 0.55mm (4.37mm^3/s)
; perimeters extrusion width = 0.70mm (11.44mm^3/s)
; infill extrusion width = 0.62mm (13.45mm^3/s)
; solid infill extrusion width = 0.70mm (3.81mm^3/s)
; top infill extrusion width = 0.70mm (2.86mm^3/s)

M107
M104 S200 ; set temperature
G28 ; home all axes
G1 Z5 F5000 ; lift nozzle

; Filament gcode

M109 S200 ; set temperature and wait for it to be reached
G21 ; set units to millimeters
G90 ; use absolute coordinates
M82 ; use absolute distances for extrusion
G92 E0
G1 Z22.222 F7800.000
G1 E-2.00000 F2400.00000
G92 E0
G1 X68.894 Y89.493 F7800.000
G1 E2.00000 F2400.00000
G1 F1800
G1 X70.861 Y88.314 E2.07096
G1 X73.232 Y87.875 E2.14556
G1 X117.670 Y87.875 E3.52052
G1 X119.929 Y88.272 E3.59148
G1 X121.917 Y89.415 E3.66245
G1 X123.396 Y91.168 E3.73341
G1 X124.189 Y93.320 E3.80437
G1 X124.295 Y94.500 E3.84102
G1 X124.295 Y105.500 E4.18138
G1 X123.898 Y107.759 E4.25234
G1 X122.754 Y109.747 E4.32330
G1 X121.002 Y111.226 E4.39426
G1 X118.850 Y112.019 E4.46523
G1 X117.670 Y112.125 E4.50188
G1 X73.232 Y112.125 E5.87684
G1 X70.973 Y111.728 E5.94780
G1 X68.985 Y110.585 E6.01877
G1 X67.525 Y108.865 E6.08857
G1 X66.635 Y107.354 E6.14283
G1 X65.945 Y105.716 E6.19782
G1 X65.394 Y103.672 E6.26333
G1 X65.165 Y101.945 E6.31722
G1 X65.165 Y97.085 E6.46760
G1 X66.004 Y93.857 E6.57080
G1 X67.447 Y91.272 E6.66240
G1 X68.847 Y89.551 E6.73104
G1 E4.73104 F2400.00000
G92 E0
G1 X116.695 Y104.525 F7800.000
G1 E2.00000 F2400.00000
G1 F1800
G1 X112.829 Y104.525 E2.11962
G1 X112.829 Y95.475 E2.39964
G1 X116.695 Y95.475 E2.51926
G1 X116.695 Y104.450 E2.79696
G1 X117.320 Y105.150 F7800.000
G1 F1800
G1 X112.204 Y105.150 E2.95525
G1 X112.204 Y94.850 E3.27394
G1 X117.320 Y94.850 E3.43223
G1 X117.320 Y105.075 E3.74860
G1 X116.854 Y104.969 F7800.000
G1 X115.827 Y104.143 F7800.000
G1 F1800
G1 X116.313 Y103.657 E3.77140
G1 X116.313 Y102.710 E3.80279
G1 X114.880 Y104.143 E3.86999
G1 X113.933 Y104.143 E3.90139
G1 X116.313 Y101.763 E4.01298
G1 X116.313 Y100.816 E4.04438
G1 X113.211 Y103.918 E4.18983
G1 X113.211 Y102.972 E4.22123
G1 X116.313 Y99.869 E4.36668
G1 X116.313 Y98.922 E4.39808
G1 X113.211 Y102.025 E4.54353
G1 X113.211 Y101.078 E4.57493
G1 X116.313 Y97.975 E4.72038
G1 X116.313 Y97.028 E4.75178
G1 X113.211 Y100.131 E4.89723
G1 X113.211 Y99.184 E4.92862
G1 X116.313 Y96.082 E5.07408
G1 X116.313 Y95.857 E5.08153
G1 X115.591 Y95.857 E5.10547
G1 X113.211 Y98.237 E5.21707
G1 X113.211 Y97.290 E5.24847
G1 X114.644 Y95.857 E5.31566
G1 X113.697 Y95.857 E5.34706
G1 X113.211 Y96.343 E5.36985
G1 E3.36985 F2400.00000
G92 E0
G1 X76.484 Y104.525 F7800.000
G1 E2.00000 F2400.00000
G1 F1800
G1 X74.190 Y104.525 E2.07097
G1 X74.181 Y95.475 E2.35100
G1 X76.484 Y95.475 E2.42224
G1 X76.484 Y104.450 E2.69995
G1 E0.69995 F2400.00000
G92 E0
G1 X73.547 Y103.497 F7800.000
G1 E2.00000 F2400.00000
G1 F1800
G1 X72.620 Y103.605 E2.02887
G1 X72.533 Y103.177 E2.04237
G1 X72.717 Y103.023 E2.04979
G1 X72.860 Y102.762 E2.05901
G1 X72.911 Y102.472 E2.06811
G1 X72.810 Y102.078 E2.08070
G1 X72.513 Y101.779 E2.09374
G1 X72.140 Y101.638 E2.10610
G1 X72.140 Y101.164 E2.12075
G1 X72.586 Y101.334 E2.13554
G1 X72.804 Y101.465 E2.14341
G1 X73.554 Y102.136 E2.17454
G1 X73.554 Y99.770 E2.24776
G1 X72.620 Y99.878 E2.27683
G1 X72.533 Y99.450 E2.29034
G1 X72.717 Y99.296 E2.29776
G1 X72.860 Y99.035 E2.30697
G1 X72.911 Y98.745 E2.31608
G1 X72.810 Y98.351 E2.32867
G1 X72.513 Y98.052 E2.34171
G1 X72.140 Y97.910 E2.35407
G1 X72.140 Y97.437 E2.36872
G1 X72.586 Y97.607 E2.38351
G1 X72.804 Y97.738 E2.39138
G1 X73.553 Y98.408 E2.42247
G1 X73.557 Y94.850 E2.53256
G1 X77.109 Y94.850 E2.64245
G1 X77.109 Y105.150 E2.96114
G1 X73.576 Y105.150 E3.07045
G1 X73.548 Y103.572 E3.11927
G1 X73.327 Y103.048 F7800.000
G1 E1.11927 F2400.00000
G92 E0
G1 X75.616 Y104.143 F7800.000
G1 E2.00000 F2400.00000
G1 F1800
G1 X76.102 Y103.657 E2.02131
G1 X76.102 Y102.772 E2.04875
G1 X74.730 Y104.143 E2.10886
G1 X74.571 Y104.143 E2.11380
G1 X74.570 Y103.418 E2.13628
G1 X76.102 Y101.887 E2.20340
G1 X76.102 Y101.001 E2.23084
G1 X74.570 Y102.534 E2.29800
G1 X74.569 Y101.649 E2.32541
G1 X76.102 Y100.116 E2.39261
G1 X76.102 Y99.231 E2.42004
G1 X74.568 Y100.765 E2.48728
G1 X74.567 Y99.880 E2.51469
G1 X76.102 Y98.346 E2.58196
G1 X76.102 Y97.460 E2.60940
G1 X74.566 Y98.996 E2.67671
G1 X74.565 Y98.112 E2.70412
G1 X76.102 Y96.575 E2.77147
G1 X76.102 Y95.857 E2.79374
G1 X75.935 Y95.857 E2.79891
G1 X74.564 Y97.227 E2.85899
G1 X74.564 Y96.343 E2.88640
G1 X75.050 Y95.857 E2.90771
G1 Z22.522 F7800.000
G1 E0.90771 F2400.00000
G92 E0
G1 X115.295 Y104.664 F7800.000
G1 E2.00000 F2400.00000
G1 F900
G1 X115.295 Y95.336 E2.25166
G1 X116.650 Y95.336 E2.28822
G1 X116.650 Y104.664 E2.53988
G1 X115.370 Y104.664 E2.57442
G1 X114.734 Y105.225 F7800.000
G1 F900
G1 X114.734 Y94.775 E2.78980
G1 X117.211 Y94.775 E2.84085
G1 X117.211 Y105.225 E3.05623
G1 X114.809 Y105.225 E3.10573
G1 X114.773 Y104.727 F7800.000
G1 X115.973 Y104.347 F7800.000
G1 F1200
G1 X115.973 Y95.653 E3.34757
G1 E1.34757 F2400.00000
G92 E0
G1 X74.364 Y95.935 F7800.000
G1 E2.00000 F2400.00000
G1 F900
G1 X74.020 Y95.756 E2.01047
G1 X74.340 Y95.590 E2.02019
G1 X74.352 Y95.336 E2.02706
G1 X76.948 Y95.336 E2.09709
G1 X76.948 Y104.664 E2.34874
G1 X74.379 Y104.664 E2.41805
G1 X74.360 Y103.564 E2.44773
G1 X74.364 Y96.010 E2.65152
G1 X73.804 Y99.336 F7800.000
G1 F900
G1 X73.804 Y96.276 E2.71459
G1 X73.425 Y96.079 E2.72339
G1 X73.329 Y95.998 E2.72598
G1 X73.254 Y95.885 E2.72877
G1 X73.225 Y95.747 E2.73168
G1 X73.267 Y95.596 E2.73492
G1 X73.329 Y95.515 E2.73702
G1 X73.425 Y95.433 E2.73961
G1 X73.796 Y95.241 E2.74822
G1 X73.819 Y94.775 E2.75783
G1 X77.509 Y94.775 E2.83388
G1 X77.509 Y105.225 E3.04926
G1 X73.827 Y105.225 E3.12512
G1 X73.799 Y103.506 E3.16056
G1 X72.390 Y103.669 E3.18979
G1 X72.390 Y103.222 E3.19901
G1 X73.804 Y103.063 E3.22835
G1 X73.804 Y99.778 E3.29603
G1 X72.390 Y99.942 E3.32538
G1 X72.390 Y99.495 E3.33460
G1 X73.729 Y99.344 E3.36239
G1 X74.299 Y99.268 F7800.000
G1 E1.36239 F2400.00000
G92 E0
G1 X72.390 Y101.284 F7800.000
G1 E2.00000 F2400.00000
G1 F900
G1 X72.705 Y101.566 E2.00873
G1 X72.827 Y101.741 E2.01312
G1 X72.899 Y101.934 E2.01737
G1 X72.923 Y102.148 E2.02180
G1 X72.875 Y102.427 E2.02765
G1 X72.715 Y102.745 E2.03499
G1 X72.476 Y102.666 E2.04017
G1 X72.510 Y102.475 E2.04417
G1 X72.417 Y102.117 E2.05179
G1 X72.390 Y102.088 E2.05261
G1 X72.390 Y101.359 E2.06765
G1 X72.619 Y101.640 F7800.000
G1 E0.06765 F2400.00000
G92 E0
G1 X72.715 Y99.018 F7800.000
G1 E2.00000 F2400.00000
G1 F900
G1 X72.476 Y98.939 E2.00519
G1 X72.510 Y98.748 E2.00918
G1 X72.417 Y98.390 E2.01680
G1 X72.390 Y98.361 E2.01762
G1 X72.390 Y97.557 E2.03421
G1 X72.705 Y97.839 E2.04294
G1 X72.827 Y98.014 E2.04733
G1 X72.899 Y98.207 E2.05158
G1 X72.923 Y98.420 E2.05601
G1 X72.875 Y98.700 E2.06186
G1 X72.749 Y98.951 E2.06765
G1 X72.549 Y98.829 F7800.000
G1 E0.06765 F2400.00000
G92 E0
G1 X76.560 Y96.219 F7800.000
G1 E2.00000 F2400.00000
G1 F1200
G1 X76.065 Y95.724 E2.01966
G1 X75.128 Y95.724 E2.04598
G1 X76.560 Y97.155 E2.10287
G1 X76.560 Y98.092 E2.12919
G1 X74.752 Y96.285 E2.20102
G1 X74.752 Y97.221 E2.22733
G1 X76.560 Y99.028 E2.29918
G1 X76.560 Y99.965 E2.32551
G1 X74.751 Y98.157 E2.39738
G1 X74.751 Y99.093 E2.42369
G1 X76.560 Y100.901 E2.49558
G1 X76.560 Y101.838 E2.52191
G1 X74.750 Y100.029 E2.59382
G1 X74.750 Y100.965 E2.62013
G1 X76.560 Y102.775 E2.69206
G1 X76.560 Y103.711 E2.71838
G1 X74.749 Y101.901 E2.79033
G1 X74.749 Y102.837 E2.81664
G1 X76.188 Y104.276 E2.87383
G1 X75.251 Y104.276 E2.90016
G1 X74.757 Y103.781 E2.91981
G1 Z22.822 F7800.000
G1 E0.91981 F2400.00000
G92 E0
G1 X116.972 Y105.500 F7800.000
G1 E2.00000 F2400.00000
G1 F1800
G1 X116.972 Y94.500 E2.07070
G1 E0.07070 F2400.00000
G92 E0
G1 X74.664 Y99.080 F7800.000
G1 E2.00000 F2400.00000
G1 F900
G1 X74.339 Y99.117 E2.00885
G1 X74.339 Y98.107 E2.03610
G1 X74.664 Y98.107 E2.04489
G1 X74.664 Y95.336 E2.11966
G1 X77.248 Y95.336 E2.18935
G1 X77.248 Y104.664 E2.44101
G1 X74.679 Y104.664 E2.51030
G1 X74.649 Y102.809 E2.56037
G1 X74.339 Y102.845 E2.56881
G1 X74.339 Y101.834 E2.59606
G1 X74.664 Y101.834 E2.60485
G1 X74.664 Y99.155 E2.67714
G1 X74.104 Y99.709 F7800.000
G1 F900
G1 X72.690 Y99.873 E2.70648
G1 X72.690 Y99.427 E2.71567
G1 X73.778 Y99.305 E2.73824
G1 X73.778 Y97.547 E2.77447
G1 X74.104 Y97.547 E2.78119
G1 X74.104 Y95.244 E2.82864
G1 X74.090 Y95.243 E2.82894
G1 X74.117 Y94.775 E2.83859
G1 X77.809 Y94.775 E2.91469
G1 X77.809 Y105.225 E3.13006
G1 X74.128 Y105.225 E3.20593
G1 X74.099 Y103.437 E3.24279
G1 X72.690 Y103.600 E3.27203
G1 X72.690 Y103.154 E3.28121
G1 X73.778 Y103.032 E3.30379
G1 X73.778 Y101.274 E3.34002
G1 X74.104 Y101.274 E3.34673
G1 X74.104 Y99.784 E3.37744
G1 X74.100 Y99.209 F7800.000
G1 E1.37744 F2400.00000
G92 E0
G1 X72.593 Y102.888 F7800.000
G1 E2.00000 F2400.00000
G1 F1800
G1 X72.657 Y102.149 E2.01243
G1 X72.644 Y101.924 E2.01620
G1 X72.534 Y101.312 E2.02660
G1 E0.02660 F2400.00000
G92 E0
G1 X72.593 Y99.161 F7800.000
G1 E2.00000 F2400.00000
G1 F1800
G1 X72.657 Y98.421 E2.01243
G1 X72.644 Y98.196 E2.01620
G1 X72.534 Y97.585 E2.02660
G1 X73.358 Y96.200 F7800.000
G1 F1800
G1 X73.561 Y96.268 E2.03098
G1 X73.829 Y96.290 E2.03648
G1 X73.358 Y96.200 F7800.000
G1 F1800
G1 X73.150 Y96.056 E2.04242
G1 F1800
G1 X73.072 Y95.957 E2.04585
G1 X73.013 Y95.818 E2.04992
G1 X73.014 Y95.695 E2.05328
G1 X73.066 Y95.583 E2.05662
G1 F1800
G1 X73.217 Y95.410 E2.06230
G1 F1800
G1 X73.359 Y95.314 E2.06604
G1 F1800
G1 X73.555 Y95.248 E2.07008
G1 X75.547 Y95.724 F7800.000
G1 F1200
G1 X75.053 Y96.219 E2.08974
G1 X75.053 Y97.156 E2.11609
G1 X76.484 Y95.724 E2.17301
G1 X76.860 Y95.724 E2.18357
G1 X76.860 Y96.286 E2.19936
G1 X75.053 Y98.092 E2.27121
G1 X75.053 Y99.029 E2.29755
G1 X76.860 Y97.223 E2.36940
G1 X76.860 Y98.160 E2.39575
G1 X75.053 Y99.966 E2.46759
G1 X75.053 Y100.903 E2.49394
G1 X76.860 Y99.097 E2.56578
G1 X76.860 Y100.034 E2.59213
G1 X75.053 Y101.840 E2.66398
G1 X75.053 Y102.717 E2.68864
G1 X75.032 Y102.717 E2.68921
G1 X75.034 Y102.796 E2.69143
G1 X76.860 Y100.971 E2.76404
G1 X76.860 Y101.908 E2.79038
G1 X75.049 Y103.718 E2.86240
G1 X75.058 Y104.276 E2.87808
G1 X75.428 Y104.276 E2.88849
G1 X76.860 Y102.844 E2.94542
G1 X76.860 Y103.781 E2.97176
G1 X76.365 Y104.276 E2.99143
M106 S249.9
G1 Z23.122 F7800.000
G1 X74.964 Y99.010 F7800.000
G1 F900
G1 X74.039 Y99.117 E3.01657
G1 X74.039 Y98.107 E3.04382
G1 X74.964 Y98.107 E3.06879
G1 X74.964 Y95.336 E3.14357
G1 X77.548 Y95.336 E3.21326
G1 X77.548 Y104.664 E3.46492
G1 X74.980 Y104.664 E3.53420
G1 X74.950 Y102.739 E3.58614
G1 X74.039 Y102.845 E3.61089
G1 X74.039 Y101.834 E3.63814
G1 X74.964 Y101.834 E3.66312
G1 X74.964 Y99.085 E3.73728
G1 X74.404 Y99.640 F7800.000
G1 F900
G1 X72.990 Y99.803 E3.76662
G1 X72.990 Y99.360 E3.77576
G1 X73.478 Y99.305 E3.78589
G1 X73.478 Y97.547 E3.82213
G1 X74.404 Y97.547 E3.84121
G1 X74.404 Y95.983 E3.87343
G1 X74.218 Y96.054 E3.87753
G1 X74.085 Y95.896 E3.88179
G1 X74.143 Y95.797 E3.88417
G1 X74.031 Y95.386 E3.89295
G1 X74.386 Y95.522 E3.90079
G1 X74.420 Y94.775 E3.91621
G1 X78.109 Y94.775 E3.99223
G1 X78.109 Y105.225 E4.20761
G1 X74.428 Y105.225 E4.28347
G1 X74.399 Y103.367 E4.32176
G1 X72.990 Y103.530 E4.35100
G1 X72.990 Y103.087 E4.36015
G1 X73.478 Y103.032 E4.37028
G1 X73.478 Y101.274 E4.40651
G1 X74.404 Y101.274 E4.42559
G1 X74.404 Y99.715 E4.45773
G1 X74.451 Y99.142 F7800.000
G1 E2.45773 F2400.00000
G92 E0
G1 X73.693 Y96.256 F7800.000
G1 E2.00000 F2400.00000
G1 F1800
G1 X73.450 Y96.286 E2.00466
G1 X73.266 Y96.269 E2.00820
G1 X72.995 Y96.167 E2.01370
G1 X72.997 Y95.346 F7800.000
G1 F1800
G1 X73.059 Y95.314 E2.01518
G1 F1800
G1 X73.266 Y95.246 E2.01927
G1 X73.441 Y95.229 E2.02257
G1 E0.02257 F2400.00000
G92 E0
G1 X74.356 Y98.592 F7800.000
G1 E2.00000 F2400.00000
G1 F1200
G1 X75.282 Y98.539 E2.00844
G1 X75.847 Y97.715 F7800.000
G1 F1200
G1 X75.847 Y97.992 E2.01620
G1 X76.108 Y97.976 E2.02355
G1 X75.353 Y97.221 E2.05357
G1 X75.353 Y96.285 E2.07988
G1 X77.160 Y98.091 E2.15169
G1 X77.160 Y97.155 E2.17800
G1 X75.729 Y95.724 E2.23487
G1 X76.665 Y95.724 E2.26118
G1 X77.160 Y96.219 E2.28084
G1 X77.160 Y99.028 F7800.000
G1 F1200
G1 X75.626 Y97.494 E2.34180
G1 X75.683 Y98.488 E2.36977
G1 X77.160 Y99.964 E2.42845
G1 X77.160 Y100.901 E2.45476
G1 X75.353 Y99.094 E2.52657
G1 X75.353 Y100.030 E2.55288
G1 X77.160 Y101.837 E2.62468
G1 X77.160 Y102.773 E2.65100
G1 X75.604 Y101.217 E2.71283
G1 X75.661 Y102.211 E2.74080
G1 X77.160 Y103.710 E2.80036
G1 X77.160 Y104.276 E2.81627
G1 X76.789 Y104.276 E2.82667
G1 X75.344 Y102.830 E2.88412
G1 X75.358 Y103.781 E2.91086
G1 X75.853 Y104.276 E2.93050
G1 X76.090 Y101.704 F7800.000
G1 F1200
G1 X75.353 Y100.967 E2.95981
G1 X75.260 Y102.267 F7800.000
G1 F1200
G1 X74.356 Y102.320 E2.96810
G1 Z23.422 F7800.000
G1 E0.96810 F2400.00000
G92 E0
G1 X75.268 Y95.336 F7800.000
G1 E2.00000 F2400.00000
G1 F900
G1 X77.885 Y95.336 E2.07061
G1 X77.885 Y104.664 E2.32226
G1 X75.280 Y104.664 E2.39255
G1 X75.266 Y103.749 E2.41725
G1 X75.268 Y95.411 E2.64219
G1 X74.718 Y94.775 F7800.000
G1 F900
G1 X78.446 Y94.775 E2.71903
G1 X78.446 Y105.225 E2.93440
G1 X74.728 Y105.225 E3.01104
G1 X74.706 Y103.753 E3.04137
G1 X74.714 Y94.850 E3.22487
G1 X75.150 Y95.026 F7800.000
G1 X76.151 Y95.724 F7800.000
G1 F1200
G1 X75.656 Y96.219 E3.24461
G1 X75.656 Y97.159 E3.27115
G1 X77.091 Y95.724 E3.32843
G1 X77.497 Y95.724 E3.33988
G1 X77.497 Y96.259 E3.35497
G1 X75.656 Y98.100 E3.42844
G1 X75.656 Y99.040 E3.45499
G1 X77.497 Y97.199 E3.52847
G1 X77.497 Y98.139 E3.55501
G1 X75.656 Y99.981 E3.62851
G1 X75.655 Y100.921 E3.65505
G1 X77.497 Y99.080 E3.72855
G1 X77.497 Y100.020 E3.75509
G1 X75.655 Y101.862 E3.82860
G1 X75.655 Y102.803 E3.85514
G1 X77.497 Y100.960 E3.92867
G1 X77.497 Y101.901 E3.95520
G1 X75.655 Y103.743 E4.02873
G1 X75.659 Y104.276 E4.04377
G1 X76.062 Y104.276 E4.05515
G1 X77.497 Y102.841 E4.11242
G1 X77.497 Y103.781 E4.13895
G1 X77.002 Y104.276 E4.15869
G1 E2.15869 F2400.00000
G92 E0
G1 X73.882 Y97.547 F7800.000
G1 E2.00000 F2400.00000
G1 F900
G1 X73.882 Y99.665 E2.04366
G1 X73.290 Y99.734 E2.05596
G1 X73.290 Y97.547 E2.10103
G1 X73.807 Y97.547 E2.11170
G1 X73.838 Y98.045 F7800.000
G1 E0.11170 F2400.00000
G92 E0
G1 X73.271 Y95.239 F7800.000
G1 E2.00000 F2400.00000
G1 F1800
G1 X73.416 Y95.266 E2.00284
G1 X73.549 Y95.315 E2.00556
G1 F1800
G1 X73.752 Y95.454 E2.01088
G1 F1800
G1 X73.871 Y95.631 E2.01624
G1 X73.899 Y95.757 E2.01951
G1 X73.871 Y95.881 E2.02271
G1 X73.689 Y96.105 E2.02998
G1 F1800
G1 X73.550 Y96.199 E2.03377
G1 F1800
G1 X73.339 Y96.269 E2.03829
G1 X73.268 Y96.276 E2.03974
G1 X73.245 Y96.256 E2.04036
G1 F1800
G1 X73.199 Y96.215 E2.04140
G1 F1800
G1 X73.095 Y96.115 E2.04325
G1 F1800
G1 X73.015 Y96.036 E2.04431
G1 E0.04431 F2400.00000
G92 E0
G1 X73.882 Y101.274 F7800.000
G1 E2.00000 F2400.00000
G1 F900
G1 X73.882 Y103.392 E2.04366
G1 X73.290 Y103.461 E2.05596
G1 X73.290 Y101.274 E2.10103
G1 X73.807 Y101.274 E2.11170
G1 X73.838 Y101.772 F7800.000
M106 S252.45
G1 Z23.722 F7800.000
G1 E0.11170 F2400.00000
G92 E0
G1 X75.580 Y104.664 F7800.000
G1 E2.00000 F2400.00000
G1 F900
G1 X75.571 Y95.336 E2.25166
G1 X78.243 Y95.336 E2.32374
G1 X78.243 Y104.664 E2.57539
G1 X75.655 Y104.664 E2.64521
G1 X75.028 Y105.225 F7800.000
G1 F900
G1 X75.010 Y104.014 E2.67018
G1 X75.021 Y94.775 E2.86059
G1 X78.804 Y94.775 E2.93854
G1 X78.804 Y105.225 E3.15392
G1 X75.103 Y105.225 E3.23019
G1 X75.081 Y104.728 F7800.000
G1 X75.968 Y103.781 F7800.000
G1 F1200
G1 X76.462 Y104.276 E3.25003
G1 X77.407 Y104.276 E3.27683
G1 X75.967 Y102.836 E3.33459
G1 X75.966 Y101.890 E3.36142
G1 X77.855 Y103.778 E3.43716
G1 X77.855 Y102.833 E3.46395
G1 X75.965 Y100.944 E3.53973
G1 X75.964 Y99.998 E3.56655
G1 X77.855 Y101.888 E3.64237
G1 X77.855 Y100.943 E3.66916
G1 X75.963 Y99.052 E3.74501
G1 X75.962 Y98.106 E3.77184
G1 X77.855 Y99.998 E3.84772
G1 X77.855 Y99.053 E3.87452
G1 X75.961 Y97.160 E3.95044
G1 X75.961 Y96.214 E3.97727
G1 X77.855 Y98.108 E4.05323
G1 X77.855 Y97.164 E4.08002
G1 X76.415 Y95.724 E4.13775
G1 X77.360 Y95.724 E4.16455
G1 X77.855 Y96.219 E4.18439
G1 E2.18439 F2400.00000
G92 E0
