; generated by Slic3r 1.3.0-dev on 2018-04-23 at 16:50:21

; external perimeters extrusion width = 0.44mm (2.54mm^3/s)
; perimeters extrusion width = 0.56mm (4.14mm^3/s)
; infill extrusion width = 0.50mm (3.66mm^3/s)
; solid infill extrusion width = 0.56mm (4.14mm^3/s)
; top infill extrusion width = 0.56mm (4.14mm^3/s)

M107
M104 S210 ; set temperature
G28 ; home all axes
G32; probe home individual Z axis
G29 S1; load bed mesh

; Filament gcode

M109 S210 ; set temperature and wait for it to be reached
G21 ; set units to millimeters
G90 ; use absolute coordinates
M82 ; use absolute distances for extrusion
G92 E0
G1 U0.822 V92.509 Z46.665 F6000.000
G1 E-2.00000 F2400.00000
G92 E0
G1 X172.569 Y76.807 F6000.000
G1 E2.00000 F2400.00000
G1 F1680
G1 X181.535 Y76.807 E2.37612
G1 X181.555 Y94.207 E3.10608
G1 X181.527 Y97.793 E3.25649
G1 X172.569 Y97.793 E3.63231
G1 X172.569 Y76.867 E4.51016
G1 X172.254 Y76.492 F6000.000
G1 F1344
G1 X181.843 Y76.492 E4.91245
G1 X181.857 Y77.112 E4.93847
G1 X181.871 Y94.209 E5.65569
G1 X181.840 Y98.108 E5.81928
G1 X172.254 Y98.108 E6.22145
G1 X172.254 Y76.552 E7.12575
G1 X172.624 Y76.642 F6000.000
G1 X172.929 Y77.078 F6000.000
G1 F1680
G1 X172.840 Y77.167 E7.13108
G1 X172.840 Y77.616 E7.14998
G1 X173.377 Y77.078 E7.18203
G1 X173.825 Y77.078 E7.20093
G1 X172.840 Y78.064 E7.25971
G1 X172.840 Y78.512 E7.27861
G1 X174.274 Y77.078 E7.36411
G1 X174.722 Y77.078 E7.38301
G1 X172.840 Y78.960 E7.49524
G1 X172.840 Y79.408 E7.51414
G1 X175.170 Y77.078 E7.65309
G1 X175.618 Y77.078 E7.67199
G1 X172.840 Y79.857 E7.83767
G1 X172.840 Y80.305 E7.85657
G1 X176.066 Y77.078 E8.04898
G1 X176.515 Y77.078 E8.06787
G1 X172.840 Y80.753 E8.28701
G1 X172.840 Y81.201 E8.30590
G1 X176.963 Y77.078 E8.55176
G1 X177.411 Y77.078 E8.57066
G1 X172.840 Y81.649 E8.84324
G1 X172.840 Y82.098 E8.86214
G1 X177.859 Y77.078 E9.16145
G1 X178.307 Y77.078 E9.18035
G1 X172.840 Y82.546 E9.50638
G1 X172.840 Y82.994 E9.52528
G1 X178.756 Y77.078 E9.87804
G1 X179.204 Y77.078 E9.89694
G1 X172.840 Y83.442 E10.27642
G1 X172.840 Y83.890 E10.29532
G1 X179.652 Y77.078 E10.70153
G1 X180.100 Y77.078 E10.72043
G1 X172.840 Y84.339 E11.15337
G1 X172.840 Y84.787 E11.17227
G1 X180.548 Y77.078 E11.63193
G1 X180.997 Y77.078 E11.65083
G1 X172.840 Y85.235 E12.13721
G1 X172.840 Y85.683 E12.15611
G1 X181.271 Y77.252 E12.65886
G1 X181.271 Y77.700 E12.67774
G1 X172.840 Y86.131 E13.18050
G1 X172.840 Y86.580 E13.19940
G1 X181.272 Y78.148 E13.70219
G1 X181.272 Y78.595 E13.72107
G1 X172.840 Y87.028 E14.22388
G1 X172.840 Y87.476 E14.24278
G1 X181.272 Y79.043 E14.74561
G1 X181.273 Y79.491 E14.76449
G1 X172.840 Y87.924 E15.26734
G1 X172.840 Y88.372 E15.28624
G1 X181.273 Y79.939 E15.78912
G1 X181.273 Y80.387 E15.80800
G1 X172.840 Y88.821 E16.31089
G1 X172.840 Y89.269 E16.32979
G1 X181.274 Y80.835 E16.83271
G1 X181.274 Y81.282 E16.85159
G1 X172.840 Y89.717 E17.35453
G1 X172.840 Y90.165 E17.37343
G1 X181.274 Y81.730 E17.87639
G1 X181.275 Y82.178 E17.89528
G1 X172.840 Y90.613 E18.39826
G1 X172.840 Y91.062 E18.41716
G1 X181.275 Y82.626 E18.92017
G1 X181.276 Y83.074 E18.93905
G1 X172.840 Y91.510 E19.44208
G1 X172.840 Y91.958 E19.46097
G1 X181.276 Y83.522 E19.96403
G1 X181.276 Y83.969 E19.98291
G1 X172.840 Y92.406 E20.48598
G1 X172.840 Y92.854 E20.50488
G1 X181.277 Y84.417 E21.00797
G1 X181.277 Y84.865 E21.02685
G1 X172.840 Y93.303 E21.52997
G1 X172.840 Y93.751 E21.54887
G1 X181.277 Y85.313 E22.05201
G1 X181.278 Y85.761 E22.07089
G1 X172.840 Y94.199 E22.57405
G1 X172.840 Y94.647 E22.59295
G1 X181.278 Y86.209 E23.09613
G1 X181.279 Y86.656 E23.11501
G1 X172.840 Y95.095 E23.61822
G1 X172.840 Y95.544 E23.63711
G1 X181.279 Y87.104 E24.14034
G1 X181.279 Y87.552 E24.15922
G1 X172.840 Y95.992 E24.66247
G1 X172.840 Y96.440 E24.68137
G1 X181.280 Y88.000 E25.18464
G1 X181.280 Y88.448 E25.20352
G1 X172.840 Y96.888 E25.70681
G1 X172.840 Y97.336 E25.72571
G1 X181.280 Y88.896 E26.22902
G1 X181.281 Y89.343 E26.24791
G1 X173.102 Y97.522 E26.73558
G1 X173.550 Y97.522 E26.75448
G1 X181.281 Y89.791 E27.21545
G1 X181.281 Y90.239 E27.23434
G1 X173.999 Y97.522 E27.66861
G1 X174.447 Y97.522 E27.68751
G1 X181.282 Y90.687 E28.09507
G1 X181.282 Y91.135 E28.11395
G1 X174.895 Y97.522 E28.49482
G1 X175.343 Y97.522 E28.51371
G1 X181.283 Y91.583 E28.86787
G1 X181.283 Y92.030 E28.88676
G1 X175.791 Y97.522 E29.21421
G1 X176.240 Y97.522 E29.23311
G1 X181.283 Y92.478 E29.53386
G1 X181.284 Y92.926 E29.55274
G1 X176.688 Y97.522 E29.82679
G1 X177.136 Y97.522 E29.84569
G1 X181.284 Y93.374 E30.09303
G1 X181.284 Y93.822 E30.11192
G1 X177.584 Y97.522 E30.33256
G1 X178.032 Y97.522 E30.35146
G1 X181.284 Y94.270 E30.54534
G1 X181.280 Y94.722 E30.56438
G1 X178.481 Y97.522 E30.73133
G1 X178.929 Y97.522 E30.75023
G1 X181.277 Y95.174 E30.89024
G1 X181.273 Y95.626 E30.90928
G1 X179.377 Y97.522 E31.02235
G1 X179.825 Y97.522 E31.04125
G1 X181.270 Y96.077 E31.12739
G1 X181.266 Y96.529 E31.14644
G1 X180.273 Y97.522 E31.20564
G1 X180.722 Y97.522 E31.22453
G1 X181.263 Y96.981 E31.25680
G1 X181.259 Y97.433 E31.27584
G1 X181.170 Y97.522 E31.28117
M104 S205 ; set temperature
G1 U1.022 V92.709 Z46.865 F6000.000
G1 X172.392 Y76.977 F6000.000
G1 F2400
G1 X181.023 Y76.977 E31.65228
G1 X181.045 Y79.265 E31.75065
G1 X181.045 Y93.330 E32.35536
G1 X181.025 Y97.623 E32.53996
G1 X172.392 Y97.623 E32.91115
G1 X172.392 Y77.037 E33.79624
G1 X171.934 Y76.520 F6000.000
G1 F1920
G1 X181.468 Y76.520 E34.11103
G1 X181.502 Y79.263 E34.20160
G1 X181.503 Y93.331 E34.66608
G1 X181.480 Y98.080 E34.82289
G1 X171.934 Y98.080 E35.13804
G1 X171.934 Y76.580 E35.84792
G1 X172.305 Y76.670 F6000.000
G1 E33.84792 F2400.00000
G92 E0
G1 X180.584 Y77.567 F6000.000
G1 E2.00000 F2400.00000
G1 F2400
G1 X180.438 Y77.421 E2.00895
G1 X179.702 Y77.421 E2.04076
G1 X180.591 Y78.310 E2.09512
G1 X180.598 Y79.052 E2.12723
G1 X178.967 Y77.421 E2.22701
G1 X178.231 Y77.421 E2.25881
G1 X180.601 Y79.791 E2.40373
G1 X180.601 Y80.526 E2.43554
G1 X177.495 Y77.421 E2.62545
G1 X176.760 Y77.421 E2.65726
G1 X180.601 Y81.262 E2.89215
G1 X180.601 Y81.997 E2.92395
G1 X176.024 Y77.421 E3.20383
G1 X175.289 Y77.421 E3.23564
G1 X180.601 Y82.733 E3.56049
G1 X180.601 Y83.468 E3.59230
G1 X174.553 Y77.421 E3.96215
G1 X173.818 Y77.421 E3.99395
G1 X180.601 Y84.204 E4.40878
G1 X180.601 Y84.940 E4.44059
G1 X173.082 Y77.421 E4.90040
G1 X172.835 Y77.421 E4.91108
G1 X172.835 Y77.910 E4.93221
G1 X180.601 Y85.675 E5.40713
G1 X180.601 Y86.411 E5.43894
G1 X172.835 Y78.645 E5.91386
G1 X172.835 Y79.381 E5.94567
G1 X180.601 Y87.146 E6.42059
G1 X180.601 Y87.882 E6.45240
G1 X172.835 Y80.116 E6.92733
G1 X172.835 Y80.852 E6.95914
G1 X180.601 Y88.617 E7.43407
G1 X180.601 Y89.353 E7.46588
G1 X172.835 Y81.587 E7.94082
G1 X172.835 Y82.323 E7.97262
G1 X180.601 Y90.088 E8.44756
G1 X180.601 Y90.824 E8.47937
G1 X172.835 Y83.058 E8.95431
G1 X172.835 Y83.794 E8.98612
G1 X180.601 Y91.559 E9.46106
G1 X180.601 Y92.295 E9.49287
G1 X172.835 Y84.529 E9.96782
G1 X172.835 Y85.265 E9.99962
G1 X180.602 Y93.031 E10.47457
G1 X180.600 Y93.764 E10.50631
G1 X172.835 Y86.000 E10.98115
G1 X172.835 Y86.736 E11.01296
G1 X180.596 Y94.496 E11.48758
G1 X180.593 Y95.228 E11.51924
G1 X172.835 Y87.471 E11.99365
G1 X172.835 Y88.207 E12.02545
G1 X180.589 Y95.960 E12.49964
G1 X180.586 Y96.692 E12.53130
G1 X172.835 Y88.942 E13.00527
G1 X172.835 Y89.678 E13.03708
G1 X180.337 Y97.179 E13.49585
G1 X179.601 Y97.179 E13.52765
G1 X172.835 Y90.413 E13.94144
G1 X172.835 Y91.149 E13.97325
G1 X178.866 Y97.179 E14.34205
G1 X178.130 Y97.179 E14.37386
G1 X172.835 Y91.884 E14.69768
G1 X172.835 Y92.620 E14.72949
G1 X177.395 Y97.179 E15.00833
G1 X176.659 Y97.179 E15.04014
G1 X172.835 Y93.355 E15.27400
G1 X172.835 Y94.091 E15.30581
G1 X175.924 Y97.179 E15.49469
G1 X175.188 Y97.179 E15.52649
G1 X172.835 Y94.826 E15.67039
G1 X172.835 Y95.562 E15.70220
G1 X174.453 Y97.179 E15.80112
G1 X173.717 Y97.179 E15.83292
G1 X172.835 Y96.297 E15.88686
G1 X172.835 Y97.033 E15.91867
G1 X172.982 Y97.179 E15.92761
G1 U1.222 V92.909 Z47.065 F6000.000
G1 X172.125 Y76.977 F6000.000
G1 F2400
G1 X180.756 Y76.977 E16.29871
G1 X180.783 Y79.668 E16.41440
G1 X180.784 Y92.654 E16.97275
G1 X180.760 Y97.623 E17.18639
G1 X172.125 Y97.623 E17.55766
G1 X172.125 Y77.037 E18.44276
G1 X171.667 Y76.520 F6000.000
G1 F1920
G1 X181.202 Y76.520 E18.75755
G1 X181.240 Y79.665 E18.86141
G1 X181.241 Y92.655 E19.29029
G1 X181.208 Y98.080 E19.46941
G1 X171.667 Y98.080 E19.78441
G1 X171.667 Y76.580 E20.49428
G1 X172.038 Y76.670 F6000.000
G1 X172.569 Y77.567 F6000.000
G1 F2400
G1 X172.715 Y77.421 E20.50323
G1 X173.450 Y77.421 E20.53504
G1 X172.569 Y78.303 E20.58898
G1 X172.569 Y79.039 E20.62079
G1 X174.186 Y77.421 E20.71971
G1 X174.922 Y77.421 E20.75152
G1 X172.569 Y79.774 E20.89544
G1 X172.569 Y80.510 E20.92725
G1 X175.657 Y77.421 E21.11614
G1 X176.393 Y77.421 E21.14795
G1 X172.569 Y81.245 E21.38184
G1 X172.569 Y81.981 E21.41365
G1 X177.128 Y77.421 E21.69252
G1 X177.864 Y77.421 E21.72433
G1 X172.569 Y82.716 E22.04818
G1 X172.569 Y83.452 E22.07999
G1 X178.599 Y77.421 E22.44883
G1 X179.335 Y77.421 E22.48064
G1 X172.569 Y84.187 E22.89447
G1 X172.569 Y84.923 E22.92628
G1 X180.070 Y77.421 E23.38509
G1 X180.317 Y77.421 E23.39576
G1 X180.322 Y77.905 E23.41669
G1 X172.569 Y85.658 E23.89089
G1 X172.569 Y86.394 E23.92270
G1 X180.329 Y78.633 E24.39734
G1 X180.336 Y79.361 E24.42883
G1 X172.569 Y87.129 E24.90392
G1 X172.569 Y87.865 E24.93573
G1 X180.339 Y80.095 E25.41097
G1 X180.339 Y80.830 E25.44277
G1 X172.569 Y88.601 E25.91801
G1 X172.569 Y89.336 E25.94982
G1 X180.339 Y81.566 E26.42507
G1 X180.339 Y82.301 E26.45687
G1 X172.569 Y90.072 E26.93212
G1 X172.569 Y90.807 E26.96393
G1 X180.339 Y83.037 E27.43918
G1 X180.339 Y83.772 E27.47099
G1 X172.569 Y91.543 E27.94624
G1 X172.569 Y92.278 E27.97805
G1 X180.339 Y84.508 E28.45331
G1 X180.339 Y85.243 E28.48511
G1 X172.569 Y93.014 E28.96038
G1 X172.569 Y93.749 E28.99219
G1 X180.339 Y85.978 E29.46745
G1 X180.339 Y86.714 E29.49926
G1 X172.569 Y94.485 E29.97453
G1 X172.569 Y95.220 E30.00634
G1 X180.339 Y87.449 E30.48161
G1 X180.339 Y88.185 E30.51341
G1 X172.569 Y95.956 E30.98869
G1 X172.569 Y96.691 E31.02050
G1 X180.340 Y88.920 E31.49578
G1 X180.340 Y89.656 E31.52759
G1 X172.816 Y97.179 E31.98770
G1 X173.552 Y97.179 E32.01951
G1 X180.340 Y90.391 E32.43465
G1 X180.340 Y91.127 E32.46646
G1 X174.288 Y97.179 E32.83661
G1 X175.023 Y97.179 E32.86842
G1 X180.340 Y91.862 E33.19359
G1 X180.340 Y92.598 E33.22540
G1 X175.759 Y97.179 E33.50558
G1 X176.494 Y97.179 E33.53739
G1 X180.336 Y93.337 E33.77237
G1 X180.333 Y94.076 E33.80434
G1 X177.230 Y97.179 E33.99411
G1 X177.965 Y97.179 E34.02592
G1 X180.329 Y94.815 E34.17049
G1 X180.325 Y95.554 E34.20245
G1 X178.701 Y97.179 E34.30182
G1 X179.436 Y97.179 E34.33363
G1 X180.322 Y96.293 E34.38779
G1 X180.318 Y97.033 E34.41975
G1 X180.172 Y97.179 E34.42871
M106 S252.45
G1 U1.422 V93.109 Z47.265 F6000.000
G1 X171.858 Y76.977 F6000.000
G1 F2400
G1 X180.489 Y76.977 E34.79979
G1 X180.521 Y80.071 E34.93281
G1 X180.522 Y91.979 E35.44480
G1 X180.495 Y97.623 E35.68748
G1 X171.858 Y97.623 E36.05884
G1 X171.858 Y77.037 E36.94393
G1 X171.401 Y76.520 F6000.000
G1 F1920
G1 X180.935 Y76.520 E37.25872
G1 X180.978 Y80.068 E37.37588
G1 X180.979 Y91.980 E37.76916
G1 X180.941 Y98.080 E37.97059
G1 X171.401 Y98.080 E38.28558
G1 X171.401 Y76.580 E38.99546
G1 X171.771 Y76.670 F6000.000
G1 E36.99546 F2400.00000
G92 E0
G1 X180.088 Y78.755 F6000.000
G1 E2.00000 F2400.00000
G1 F2400
G1 X178.728 Y77.395 E2.07311
G1 X175.496 Y77.395 E2.19594
G1 X180.103 Y82.002 E2.44356
G1 X180.103 Y85.234 E2.56641
G1 X172.276 Y77.407 E2.98713
G1 X172.276 Y80.639 E3.10996
G1 X180.104 Y88.467 E3.53070
G1 X180.104 Y91.699 E3.65355
G1 X172.276 Y83.871 E4.07430
G1 X172.276 Y87.103 E4.19714
G1 X180.090 Y94.917 E4.61715
G1 X180.079 Y97.205 E4.70408
G1 X179.145 Y97.205 E4.73956
G1 X172.276 Y90.335 E5.10879
G1 X172.276 Y93.567 E5.23163
G1 X175.913 Y97.205 E5.42715
G1 X172.681 Y97.205 E5.54998
G1 X172.276 Y96.799 E5.57178
G1 U1.622 V93.309 Z47.465 F6000.000
G1 X171.591 Y76.977 F6000.000
G1 F2400
G1 X180.221 Y76.977 E5.94286
G1 X180.259 Y80.473 E6.09319
G1 X180.260 Y91.303 E6.55882
G1 X180.230 Y97.623 E6.83055
G1 X171.591 Y97.623 E7.20199
G1 X171.591 Y77.037 E8.08708
G1 X171.134 Y76.520 F6000.000
G1 F1920
G1 X180.668 Y76.520 E8.40187
G1 X180.716 Y80.471 E8.53233
G1 X180.717 Y91.304 E8.89002
G1 X180.674 Y98.080 E9.11374
G1 X171.134 Y98.080 E9.42874
G1 X171.134 Y76.580 E10.13861
G1 X171.504 Y76.670 F6000.000
G1 X172.681 Y77.395 F6000.000
G1 F2400
G1 X172.009 Y78.068 E10.17476
G1 X172.009 Y81.300 E10.29759
G1 X175.913 Y77.395 E10.50746
G1 X179.145 Y77.395 E10.63029
G1 X172.009 Y84.532 E11.01388
G1 X172.009 Y87.764 E11.13671
G1 X179.836 Y79.937 E11.55741
G1 X179.841 Y83.163 E11.68004
G1 X172.009 Y90.996 E12.10103
G1 X172.009 Y94.228 E12.22387
G1 X179.842 Y86.395 E12.64487
G1 X179.842 Y89.627 E12.76770
G1 X172.264 Y97.205 E13.17501
G1 X175.496 Y97.205 E13.29785
G1 X179.834 Y92.866 E13.53102
G1 X179.819 Y96.114 E13.65446
G1 X178.728 Y97.205 E13.71307
G1 U1.822 V93.509 Z47.665 F6000.000
G1 X171.324 Y76.977 F6000.000
G1 F2400
G1 X179.954 Y76.977 E14.08414
G1 X179.997 Y80.876 E14.25179
G1 X179.999 Y90.628 E14.67106
G1 X179.965 Y97.623 E14.97183
G1 X171.324 Y97.623 E15.34336
G1 X171.324 Y77.037 E16.22846
G1 X170.867 Y76.520 F6000.000
G1 F1920
G1 X180.401 Y76.520 E16.54324
G1 X180.454 Y80.873 E16.68699
G1 X180.456 Y90.629 E17.00909
G1 X180.407 Y98.080 E17.25511
G1 X170.867 Y98.080 E17.57011
G1 X170.867 Y76.580 E18.27998
G1 X171.237 Y76.670 F6000.000
G1 E16.27998 F2400.00000
G92 E0
G1 X179.549 Y78.216 F6000.000
G1 E2.00000 F2400.00000
G1 F2400
G1 X178.728 Y77.395 E2.04412
G1 X175.496 Y77.395 E2.16696
G1 X179.579 Y81.478 E2.38642
G1 X179.580 Y84.711 E2.50928
G1 X172.264 Y77.395 E2.90249
G1 X171.742 Y77.395 E2.92233
G1 X171.742 Y80.105 E3.02532
G1 X179.580 Y87.943 E3.44663
G1 X179.578 Y91.174 E3.56939
G1 X171.742 Y83.337 E3.99059
G1 X171.742 Y86.569 E4.11343
G1 X179.563 Y94.390 E4.53378
G1 X179.549 Y97.205 E4.64077
G1 X179.145 Y97.205 E4.65610
G1 X171.742 Y89.801 E5.05404
G1 X171.742 Y93.033 E5.17687
G1 X175.913 Y97.205 E5.40109
G1 X172.681 Y97.205 E5.52393
G1 X171.742 Y96.265 E5.57442
G1 U2.022 V93.709 Z47.865 F6000.000
G1 X171.057 Y76.977 F6000.000
G1 F2400
G1 X179.687 Y76.977 E5.94548
G1 X179.734 Y80.716 E6.10627
G1 X179.737 Y89.952 E6.50336
G1 X179.700 Y97.623 E6.83317
G1 X171.057 Y97.623 E7.20479
G1 X171.057 Y77.037 E8.08988
G1 X170.600 Y76.520 F6000.000
G1 F1920
G1 X180.134 Y76.520 E8.40467
G1 X180.191 Y80.714 E8.54314
G1 X180.194 Y89.953 E8.84821
G1 X180.156 Y97.771 E9.10635
G1 X180.140 Y98.080 E9.11655
G1 X170.600 Y98.080 E9.43155
G1 X170.600 Y76.580 E10.14142
G1 X170.970 Y76.670 F6000.000
G1 E8.14142 F2400.00000
G92 E0
G1 X172.681 Y77.395 F6000.000
G1 E2.00000 F2400.00000
G1 F2400
G1 X171.475 Y78.602 E2.06484
G1 X171.475 Y81.834 E2.18768
G1 X175.913 Y77.395 E2.42624
G1 X179.145 Y77.395 E2.54908
G1 X171.475 Y85.066 E2.96136
G1 X171.475 Y88.298 E3.08420
G1 X179.313 Y80.460 E3.50550
G1 X179.317 Y83.688 E3.62820
G1 X171.475 Y91.530 E4.04969
G1 X171.475 Y94.762 E4.17252
G1 X179.318 Y86.919 E4.59407
G1 X179.318 Y90.151 E4.71692
G1 X172.264 Y97.205 E5.09604
G1 X175.496 Y97.205 E5.21888
G1 X179.302 Y93.399 E5.42343
G1 X179.286 Y96.647 E5.54687
G1 X178.728 Y97.205 E5.57686
G1 U2.222 V93.909 Z48.065 F6000.000
G1 X170.790 Y76.977 F6000.000
G1 F2400
G1 X179.420 Y76.977 E5.94790
G1 X179.451 Y78.403 E6.00921
G1 X179.472 Y81.144 E6.12710
G1 X179.664 Y81.664 E6.15091
G1 X179.773 Y82.588 E6.19093
G1 X179.688 Y83.329 E6.22296
G1 X179.471 Y83.843 E6.24695
G1 X179.471 Y88.508 E6.44754
G1 X179.692 Y89.033 E6.47201
G1 X179.774 Y89.779 E6.50429
G1 X179.709 Y90.466 E6.53395
G1 X179.472 Y91.168 E6.56580
G1 X179.435 Y97.623 E6.84334
G1 X170.790 Y97.623 E7.21504
G1 X170.790 Y77.037 E8.10014
G1 X170.333 Y76.520 F6000.000
G1 F1920
G1 X179.867 Y76.520 E8.41493
G1 X179.908 Y78.396 E8.47688
G1 X179.929 Y81.061 E8.56489
G1 X180.111 Y81.557 E8.58232
G1 X180.233 Y82.588 E8.61659
G1 X180.135 Y83.446 E8.64510
G1 X179.929 Y83.935 E8.66264
G1 X179.929 Y88.416 E8.81060
G1 X180.139 Y88.917 E8.82853
G1 X180.233 Y89.776 E8.85705
